( Generated by Carbide Copper )
( Material Size )
( X= 152.400, Y= 101.600, Z= 1.580 )
()
G17
G21
G54
G90
M05
(  )
T501 M06
( Contour )
M04 S10000
G0  X100.578 Y80.258
G0  Z3.000
G01 F400 Z0
G01 F400 Z-0.100
G01F400X100.318 Y80.203
X100.075 Y80.095
X99.860 Y79.939
X99.683 Y79.741
X99.550 Y79.511
X99.468 Y79.258
X99.440 Y78.994
X99.468 Y78.730
X99.550 Y78.477
X99.683 Y78.247
X99.860 Y78.049
X100.075 Y77.893
X100.318 Y77.785
X100.578 Y77.730
X100.844 Y77.730
X101.104 Y77.785
X101.347 Y77.893
X101.562 Y78.049
X101.740 Y78.247
X101.872 Y78.477
X101.955 Y78.730
X101.981 Y78.982
X102.008 Y78.730
X102.090 Y78.477
X102.223 Y78.247
X102.400 Y78.049
X102.615 Y77.893
X102.858 Y77.785
X103.118 Y77.730
X103.384 Y77.730
X103.644 Y77.785
X103.887 Y77.893
X104.102 Y78.049
X104.279 Y78.247
X104.412 Y78.477
X104.495 Y78.730
X104.522 Y78.994
X104.495 Y79.258
X104.412 Y79.511
X104.279 Y79.741
X104.102 Y79.939
X103.887 Y80.095
X103.644 Y80.203
X103.384 Y80.258
X103.118 Y80.258
X102.858 Y80.203
X102.615 Y80.095
X102.400 Y79.939
X102.223 Y79.741
X102.090 Y79.511
X102.008 Y79.258
X101.981 Y79.006
X101.955 Y79.258
X101.872 Y79.511
X101.740 Y79.741
X101.562 Y79.939
X101.347 Y80.095
X101.104 Y80.203
X100.844 Y80.258
X100.578 Y80.258
G0 Z3.000
G0  X100.578 Y77.718
G0  Z3.000
G01 F400 Z0
G01 F400 Z-0.100
G01F400X100.318 Y77.663
X100.075 Y77.555
X99.860 Y77.399
X99.683 Y77.201
X99.550 Y76.971
X99.468 Y76.718
X99.440 Y76.454
X99.468 Y76.190
X99.550 Y75.937
X99.683 Y75.707
X99.860 Y75.509
X100.075 Y75.353
X100.318 Y75.245
X100.578 Y75.190
X100.844 Y75.190
X101.104 Y75.245
X101.347 Y75.353
X101.562 Y75.509
X101.740 Y75.707
X101.872 Y75.937
X101.955 Y76.190
X101.981 Y76.442
X102.008 Y76.190
X102.090 Y75.937
X102.223 Y75.707
X102.400 Y75.509
X102.615 Y75.353
X102.858 Y75.245
X103.118 Y75.190
X103.384 Y75.190
X103.644 Y75.245
X103.887 Y75.353
X104.102 Y75.509
X104.279 Y75.707
X104.412 Y75.937
X104.495 Y76.190
X104.522 Y76.454
X104.495 Y76.718
X104.412 Y76.971
X104.279 Y77.201
X104.102 Y77.399
X103.887 Y77.555
X103.644 Y77.663
X103.384 Y77.718
X103.118 Y77.718
X102.858 Y77.663
X102.615 Y77.555
X102.400 Y77.399
X102.223 Y77.201
X102.090 Y76.971
X102.008 Y76.718
X101.981 Y76.466
X101.955 Y76.718
X101.872 Y76.971
X101.740 Y77.201
X101.562 Y77.399
X101.347 Y77.555
X101.104 Y77.663
X100.844 Y77.718
X100.578 Y77.718
G0 Z3.000
G0  X62.534 Y77.184
G0  Z3.000
G01 F400 Z0
G01 F400 Z-0.100
G01F400X62.384 Y77.152
X62.244 Y77.090
X62.120 Y77.000
X62.017 Y76.886
X61.940 Y76.753
X61.893 Y76.607
X61.877 Y76.461
X61.877 Y58.668
X61.893 Y58.521
X61.940 Y58.375
X62.017 Y58.242
X62.120 Y58.128
X62.244 Y58.038
X62.384 Y57.976
X62.534 Y57.944
X82.893 Y57.918
X83.033 Y57.918
X83.183 Y57.950
X83.324 Y58.013
X83.448 Y58.103
X83.550 Y58.217
X83.627 Y58.350
X83.675 Y58.496
X83.691 Y58.649
X83.675 Y58.801
X83.627 Y58.947
X83.550 Y59.080
X83.448 Y59.194
X83.332 Y59.278
X76.224 Y64.034
X76.176 Y64.145
X76.080 Y64.313
X75.947 Y64.460
X75.786 Y64.577
X75.605 Y64.658
X75.410 Y64.699
X75.212 Y64.699
X75.017 Y64.658
X74.836 Y64.577
X74.675 Y64.460
X74.542 Y64.313
X74.443 Y64.141
X74.382 Y63.952
X74.361 Y63.754
X74.382 Y63.556
X74.443 Y63.367
X74.542 Y63.195
X74.675 Y63.048
X74.836 Y62.931
X75.017 Y62.850
X75.212 Y62.809
X75.410 Y62.809
X75.420 Y62.811
X75.443 Y62.794
X75.761 Y62.582
X75.605 Y62.651
X75.410 Y62.693
X75.212 Y62.693
X75.017 Y62.651
X74.836 Y62.570
X74.819 Y62.558
X74.815 Y62.561
X74.674 Y62.624
X74.536 Y62.653
X65.910 Y64.355
X65.910 Y73.234
X84.758 Y73.234
X84.737 Y69.819
X84.753 Y69.672
X84.762 Y69.643
X84.750 Y69.635
X84.600 Y69.467
X84.487 Y69.272
X84.417 Y69.058
X84.394 Y68.834
X84.417 Y68.610
X84.487 Y68.396
X84.600 Y68.201
X84.750 Y68.033
X84.932 Y67.901
X85.138 Y67.809
X85.358 Y67.763
X85.584 Y67.763
X85.804 Y67.809
X86.010 Y67.901
X86.192 Y68.033
X86.343 Y68.201
X86.455 Y68.396
X86.525 Y68.610
X86.548 Y68.834
X86.525 Y69.058
X86.455 Y69.272
X86.343 Y69.467
X86.192 Y69.635
X86.180 Y69.643
X86.189 Y69.672
X86.205 Y69.818
X86.230 Y73.971
X86.215 Y74.118
X86.167 Y74.264
X86.091 Y74.397
X85.988 Y74.511
X85.864 Y74.601
X85.723 Y74.663
X85.573 Y74.695
X65.100 Y74.695
X64.950 Y74.663
X64.809 Y74.601
X64.685 Y74.511
X64.582 Y74.397
X64.505 Y74.264
X64.458 Y74.118
X64.443 Y73.971
X64.443 Y63.748
X64.458 Y63.601
X64.505 Y63.455
X64.582 Y63.322
X64.685 Y63.208
X64.809 Y63.118
X64.950 Y63.056
X65.088 Y63.026
X74.372 Y61.195
X74.524 Y61.195
X74.537 Y61.198
X74.542 Y61.189
X74.675 Y61.041
X74.836 Y60.924
X75.017 Y60.844
X75.212 Y60.802
X75.410 Y60.802
X75.605 Y60.844
X75.786 Y60.924
X75.947 Y61.041
X76.080 Y61.189
X76.179 Y61.361
X76.240 Y61.550
X76.261 Y61.747
X76.240 Y61.945
X76.179 Y62.134
X76.080 Y62.306
X75.947 Y62.454
X75.886 Y62.498
X80.543 Y59.382
X63.345 Y59.404
X63.345 Y75.724
X87.778 Y75.724
X99.333 Y68.805
X99.451 Y68.753
X99.467 Y68.571
X99.550 Y68.317
X99.683 Y68.087
X99.860 Y67.889
X100.075 Y67.733
X100.318 Y67.625
X100.578 Y67.570
X100.844 Y67.570
X101.104 Y67.625
X101.347 Y67.733
X101.562 Y67.889
X101.740 Y68.087
X101.872 Y68.317
X101.955 Y68.570
X101.981 Y68.822
X102.008 Y68.570
X102.090 Y68.317
X102.223 Y68.087
X102.400 Y67.889
X102.615 Y67.733
X102.858 Y67.625
X103.118 Y67.570
X103.384 Y67.570
X103.644 Y67.625
X103.887 Y67.733
X104.102 Y67.889
X104.279 Y68.087
X104.412 Y68.317
X104.495 Y68.570
X104.522 Y68.834
X104.495 Y69.098
X104.412 Y69.351
X104.279 Y69.581
X104.102 Y69.779
X103.887 Y69.935
X103.644 Y70.043
X103.384 Y70.098
X103.118 Y70.098
X102.858 Y70.043
X102.615 Y69.935
X102.400 Y69.779
X102.223 Y69.581
X102.090 Y69.351
X102.008 Y69.098
X101.981 Y68.846
X101.955 Y69.098
X101.872 Y69.351
X101.740 Y69.581
X101.562 Y69.779
X101.347 Y69.935
X101.104 Y70.043
X100.844 Y70.098
X100.578 Y70.098
X100.318 Y70.043
X100.190 Y69.986
X100.186 Y69.989
X100.068 Y70.075
X88.348 Y77.092
X88.213 Y77.152
X88.062 Y77.184
X62.534 Y77.184
G0 Z3.000
G0  X100.578 Y75.178
G0  Z3.000
G01 F400 Z0
G01 F400 Z-0.100
G01F400X100.318 Y75.123
X100.075 Y75.015
X99.860 Y74.859
X99.683 Y74.661
X99.550 Y74.431
X99.468 Y74.178
X99.440 Y73.914
X99.468 Y73.650
X99.550 Y73.397
X99.683 Y73.167
X99.860 Y72.969
X100.075 Y72.813
X100.318 Y72.705
X100.578 Y72.650
X100.844 Y72.650
X101.104 Y72.705
X101.347 Y72.813
X101.562 Y72.969
X101.740 Y73.167
X101.872 Y73.397
X101.955 Y73.650
X101.981 Y73.902
X102.008 Y73.650
X102.090 Y73.397
X102.223 Y73.167
X102.400 Y72.969
X102.615 Y72.813
X102.858 Y72.705
X103.118 Y72.650
X103.384 Y72.650
X103.644 Y72.705
X103.887 Y72.813
X104.102 Y72.969
X104.279 Y73.167
X104.412 Y73.397
X104.495 Y73.650
X104.522 Y73.914
X104.495 Y74.178
X104.412 Y74.431
X104.279 Y74.661
X104.102 Y74.859
X103.887 Y75.015
X103.644 Y75.123
X103.384 Y75.178
X103.118 Y75.178
X102.858 Y75.123
X102.615 Y75.015
X102.400 Y74.859
X102.223 Y74.661
X102.090 Y74.431
X102.008 Y74.178
X101.981 Y73.926
X101.955 Y74.178
X101.872 Y74.431
X101.740 Y74.661
X101.562 Y74.859
X101.347 Y75.015
X101.104 Y75.123
X100.844 Y75.178
X100.578 Y75.178
G0 Z3.000
G0  X100.578 Y72.638
G0  Z3.000
G01 F400 Z0
G01 F400 Z-0.100
G01F400X100.318 Y72.583
X100.075 Y72.475
X99.860 Y72.319
X99.683 Y72.121
X99.550 Y71.891
X99.468 Y71.638
X99.440 Y71.374
X99.468 Y71.110
X99.550 Y70.857
X99.683 Y70.627
X99.860 Y70.429
X100.075 Y70.273
X100.318 Y70.165
X100.578 Y70.110
X100.844 Y70.110
X101.104 Y70.165
X101.347 Y70.273
X101.562 Y70.429
X101.740 Y70.627
X101.872 Y70.857
X101.955 Y71.110
X101.981 Y71.362
X102.008 Y71.110
X102.090 Y70.857
X102.223 Y70.627
X102.400 Y70.429
X102.615 Y70.273
X102.858 Y70.165
X103.118 Y70.110
X103.384 Y70.110
X103.644 Y70.165
X103.887 Y70.273
X104.102 Y70.429
X104.279 Y70.627
X104.412 Y70.857
X104.495 Y71.110
X104.522 Y71.374
X104.495 Y71.638
X104.412 Y71.891
X104.279 Y72.121
X104.102 Y72.319
X103.887 Y72.475
X103.644 Y72.583
X103.384 Y72.638
X103.118 Y72.638
X102.858 Y72.583
X102.615 Y72.475
X102.400 Y72.319
X102.223 Y72.121
X102.090 Y71.891
X102.008 Y71.638
X101.981 Y71.386
X101.955 Y71.638
X101.872 Y71.891
X101.740 Y72.121
X101.562 Y72.319
X101.347 Y72.475
X101.104 Y72.583
X100.844 Y72.638
X100.578 Y72.638
G0 Z3.000
G0  X70.230 Y72.079
G0  Z3.000
G01 F400 Z0
G01 F400 Z-0.100
G01F400X70.080 Y72.047
X69.940 Y71.985
X69.816 Y71.894
X69.713 Y71.780
X69.636 Y71.647
X69.589 Y71.501
X69.574 Y71.355
X69.574 Y66.237
X69.589 Y66.091
X69.636 Y65.945
X69.713 Y65.812
X69.816 Y65.697
X69.940 Y65.607
X70.080 Y65.545
X70.225 Y65.514
X74.378 Y65.106
X74.524 Y65.106
X74.592 Y65.121
X74.675 Y65.029
X74.836 Y64.912
X75.017 Y64.831
X75.212 Y64.790
X75.410 Y64.790
X75.605 Y64.831
X75.786 Y64.912
X75.947 Y65.029
X76.080 Y65.177
X76.179 Y65.349
X76.240 Y65.538
X76.261 Y65.735
X76.240 Y65.933
X76.179 Y66.122
X76.080 Y66.294
X75.947 Y66.441
X75.786 Y66.558
X75.605 Y66.639
X75.410 Y66.680
X75.212 Y66.680
X75.017 Y66.639
X74.836 Y66.558
X74.753 Y66.498
X74.676 Y66.535
X74.530 Y66.566
X71.041 Y66.908
X71.041 Y70.618
X79.657 Y70.618
X79.657 Y68.853
X79.673 Y68.707
X79.720 Y68.561
X79.797 Y68.428
X79.893 Y68.321
X84.271 Y63.918
X84.393 Y63.829
X84.401 Y63.825
X84.394 Y63.754
X84.417 Y63.530
X84.487 Y63.316
X84.600 Y63.121
X84.750 Y62.953
X84.932 Y62.821
X85.138 Y62.729
X85.358 Y62.683
X85.584 Y62.683
X85.804 Y62.729
X86.010 Y62.821
X86.192 Y62.953
X86.343 Y63.121
X86.455 Y63.316
X86.525 Y63.530
X86.548 Y63.754
X86.525 Y63.978
X86.455 Y64.192
X86.343 Y64.387
X86.192 Y64.555
X86.010 Y64.687
X85.804 Y64.779
X85.584 Y64.825
X85.393 Y64.825
X85.355 Y64.895
X85.258 Y65.004
X81.125 Y69.161
X81.125 Y71.355
X81.109 Y71.501
X81.062 Y71.647
X80.985 Y71.780
X80.882 Y71.894
X80.758 Y71.985
X80.618 Y72.047
X80.468 Y72.079
X70.230 Y72.079
G0 Z3.000
G0  X95.518 Y69.905
G0  Z3.000
G01 F400 Z0
G01 F400 Z-0.100
G01F400X95.298 Y69.859
X95.092 Y69.767
X94.910 Y69.635
X94.760 Y69.467
X94.647 Y69.272
X94.577 Y69.058
X94.554 Y68.834
X94.577 Y68.610
X94.647 Y68.396
X94.760 Y68.201
X94.910 Y68.033
X95.092 Y67.901
X95.298 Y67.809
X95.518 Y67.763
X95.744 Y67.763
X95.964 Y67.809
X96.042 Y67.844
X96.054 Y67.831
X96.176 Y67.742
X99.312 Y66.187
X99.443 Y66.129
X99.457 Y66.126
X99.468 Y66.030
X99.550 Y65.777
X99.683 Y65.547
X99.860 Y65.349
X100.075 Y65.193
X100.318 Y65.085
X100.578 Y65.030
X100.844 Y65.030
X101.104 Y65.085
X101.347 Y65.193
X101.562 Y65.349
X101.740 Y65.547
X101.872 Y65.777
X101.955 Y66.030
X101.981 Y66.282
X102.008 Y66.030
X102.090 Y65.777
X102.223 Y65.547
X102.400 Y65.349
X102.615 Y65.193
X102.858 Y65.085
X103.118 Y65.030
X103.384 Y65.030
X103.644 Y65.085
X103.887 Y65.193
X104.102 Y65.349
X104.279 Y65.547
X104.412 Y65.777
X104.495 Y66.030
X104.522 Y66.294
X104.495 Y66.558
X104.412 Y66.811
X104.279 Y67.041
X104.102 Y67.239
X103.887 Y67.395
X103.644 Y67.503
X103.384 Y67.558
X103.118 Y67.558
X102.858 Y67.503
X102.615 Y67.395
X102.400 Y67.239
X102.223 Y67.041
X102.090 Y66.811
X102.008 Y66.558
X101.981 Y66.306
X101.955 Y66.558
X101.872 Y66.811
X101.740 Y67.041
X101.562 Y67.239
X101.347 Y67.395
X101.104 Y67.503
X100.844 Y67.558
X100.578 Y67.558
X100.318 Y67.503
X100.110 Y67.410
X100.039 Y67.462
X96.903 Y69.017
X96.772 Y69.075
X96.672 Y69.097
X96.615 Y69.272
X96.502 Y69.467
X96.352 Y69.635
X96.170 Y69.767
X95.964 Y69.859
X95.744 Y69.905
X95.518 Y69.905
G0 Z3.000
G0  X75.212 Y68.687
G0  Z3.000
G01 F400 Z0
G01 F400 Z-0.100
G01F400X75.017 Y68.646
X74.836 Y68.565
X74.675 Y68.448
X74.542 Y68.300
X74.443 Y68.128
X74.382 Y67.939
X74.361 Y67.742
X74.382 Y67.544
X74.443 Y67.355
X74.542 Y67.183
X74.675 Y67.036
X74.836 Y66.919
X75.017 Y66.838
X75.212 Y66.797
X75.410 Y66.797
X75.526 Y66.821
X75.584 Y66.763
X75.700 Y66.678
X77.453 Y65.656
X79.902 Y63.206
X80.021 Y63.120
X84.224 Y61.006
X84.355 Y60.947
X84.437 Y60.930
X84.487 Y60.776
X84.600 Y60.581
X84.750 Y60.413
X84.932 Y60.281
X85.138 Y60.189
X85.358 Y60.143
X85.584 Y60.143
X85.804 Y60.189
X86.010 Y60.281
X86.192 Y60.413
X86.343 Y60.581
X86.455 Y60.776
X86.525 Y60.990
X86.548 Y61.214
X86.525 Y61.438
X86.455 Y61.652
X86.343 Y61.847
X86.192 Y62.015
X86.010 Y62.147
X85.804 Y62.239
X85.584 Y62.285
X85.358 Y62.285
X85.138 Y62.239
X85.058 Y62.203
X84.952 Y62.280
X80.826 Y64.356
X78.391 Y66.791
X78.275 Y66.875
X76.434 Y67.949
X76.300 Y68.008
X76.224 Y68.024
X76.176 Y68.134
X76.080 Y68.300
X75.947 Y68.448
X75.786 Y68.565
X75.605 Y68.646
X75.410 Y68.687
X75.212 Y68.687
G0 Z3.000
G0  X100.578 Y65.018
G0  Z3.000
G01 F400 Z0
G01 F400 Z-0.100
G01F400X100.318 Y64.963
X100.075 Y64.855
X99.860 Y64.699
X99.683 Y64.501
X99.667 Y64.474
X99.619 Y64.484
X96.570 Y64.484
X96.439 Y64.457
X96.352 Y64.554
X96.170 Y64.687
X95.964 Y64.779
X95.744 Y64.825
X95.518 Y64.825
X95.298 Y64.779
X95.092 Y64.687
X94.910 Y64.555
X94.760 Y64.387
X94.647 Y64.192
X94.577 Y63.978
X94.554 Y63.754
X94.577 Y63.530
X94.647 Y63.316
X94.760 Y63.121
X94.910 Y62.953
X95.092 Y62.821
X95.298 Y62.729
X95.518 Y62.683
X95.744 Y62.683
X95.964 Y62.729
X96.170 Y62.821
X96.352 Y62.953
X96.440 Y63.051
X96.570 Y63.024
X99.619 Y63.024
X99.667 Y63.034
X99.683 Y63.007
X99.860 Y62.809
X100.075 Y62.653
X100.318 Y62.545
X100.578 Y62.490
X100.844 Y62.490
X101.104 Y62.545
X101.347 Y62.653
X101.562 Y62.809
X101.740 Y63.007
X101.872 Y63.237
X101.955 Y63.490
X101.981 Y63.742
X102.008 Y63.490
X102.090 Y63.237
X102.223 Y63.007
X102.400 Y62.809
X102.615 Y62.653
X102.858 Y62.545
X103.118 Y62.490
X103.384 Y62.490
X103.644 Y62.545
X103.887 Y62.653
X104.102 Y62.809
X104.279 Y63.007
X104.412 Y63.237
X104.495 Y63.490
X104.522 Y63.754
X104.495 Y64.018
X104.412 Y64.271
X104.279 Y64.501
X104.102 Y64.699
X103.887 Y64.855
X103.644 Y64.963
X103.384 Y65.018
X103.118 Y65.018
X102.858 Y64.963
X102.615 Y64.855
X102.400 Y64.699
X102.223 Y64.501
X102.090 Y64.271
X102.008 Y64.018
X101.981 Y63.766
X101.955 Y64.018
X101.872 Y64.271
X101.740 Y64.501
X101.562 Y64.699
X101.347 Y64.855
X101.104 Y64.963
X100.844 Y65.018
X100.578 Y65.018
G0 Z3.000
G0  X100.578 Y62.478
G0  Z3.000
G01 F400 Z0
G01 F400 Z-0.100
G01F400X100.318 Y62.423
X100.075 Y62.315
X99.860 Y62.159
X99.683 Y61.961
X99.667 Y61.934
X99.619 Y61.944
X96.570 Y61.944
X96.439 Y61.917
X96.352 Y62.014
X96.170 Y62.147
X95.964 Y62.239
X95.744 Y62.285
X95.518 Y62.285
X95.298 Y62.239
X95.092 Y62.147
X94.910 Y62.015
X94.760 Y61.847
X94.647 Y61.652
X94.577 Y61.438
X94.554 Y61.214
X94.577 Y60.990
X94.647 Y60.776
X94.760 Y60.581
X94.910 Y60.413
X95.092 Y60.281
X95.298 Y60.189
X95.518 Y60.143
X95.744 Y60.143
X95.964 Y60.189
X96.170 Y60.281
X96.352 Y60.413
X96.440 Y60.511
X96.570 Y60.484
X99.619 Y60.484
X99.667 Y60.494
X99.683 Y60.467
X99.860 Y60.269
X100.075 Y60.113
X100.318 Y60.005
X100.578 Y59.950
X100.844 Y59.950
X101.104 Y60.005
X101.347 Y60.113
X101.562 Y60.269
X101.740 Y60.467
X101.872 Y60.697
X101.955 Y60.950
X101.981 Y61.202
X102.008 Y60.950
X102.090 Y60.697
X102.223 Y60.467
X102.400 Y60.269
X102.615 Y60.113
X102.858 Y60.005
X103.118 Y59.950
X103.384 Y59.950
X103.644 Y60.005
X103.887 Y60.113
X104.102 Y60.269
X104.279 Y60.467
X104.412 Y60.697
X104.495 Y60.950
X104.522 Y61.214
X104.495 Y61.478
X104.412 Y61.731
X104.279 Y61.961
X104.102 Y62.159
X103.887 Y62.315
X103.644 Y62.423
X103.384 Y62.478
X103.118 Y62.478
X102.858 Y62.423
X102.615 Y62.315
X102.400 Y62.159
X102.223 Y61.961
X102.090 Y61.731
X102.008 Y61.478
X101.981 Y61.226
X101.955 Y61.478
X101.872 Y61.731
X101.740 Y61.961
X101.562 Y62.159
X101.347 Y62.315
X101.104 Y62.423
X100.844 Y62.478
X100.578 Y62.478
G0 Z3.000
G0  X100.578 Y59.938
G0  Z3.000
G01 F400 Z0
G01 F400 Z-0.100
G01F400X100.318 Y59.883
X100.075 Y59.775
X99.860 Y59.619
X99.683 Y59.421
X99.550 Y59.191
X99.468 Y58.938
X99.440 Y58.674
X99.468 Y58.410
X99.550 Y58.157
X99.683 Y57.927
X99.860 Y57.729
X100.075 Y57.573
X100.318 Y57.465
X100.578 Y57.410
X100.844 Y57.410
X101.104 Y57.465
X101.347 Y57.573
X101.562 Y57.729
X101.740 Y57.927
X101.872 Y58.157
X101.955 Y58.410
X101.981 Y58.662
X102.008 Y58.410
X102.090 Y58.157
X102.223 Y57.927
X102.400 Y57.729
X102.615 Y57.573
X102.858 Y57.465
X103.118 Y57.410
X103.384 Y57.410
X103.644 Y57.465
X103.887 Y57.573
X104.102 Y57.729
X104.279 Y57.927
X104.412 Y58.157
X104.495 Y58.410
X104.522 Y58.674
X104.495 Y58.938
X104.412 Y59.191
X104.279 Y59.421
X104.102 Y59.619
X103.887 Y59.775
X103.644 Y59.883
X103.384 Y59.938
X103.118 Y59.938
X102.858 Y59.883
X102.615 Y59.775
X102.400 Y59.619
X102.223 Y59.421
X102.090 Y59.191
X102.008 Y58.938
X101.981 Y58.686
X101.955 Y58.938
X101.872 Y59.191
X101.740 Y59.421
X101.562 Y59.619
X101.347 Y59.775
X101.104 Y59.883
X100.844 Y59.938
X100.578 Y59.938
G0 Z3.000
G0  X100.578 Y57.398
G0  Z3.000
G01 F400 Z0
G01 F400 Z-0.100
G01F400X100.318 Y57.343
X100.075 Y57.235
X99.860 Y57.079
X99.683 Y56.881
X99.550 Y56.651
X99.468 Y56.398
X99.440 Y56.134
X99.468 Y55.870
X99.550 Y55.617
X99.683 Y55.387
X99.860 Y55.189
X100.075 Y55.033
X100.318 Y54.925
X100.578 Y54.870
X100.844 Y54.870
X101.104 Y54.925
X101.347 Y55.033
X101.562 Y55.189
X101.740 Y55.387
X101.872 Y55.617
X101.955 Y55.870
X101.981 Y56.122
X102.008 Y55.870
X102.090 Y55.617
X102.223 Y55.387
X102.400 Y55.189
X102.615 Y55.033
X102.858 Y54.925
X103.118 Y54.870
X103.384 Y54.870
X103.644 Y54.925
X103.887 Y55.033
X104.102 Y55.189
X104.279 Y55.387
X104.412 Y55.617
X104.495 Y55.870
X104.522 Y56.134
X104.495 Y56.398
X104.412 Y56.651
X104.279 Y56.881
X104.102 Y57.079
X103.887 Y57.235
X103.644 Y57.343
X103.384 Y57.398
X103.118 Y57.398
X102.858 Y57.343
X102.615 Y57.235
X102.400 Y57.079
X102.223 Y56.881
X102.090 Y56.651
X102.008 Y56.398
X101.981 Y56.146
X101.955 Y56.398
X101.872 Y56.651
X101.740 Y56.881
X101.562 Y57.079
X101.347 Y57.235
X101.104 Y57.343
X100.844 Y57.398
X100.578 Y57.398
G0 Z3.000
G0  X100.578 Y54.858
G0  Z3.000
G01 F400 Z0
G01 F400 Z-0.100
G01F400X100.318 Y54.803
X100.075 Y54.695
X99.860 Y54.539
X99.683 Y54.341
X99.550 Y54.111
X99.468 Y53.858
X99.440 Y53.594
X99.468 Y53.330
X99.550 Y53.077
X99.683 Y52.847
X99.860 Y52.649
X100.075 Y52.493
X100.318 Y52.385
X100.578 Y52.330
X100.844 Y52.330
X101.104 Y52.385
X101.347 Y52.493
X101.562 Y52.649
X101.740 Y52.847
X101.872 Y53.077
X101.955 Y53.330
X101.981 Y53.582
X102.008 Y53.330
X102.090 Y53.077
X102.223 Y52.847
X102.400 Y52.649
X102.615 Y52.493
X102.858 Y52.385
X103.118 Y52.330
X103.384 Y52.330
X103.644 Y52.385
X103.887 Y52.493
X104.102 Y52.649
X104.279 Y52.847
X104.412 Y53.077
X104.495 Y53.330
X104.522 Y53.594
X104.495 Y53.858
X104.412 Y54.111
X104.279 Y54.341
X104.102 Y54.539
X103.887 Y54.695
X103.644 Y54.803
X103.384 Y54.858
X103.118 Y54.858
X102.858 Y54.803
X102.615 Y54.695
X102.400 Y54.539
X102.223 Y54.341
X102.090 Y54.111
X102.008 Y53.858
X101.981 Y53.606
X101.955 Y53.858
X101.872 Y54.111
X101.740 Y54.341
X101.562 Y54.539
X101.347 Y54.695
X101.104 Y54.803
X100.844 Y54.858
X100.578 Y54.858
G0 Z3.000
G0  X100.578 Y52.318
G0  Z3.000
G01 F400 Z0
G01 F400 Z-0.100
G01F400X100.318 Y52.263
X100.075 Y52.155
X99.860 Y51.999
X99.683 Y51.801
X99.550 Y51.571
X99.468 Y51.318
X99.440 Y51.054
X99.468 Y50.790
X99.550 Y50.537
X99.683 Y50.307
X99.860 Y50.109
X100.075 Y49.953
X100.318 Y49.845
X100.578 Y49.790
X100.844 Y49.790
X101.104 Y49.845
X101.347 Y49.953
X101.562 Y50.109
X101.740 Y50.307
X101.872 Y50.537
X101.955 Y50.790
X101.981 Y51.042
X102.008 Y50.790
X102.090 Y50.537
X102.223 Y50.307
X102.400 Y50.109
X102.615 Y49.953
X102.858 Y49.845
X103.118 Y49.790
X103.384 Y49.790
X103.644 Y49.845
X103.887 Y49.953
X104.102 Y50.109
X104.279 Y50.307
X104.412 Y50.537
X104.495 Y50.790
X104.522 Y51.054
X104.495 Y51.318
X104.412 Y51.571
X104.279 Y51.801
X104.102 Y51.999
X103.887 Y52.155
X103.644 Y52.263
X103.384 Y52.318
X103.118 Y52.318
X102.858 Y52.263
X102.615 Y52.155
X102.400 Y51.999
X102.223 Y51.801
X102.090 Y51.571
X102.008 Y51.318
X101.981 Y51.066
X101.955 Y51.318
X101.872 Y51.571
X101.740 Y51.801
X101.562 Y51.999
X101.347 Y52.155
X101.104 Y52.263
X100.844 Y52.318
X100.578 Y52.318
G0 Z3.000
G0  X100.578 Y49.778
G0  Z3.000
G01 F400 Z0
G01 F400 Z-0.100
G01F400X100.318 Y49.723
X100.075 Y49.615
X99.860 Y49.459
X99.683 Y49.261
X99.550 Y49.031
X99.468 Y48.778
X99.440 Y48.514
X99.468 Y48.250
X99.550 Y47.997
X99.683 Y47.767
X99.860 Y47.569
X100.075 Y47.413
X100.318 Y47.305
X100.578 Y47.250
X100.844 Y47.250
X101.104 Y47.305
X101.347 Y47.413
X101.562 Y47.569
X101.740 Y47.767
X101.872 Y47.997
X101.955 Y48.250
X101.981 Y48.502
X102.008 Y48.250
X102.090 Y47.997
X102.223 Y47.767
X102.400 Y47.569
X102.615 Y47.413
X102.858 Y47.305
X103.118 Y47.250
X103.384 Y47.250
X103.644 Y47.305
X103.887 Y47.413
X104.102 Y47.569
X104.279 Y47.767
X104.412 Y47.997
X104.495 Y48.250
X104.522 Y48.514
X104.495 Y48.778
X104.412 Y49.031
X104.279 Y49.261
X104.102 Y49.459
X103.887 Y49.615
X103.644 Y49.723
X103.384 Y49.778
X103.118 Y49.778
X102.858 Y49.723
X102.615 Y49.615
X102.400 Y49.459
X102.223 Y49.261
X102.090 Y49.031
X102.008 Y48.778
X101.981 Y48.526
X101.955 Y48.778
X101.872 Y49.031
X101.740 Y49.261
X101.562 Y49.459
X101.347 Y49.615
X101.104 Y49.723
X100.844 Y49.778
X100.578 Y49.778
G0 Z3.000
G0  X100.578 Y47.238
G0  Z3.000
G01 F400 Z0
G01 F400 Z-0.100
G01F400X100.318 Y47.183
X100.075 Y47.075
X99.860 Y46.919
X99.683 Y46.721
X99.550 Y46.491
X99.468 Y46.238
X99.440 Y45.974
X99.468 Y45.710
X99.550 Y45.457
X99.683 Y45.227
X99.860 Y45.029
X100.075 Y44.873
X100.318 Y44.765
X100.578 Y44.710
X100.844 Y44.710
X101.104 Y44.765
X101.347 Y44.873
X101.562 Y45.029
X101.740 Y45.227
X101.872 Y45.457
X101.955 Y45.710
X101.981 Y45.962
X102.008 Y45.710
X102.090 Y45.457
X102.223 Y45.227
X102.400 Y45.029
X102.615 Y44.873
X102.858 Y44.765
X103.118 Y44.710
X103.384 Y44.710
X103.644 Y44.765
X103.887 Y44.873
X104.102 Y45.029
X104.279 Y45.227
X104.412 Y45.457
X104.495 Y45.710
X104.522 Y45.974
X104.495 Y46.238
X104.412 Y46.491
X104.279 Y46.721
X104.102 Y46.919
X103.887 Y47.075
X103.644 Y47.183
X103.384 Y47.238
X103.118 Y47.238
X102.858 Y47.183
X102.615 Y47.075
X102.400 Y46.919
X102.223 Y46.721
X102.090 Y46.491
X102.008 Y46.238
X101.981 Y45.986
X101.955 Y46.238
X101.872 Y46.491
X101.740 Y46.721
X101.562 Y46.919
X101.347 Y47.075
X101.104 Y47.183
X100.844 Y47.238
X100.578 Y47.238
G0 Z3.000
G0  X100.578 Y44.698
G0  Z3.000
G01 F400 Z0
G01 F400 Z-0.100
G01F400X100.318 Y44.643
X100.075 Y44.535
X99.860 Y44.379
X99.683 Y44.181
X99.550 Y43.951
X99.468 Y43.698
X99.440 Y43.434
X99.468 Y43.170
X99.550 Y42.917
X99.683 Y42.687
X99.860 Y42.489
X100.075 Y42.333
X100.318 Y42.225
X100.578 Y42.170
X100.844 Y42.170
X101.104 Y42.225
X101.347 Y42.333
X101.562 Y42.489
X101.740 Y42.687
X101.872 Y42.917
X101.955 Y43.170
X101.981 Y43.422
X102.008 Y43.170
X102.090 Y42.917
X102.223 Y42.687
X102.400 Y42.489
X102.615 Y42.333
X102.858 Y42.225
X103.118 Y42.170
X103.384 Y42.170
X103.644 Y42.225
X103.887 Y42.333
X104.102 Y42.489
X104.279 Y42.687
X104.412 Y42.917
X104.495 Y43.170
X104.522 Y43.434
X104.495 Y43.698
X104.412 Y43.951
X104.279 Y44.181
X104.102 Y44.379
X103.887 Y44.535
X103.644 Y44.643
X103.384 Y44.698
X103.118 Y44.698
X102.858 Y44.643
X102.615 Y44.535
X102.400 Y44.379
X102.223 Y44.181
X102.090 Y43.951
X102.008 Y43.698
X101.981 Y43.446
X101.955 Y43.698
X101.872 Y43.951
X101.740 Y44.181
X101.562 Y44.379
X101.347 Y44.535
X101.104 Y44.643
X100.844 Y44.698
X100.578 Y44.698
G0 Z3.000
G0  X100.578 Y42.158
G0  Z3.000
G01 F400 Z0
G01 F400 Z-0.100
G01F400X100.318 Y42.103
X100.075 Y41.995
X99.860 Y41.839
X99.683 Y41.641
X99.550 Y41.411
X99.468 Y41.158
X99.440 Y40.894
X99.468 Y40.630
X99.550 Y40.377
X99.683 Y40.147
X99.860 Y39.949
X100.075 Y39.793
X100.318 Y39.685
X100.578 Y39.630
X100.844 Y39.630
X101.104 Y39.685
X101.347 Y39.793
X101.562 Y39.949
X101.740 Y40.147
X101.872 Y40.377
X101.955 Y40.630
X101.981 Y40.882
X102.008 Y40.630
X102.090 Y40.377
X102.223 Y40.147
X102.400 Y39.949
X102.615 Y39.793
X102.858 Y39.685
X103.118 Y39.630
X103.384 Y39.630
X103.644 Y39.685
X103.887 Y39.793
X104.102 Y39.949
X104.279 Y40.147
X104.412 Y40.377
X104.495 Y40.630
X104.522 Y40.894
X104.495 Y41.158
X104.412 Y41.411
X104.279 Y41.641
X104.102 Y41.839
X103.887 Y41.995
X103.644 Y42.103
X103.384 Y42.158
X103.118 Y42.158
X102.858 Y42.103
X102.615 Y41.995
X102.400 Y41.839
X102.223 Y41.641
X102.090 Y41.411
X102.008 Y41.158
X101.981 Y40.906
X101.955 Y41.158
X101.872 Y41.411
X101.740 Y41.641
X101.562 Y41.839
X101.347 Y41.995
X101.104 Y42.103
X100.844 Y42.158
X100.578 Y42.158
G0 Z3.000
G0  X100.578 Y39.618
G0  Z3.000
G01 F400 Z0
G01 F400 Z-0.100
G01F400X100.318 Y39.563
X100.075 Y39.455
X99.860 Y39.299
X99.683 Y39.101
X99.550 Y38.871
X99.468 Y38.618
X99.440 Y38.354
X99.468 Y38.090
X99.550 Y37.837
X99.683 Y37.607
X99.860 Y37.409
X100.075 Y37.253
X100.318 Y37.145
X100.578 Y37.090
X100.844 Y37.090
X101.104 Y37.145
X101.347 Y37.253
X101.562 Y37.409
X101.740 Y37.607
X101.872 Y37.837
X101.955 Y38.090
X101.981 Y38.342
X102.008 Y38.090
X102.090 Y37.837
X102.223 Y37.607
X102.400 Y37.409
X102.615 Y37.253
X102.858 Y37.145
X103.118 Y37.090
X103.384 Y37.090
X103.644 Y37.145
X103.887 Y37.253
X104.102 Y37.409
X104.279 Y37.607
X104.412 Y37.837
X104.495 Y38.090
X104.522 Y38.354
X104.495 Y38.618
X104.412 Y38.871
X104.279 Y39.101
X104.102 Y39.299
X103.887 Y39.455
X103.644 Y39.563
X103.384 Y39.618
X103.118 Y39.618
X102.858 Y39.563
X102.615 Y39.455
X102.400 Y39.299
X102.223 Y39.101
X102.090 Y38.871
X102.008 Y38.618
X101.981 Y38.366
X101.955 Y38.618
X101.872 Y38.871
X101.740 Y39.101
X101.562 Y39.299
X101.347 Y39.455
X101.104 Y39.563
X100.844 Y39.618
X100.578 Y39.618
G0 Z3.000
G0  X100.578 Y37.078
G0  Z3.000
G01 F400 Z0
G01 F400 Z-0.100
G01F400X100.318 Y37.023
X100.075 Y36.915
X99.860 Y36.759
X99.683 Y36.561
X99.550 Y36.331
X99.468 Y36.078
X99.440 Y35.814
X99.468 Y35.550
X99.550 Y35.297
X99.683 Y35.067
X99.860 Y34.869
X100.075 Y34.713
X100.318 Y34.605
X100.578 Y34.550
X100.844 Y34.550
X101.104 Y34.605
X101.347 Y34.713
X101.562 Y34.869
X101.740 Y35.067
X101.872 Y35.297
X101.955 Y35.550
X101.981 Y35.802
X102.008 Y35.550
X102.090 Y35.297
X102.223 Y35.067
X102.400 Y34.869
X102.615 Y34.713
X102.858 Y34.605
X103.118 Y34.550
X103.384 Y34.550
X103.644 Y34.605
X103.887 Y34.713
X104.102 Y34.869
X104.279 Y35.067
X104.412 Y35.297
X104.495 Y35.550
X104.522 Y35.814
X104.495 Y36.078
X104.412 Y36.331
X104.279 Y36.561
X104.102 Y36.759
X103.887 Y36.915
X103.644 Y37.023
X103.384 Y37.078
X103.118 Y37.078
X102.858 Y37.023
X102.615 Y36.915
X102.400 Y36.759
X102.223 Y36.561
X102.090 Y36.331
X102.008 Y36.078
X101.981 Y35.826
X101.955 Y36.078
X101.872 Y36.331
X101.740 Y36.561
X101.562 Y36.759
X101.347 Y36.915
X101.104 Y37.023
X100.844 Y37.078
X100.578 Y37.078
G0 Z3.000
G0  X100.578 Y34.538
G0  Z3.000
G01 F400 Z0
G01 F400 Z-0.100
G01F400X100.318 Y34.483
X100.075 Y34.375
X99.860 Y34.219
X99.683 Y34.021
X99.550 Y33.791
X99.468 Y33.538
X99.440 Y33.274
X99.468 Y33.010
X99.550 Y32.757
X99.683 Y32.527
X99.860 Y32.329
X100.075 Y32.173
X100.318 Y32.065
X100.578 Y32.010
X100.844 Y32.010
X101.104 Y32.065
X101.347 Y32.173
X101.562 Y32.329
X101.740 Y32.527
X101.872 Y32.757
X101.955 Y33.010
X101.981 Y33.262
X102.008 Y33.010
X102.090 Y32.757
X102.223 Y32.527
X102.400 Y32.329
X102.615 Y32.173
X102.858 Y32.065
X103.118 Y32.010
X103.384 Y32.010
X103.644 Y32.065
X103.887 Y32.173
X104.102 Y32.329
X104.279 Y32.527
X104.412 Y32.757
X104.495 Y33.010
X104.522 Y33.274
X104.495 Y33.538
X104.412 Y33.791
X104.279 Y34.021
X104.102 Y34.219
X103.887 Y34.375
X103.644 Y34.483
X103.384 Y34.538
X103.118 Y34.538
X102.858 Y34.483
X102.615 Y34.375
X102.400 Y34.219
X102.223 Y34.021
X102.090 Y33.791
X102.008 Y33.538
X101.981 Y33.286
X101.955 Y33.538
X101.872 Y33.791
X101.740 Y34.021
X101.562 Y34.219
X101.347 Y34.375
X101.104 Y34.483
X100.844 Y34.538
X100.578 Y34.538
G0 Z3.000
G0  X100.578 Y31.998
G0  Z3.000
G01 F400 Z0
G01 F400 Z-0.100
G01F400X100.318 Y31.943
X100.075 Y31.835
X99.860 Y31.679
X99.683 Y31.481
X99.550 Y31.251
X99.468 Y30.998
X99.440 Y30.734
X99.468 Y30.470
X99.550 Y30.217
X99.683 Y29.987
X99.860 Y29.789
X100.075 Y29.633
X100.318 Y29.525
X100.578 Y29.470
X100.844 Y29.470
X101.104 Y29.525
X101.347 Y29.633
X101.562 Y29.789
X101.740 Y29.987
X101.872 Y30.217
X101.955 Y30.470
X101.981 Y30.722
X102.008 Y30.470
X102.090 Y30.217
X102.223 Y29.987
X102.400 Y29.789
X102.615 Y29.633
X102.858 Y29.525
X103.118 Y29.470
X103.384 Y29.470
X103.644 Y29.525
X103.887 Y29.633
X104.102 Y29.789
X104.279 Y29.987
X104.412 Y30.217
X104.495 Y30.470
X104.522 Y30.734
X104.495 Y30.998
X104.412 Y31.251
X104.279 Y31.481
X104.102 Y31.679
X103.887 Y31.835
X103.644 Y31.943
X103.384 Y31.998
X103.118 Y31.998
X102.858 Y31.943
X102.615 Y31.835
X102.400 Y31.679
X102.223 Y31.481
X102.090 Y31.251
X102.008 Y30.998
X101.981 Y30.746
X101.955 Y30.998
X101.872 Y31.251
X101.740 Y31.481
X101.562 Y31.679
X101.347 Y31.835
X101.104 Y31.943
X100.844 Y31.998
X100.578 Y31.998
G0 Z3.000
G0  X100.555 Y80.482
G0  Z3.000
G01 F400 Z0
G01 F400 Z-0.100
G01F400X100.249 Y80.417
X99.963 Y80.290
X99.710 Y80.106
X99.501 Y79.873
X99.344 Y79.602
X99.248 Y79.305
X99.215 Y78.994
X99.248 Y78.683
X99.344 Y78.386
X99.501 Y78.115
X99.710 Y77.882
X99.928 Y77.724
X99.710 Y77.566
X99.501 Y77.333
X99.344 Y77.062
X99.248 Y76.765
X99.215 Y76.454
X99.248 Y76.143
X99.344 Y75.846
X99.501 Y75.575
X99.710 Y75.342
X99.928 Y75.184
X99.710 Y75.026
X99.501 Y74.793
X99.344 Y74.522
X99.248 Y74.225
X99.215 Y73.914
X99.248 Y73.603
X99.344 Y73.306
X99.501 Y73.035
X99.710 Y72.802
X99.928 Y72.644
X99.710 Y72.486
X99.501 Y72.253
X99.344 Y71.982
X99.248 Y71.685
X99.215 Y71.374
X99.248 Y71.063
X99.343 Y70.770
X88.451 Y77.291
X88.282 Y77.366
X88.086 Y77.408
X62.511 Y77.408
X62.315 Y77.366
X62.132 Y77.285
X61.969 Y77.167
X61.835 Y77.018
X61.735 Y76.844
X61.673 Y76.653
X61.654 Y76.472
X61.654 Y58.656
X61.673 Y58.475
X61.735 Y58.284
X61.835 Y58.110
X61.969 Y57.961
X62.132 Y57.844
X62.315 Y57.762
X62.511 Y57.720
X82.892 Y57.695
X83.057 Y57.695
X83.253 Y57.737
X83.436 Y57.818
X83.598 Y57.936
X83.732 Y58.085
X83.833 Y58.259
X83.894 Y58.449
X83.915 Y58.649
X83.894 Y58.848
X83.833 Y59.039
X83.732 Y59.212
X83.598 Y59.361
X83.460 Y59.462
X76.403 Y64.183
X76.377 Y64.245
X76.261 Y64.445
X76.097 Y64.627
X75.935 Y64.745
X76.097 Y64.862
X76.261 Y65.045
X76.384 Y65.257
X76.460 Y65.491
X76.486 Y65.735
X76.461 Y65.976
X77.315 Y65.477
X79.757 Y63.036
X79.905 Y62.928
X84.128 Y60.804
X84.262 Y60.744
X84.282 Y60.684
X84.418 Y60.449
X84.600 Y60.247
X84.820 Y60.087
X85.069 Y59.976
X85.335 Y59.919
X85.607 Y59.919
X85.873 Y59.976
X86.122 Y60.087
X86.342 Y60.247
X86.524 Y60.449
X86.660 Y60.684
X86.744 Y60.943
X86.773 Y61.214
X86.744 Y61.485
X86.660 Y61.744
X86.524 Y61.979
X86.342 Y62.181
X86.122 Y62.342
X85.873 Y62.452
X85.724 Y62.484
X85.873 Y62.516
X86.122 Y62.627
X86.342 Y62.787
X86.524 Y62.989
X86.660 Y63.224
X86.744 Y63.483
X86.773 Y63.754
X86.744 Y64.025
X86.660 Y64.284
X86.524 Y64.519
X86.342 Y64.722
X86.122 Y64.882
X85.873 Y64.992
X85.607 Y65.049
X85.518 Y65.049
X85.420 Y65.157
X81.348 Y69.253
X81.348 Y71.367
X81.329 Y71.548
X81.267 Y71.739
X81.167 Y71.912
X81.033 Y72.061
X80.870 Y72.179
X80.687 Y72.261
X80.491 Y72.302
X70.207 Y72.302
X70.011 Y72.261
X69.828 Y72.179
X69.666 Y72.061
X69.531 Y71.912
X69.431 Y71.739
X69.369 Y71.548
X69.350 Y71.367
X69.350 Y66.225
X69.369 Y66.044
X69.431 Y65.853
X69.531 Y65.680
X69.666 Y65.531
X69.828 Y65.413
X70.011 Y65.331
X70.190 Y65.293
X74.367 Y64.883
X74.506 Y64.883
X74.526 Y64.862
X74.687 Y64.745
X74.525 Y64.627
X74.361 Y64.445
X74.238 Y64.232
X74.162 Y63.998
X74.136 Y63.754
X74.162 Y63.510
X74.238 Y63.276
X74.361 Y63.063
X74.523 Y62.883
X66.133 Y64.538
X66.133 Y73.011
X84.533 Y73.011
X84.514 Y69.808
X84.523 Y69.717
X84.418 Y69.599
X84.282 Y69.364
X84.198 Y69.105
X84.169 Y68.834
X84.198 Y68.563
X84.282 Y68.304
X84.418 Y68.069
X84.600 Y67.867
X84.820 Y67.707
X85.069 Y67.596
X85.335 Y67.539
X85.607 Y67.539
X85.873 Y67.596
X86.122 Y67.707
X86.342 Y67.867
X86.524 Y68.069
X86.660 Y68.304
X86.744 Y68.563
X86.773 Y68.834
X86.744 Y69.105
X86.660 Y69.364
X86.524 Y69.599
X86.419 Y69.716
X86.428 Y69.805
X86.454 Y73.982
X86.434 Y74.164
X86.373 Y74.355
X86.272 Y74.529
X86.138 Y74.678
X85.976 Y74.795
X85.793 Y74.877
X85.597 Y74.919
X65.076 Y74.919
X64.880 Y74.877
X64.697 Y74.795
X64.535 Y74.678
X64.401 Y74.529
X64.300 Y74.355
X64.238 Y74.164
X64.219 Y73.983
X64.219 Y63.736
X64.238 Y63.555
X64.300 Y63.364
X64.401 Y63.190
X64.535 Y63.041
X64.697 Y62.924
X64.880 Y62.842
X65.043 Y62.807
X74.350 Y60.971
X74.437 Y60.971
X74.525 Y60.874
X74.724 Y60.730
X74.948 Y60.630
X75.188 Y60.579
X75.434 Y60.579
X75.674 Y60.630
X75.898 Y60.730
X76.097 Y60.874
X76.261 Y61.057
X76.384 Y61.270
X76.460 Y61.503
X76.486 Y61.747
X76.477 Y61.834
X79.806 Y59.606
X63.568 Y59.627
X63.568 Y75.500
X87.716 Y75.500
X99.230 Y68.607
X99.240 Y68.602
X99.247 Y68.525
X99.344 Y68.225
X99.482 Y67.987
X96.998 Y69.219
X96.845 Y69.287
X96.820 Y69.364
X96.684 Y69.599
X96.502 Y69.802
X96.282 Y69.962
X96.033 Y70.072
X95.767 Y70.129
X95.495 Y70.129
X95.229 Y70.072
X94.980 Y69.962
X94.760 Y69.802
X94.578 Y69.599
X94.442 Y69.364
X94.358 Y69.105
X94.329 Y68.834
X94.358 Y68.563
X94.442 Y68.304
X94.578 Y68.069
X94.760 Y67.867
X94.980 Y67.707
X95.229 Y67.596
X95.495 Y67.539
X95.767 Y67.539
X96.006 Y67.590
X96.060 Y67.550
X99.217 Y65.985
X99.252 Y65.969
X99.344 Y65.686
X99.501 Y65.415
X99.710 Y65.182
X99.928 Y65.024
X99.710 Y64.866
X99.568 Y64.708
X96.547 Y64.708
X96.520 Y64.702
X96.503 Y64.721
X96.282 Y64.882
X96.033 Y64.992
X95.767 Y65.049
X95.495 Y65.049
X95.229 Y64.992
X94.980 Y64.882
X94.760 Y64.722
X94.578 Y64.519
X94.442 Y64.284
X94.358 Y64.025
X94.329 Y63.754
X94.358 Y63.483
X94.442 Y63.224
X94.578 Y62.989
X94.760 Y62.787
X94.980 Y62.627
X95.229 Y62.516
X95.378 Y62.484
X95.229 Y62.452
X94.980 Y62.342
X94.760 Y62.181
X94.578 Y61.979
X94.442 Y61.744
X94.358 Y61.485
X94.329 Y61.214
X94.358 Y60.943
X94.442 Y60.684
X94.578 Y60.449
X94.760 Y60.247
X94.980 Y60.087
X95.229 Y59.976
X95.495 Y59.919
X95.767 Y59.919
X96.033 Y59.976
X96.282 Y60.087
X96.502 Y60.247
X96.520 Y60.266
X96.547 Y60.260
X99.568 Y60.260
X99.710 Y60.102
X99.928 Y59.944
X99.710 Y59.786
X99.501 Y59.553
X99.344 Y59.282
X99.248 Y58.985
X99.215 Y58.674
X99.248 Y58.363
X99.344 Y58.066
X99.501 Y57.795
X99.710 Y57.562
X99.928 Y57.404
X99.710 Y57.246
X99.501 Y57.013
X99.344 Y56.742
X99.248 Y56.445
X99.215 Y56.134
X99.248 Y55.823
X99.344 Y55.526
X99.501 Y55.255
X99.710 Y55.022
X99.928 Y54.864
X99.710 Y54.706
X99.501 Y54.473
X99.344 Y54.202
X99.248 Y53.905
X99.215 Y53.594
X99.248 Y53.283
X99.344 Y52.986
X99.501 Y52.715
X99.710 Y52.482
X99.928 Y52.324
X99.710 Y52.166
X99.501 Y51.933
X99.344 Y51.662
X99.248 Y51.365
X99.215 Y51.054
X99.248 Y50.743
X99.344 Y50.446
X99.501 Y50.175
X99.710 Y49.942
X99.928 Y49.784
X99.710 Y49.626
X99.501 Y49.393
X99.344 Y49.122
X99.248 Y48.825
X99.215 Y48.514
X99.248 Y48.203
X99.344 Y47.906
X99.501 Y47.635
X99.710 Y47.402
X99.928 Y47.244
X99.710 Y47.086
X99.501 Y46.853
X99.344 Y46.582
X99.248 Y46.285
X99.215 Y45.974
X99.248 Y45.663
X99.344 Y45.366
X99.501 Y45.095
X99.710 Y44.862
X99.928 Y44.704
X99.710 Y44.546
X99.501 Y44.313
X99.344 Y44.042
X99.248 Y43.745
X99.215 Y43.434
X99.248 Y43.123
X99.344 Y42.826
X99.501 Y42.555
X99.710 Y42.322
X99.928 Y42.164
X99.710 Y42.006
X99.501 Y41.773
X99.344 Y41.502
X99.248 Y41.205
X99.215 Y40.894
X99.248 Y40.583
X99.344 Y40.286
X99.501 Y40.015
X99.710 Y39.782
X99.928 Y39.624
X99.710 Y39.466
X99.501 Y39.233
X99.344 Y38.962
X99.248 Y38.665
X99.215 Y38.354
X99.248 Y38.043
X99.344 Y37.746
X99.501 Y37.475
X99.710 Y37.242
X99.928 Y37.084
X99.710 Y36.926
X99.501 Y36.693
X99.344 Y36.422
X99.248 Y36.125
X99.215 Y35.814
X99.248 Y35.503
X99.344 Y35.206
X99.501 Y34.935
X99.710 Y34.702
X99.928 Y34.544
X99.710 Y34.386
X99.501 Y34.153
X99.344 Y33.882
X99.248 Y33.585
X99.215 Y33.274
X99.248 Y32.963
X99.344 Y32.666
X99.501 Y32.395
X99.710 Y32.162
X99.928 Y32.004
X99.710 Y31.846
X99.501 Y31.613
X99.344 Y31.342
X99.248 Y31.045
X99.215 Y30.734
X99.248 Y30.423
X99.344 Y30.126
X99.501 Y29.855
X99.710 Y29.622
X99.963 Y29.439
X100.249 Y29.311
X100.555 Y29.246
X100.867 Y29.246
X101.173 Y29.311
X101.459 Y29.439
X101.712 Y29.622
X101.921 Y29.855
X101.981 Y29.958
X102.041 Y29.855
X102.250 Y29.622
X102.503 Y29.439
X102.789 Y29.311
X103.095 Y29.246
X103.407 Y29.246
X103.713 Y29.311
X103.999 Y29.439
X104.252 Y29.622
X104.461 Y29.855
X104.618 Y30.126
X104.714 Y30.423
X104.747 Y30.734
X104.714 Y31.045
X104.618 Y31.342
X104.461 Y31.613
X104.252 Y31.846
X104.034 Y32.004
X104.252 Y32.162
X104.461 Y32.395
X104.618 Y32.666
X104.714 Y32.963
X104.747 Y33.274
X104.714 Y33.585
X104.618 Y33.882
X104.461 Y34.153
X104.252 Y34.386
X104.034 Y34.544
X104.252 Y34.702
X104.461 Y34.935
X104.618 Y35.206
X104.714 Y35.503
X104.747 Y35.814
X104.714 Y36.125
X104.618 Y36.422
X104.461 Y36.693
X104.252 Y36.926
X104.034 Y37.084
X104.252 Y37.242
X104.461 Y37.475
X104.618 Y37.746
X104.714 Y38.043
X104.747 Y38.354
X104.714 Y38.665
X104.618 Y38.962
X104.461 Y39.233
X104.252 Y39.466
X104.034 Y39.624
X104.252 Y39.782
X104.461 Y40.015
X104.618 Y40.286
X104.714 Y40.583
X104.747 Y40.894
X104.714 Y41.205
X104.618 Y41.502
X104.461 Y41.773
X104.252 Y42.006
X104.034 Y42.164
X104.252 Y42.322
X104.461 Y42.555
X104.618 Y42.826
X104.714 Y43.123
X104.747 Y43.434
X104.714 Y43.745
X104.618 Y44.042
X104.461 Y44.313
X104.252 Y44.546
X104.034 Y44.704
X104.252 Y44.862
X104.461 Y45.095
X104.618 Y45.366
X104.714 Y45.663
X104.747 Y45.974
X104.714 Y46.285
X104.618 Y46.582
X104.461 Y46.853
X104.252 Y47.086
X104.034 Y47.244
X104.252 Y47.402
X104.461 Y47.635
X104.618 Y47.906
X104.714 Y48.203
X104.747 Y48.514
X104.714 Y48.825
X104.618 Y49.122
X104.461 Y49.393
X104.252 Y49.626
X104.034 Y49.784
X104.252 Y49.942
X104.461 Y50.175
X104.618 Y50.446
X104.714 Y50.743
X104.747 Y51.054
X104.714 Y51.365
X104.618 Y51.662
X104.461 Y51.933
X104.252 Y52.166
X104.034 Y52.324
X104.252 Y52.482
X104.461 Y52.715
X104.618 Y52.986
X104.714 Y53.283
X104.747 Y53.594
X104.714 Y53.905
X104.618 Y54.202
X104.461 Y54.473
X104.252 Y54.706
X104.034 Y54.864
X104.252 Y55.022
X104.461 Y55.255
X104.618 Y55.526
X104.714 Y55.823
X104.747 Y56.134
X104.714 Y56.445
X104.618 Y56.742
X104.461 Y57.013
X104.252 Y57.246
X104.034 Y57.404
X104.252 Y57.562
X104.461 Y57.795
X104.618 Y58.066
X104.714 Y58.363
X104.747 Y58.674
X104.714 Y58.985
X104.618 Y59.282
X104.461 Y59.553
X104.252 Y59.786
X104.034 Y59.944
X104.252 Y60.102
X104.461 Y60.335
X104.618 Y60.606
X104.714 Y60.903
X104.747 Y61.214
X104.714 Y61.525
X104.618 Y61.822
X104.461 Y62.093
X104.252 Y62.326
X104.034 Y62.484
X104.252 Y62.642
X104.461 Y62.875
X104.618 Y63.146
X104.714 Y63.443
X104.747 Y63.754
X104.714 Y64.065
X104.618 Y64.362
X104.461 Y64.633
X104.252 Y64.866
X104.034 Y65.024
X104.252 Y65.182
X104.461 Y65.415
X104.618 Y65.686
X104.714 Y65.983
X104.747 Y66.294
X104.714 Y66.605
X104.618 Y66.902
X104.461 Y67.173
X104.252 Y67.406
X104.034 Y67.564
X104.252 Y67.722
X104.461 Y67.955
X104.618 Y68.226
X104.714 Y68.523
X104.747 Y68.834
X104.714 Y69.145
X104.618 Y69.442
X104.461 Y69.713
X104.252 Y69.946
X104.034 Y70.104
X104.252 Y70.262
X104.461 Y70.495
X104.618 Y70.766
X104.714 Y71.063
X104.747 Y71.374
X104.714 Y71.685
X104.618 Y71.982
X104.461 Y72.253
X104.252 Y72.486
X104.034 Y72.644
X104.252 Y72.802
X104.461 Y73.035
X104.618 Y73.306
X104.714 Y73.603
X104.747 Y73.914
X104.714 Y74.225
X104.618 Y74.522
X104.461 Y74.793
X104.252 Y75.026
X104.034 Y75.184
X104.252 Y75.342
X104.461 Y75.575
X104.618 Y75.846
X104.714 Y76.143
X104.747 Y76.454
X104.714 Y76.765
X104.618 Y77.062
X104.461 Y77.333
X104.252 Y77.566
X104.034 Y77.724
X104.252 Y77.882
X104.461 Y78.115
X104.618 Y78.386
X104.714 Y78.683
X104.747 Y78.994
X104.714 Y79.305
X104.618 Y79.602
X104.461 Y79.873
X104.252 Y80.106
X103.999 Y80.290
X103.713 Y80.417
X103.407 Y80.482
X103.095 Y80.482
X102.789 Y80.417
X102.503 Y80.290
X102.250 Y80.106
X102.041 Y79.873
X101.981 Y79.770
X101.921 Y79.873
X101.712 Y80.106
X101.459 Y80.290
X101.173 Y80.417
X100.867 Y80.482
X100.555 Y80.482
G0 Z3.000
G0  X101.981 Y78.218
G0  Z3.000
G01 F400 Z0
G01 F400 Z-0.100
G01F400X102.041 Y78.115
X102.250 Y77.882
X102.468 Y77.724
X102.250 Y77.566
X102.041 Y77.333
X101.981 Y77.230
X101.921 Y77.333
X101.712 Y77.566
X101.494 Y77.724
X101.712 Y77.882
X101.921 Y78.115
X101.981 Y78.218
G0 Z3.000
G0  X101.981 Y75.678
G0  Z3.000
G01 F400 Z0
G01 F400 Z-0.100
G01F400X102.041 Y75.575
X102.250 Y75.342
X102.468 Y75.184
X102.250 Y75.026
X102.041 Y74.793
X101.981 Y74.690
X101.921 Y74.793
X101.712 Y75.026
X101.494 Y75.184
X101.712 Y75.342
X101.921 Y75.575
X101.981 Y75.678
G0 Z3.000
G0  X101.981 Y73.138
G0  Z3.000
G01 F400 Z0
G01 F400 Z-0.100
G01F400X102.041 Y73.035
X102.250 Y72.802
X102.468 Y72.644
X102.250 Y72.486
X102.041 Y72.253
X101.981 Y72.150
X101.921 Y72.253
X101.712 Y72.486
X101.494 Y72.644
X101.712 Y72.802
X101.921 Y73.035
X101.981 Y73.138
G0 Z3.000
G0  X101.981 Y70.598
G0  Z3.000
G01 F400 Z0
G01 F400 Z-0.100
G01F400X102.041 Y70.495
X102.250 Y70.262
X102.468 Y70.104
X102.250 Y69.946
X102.041 Y69.713
X101.981 Y69.610
X101.921 Y69.713
X101.712 Y69.946
X101.494 Y70.104
X101.712 Y70.262
X101.921 Y70.495
X101.981 Y70.598
G0 Z3.000
G0  X71.264 Y70.395
G0  Z3.000
G01 F400 Z0
G01 F400 Z-0.100
G01F400X79.434 Y70.395
X79.434 Y68.841
X79.453 Y68.660
X79.515 Y68.469
X79.615 Y68.296
X79.731 Y68.168
X84.125 Y63.747
X84.174 Y63.712
X84.198 Y63.483
X84.282 Y63.224
X84.418 Y62.989
X84.600 Y62.787
X84.820 Y62.627
X85.069 Y62.516
X85.218 Y62.484
X85.089 Y62.457
X85.068 Y62.471
X80.958 Y64.539
X78.536 Y66.961
X78.397 Y67.063
X76.537 Y68.148
X76.384 Y68.215
X76.375 Y68.235
X76.261 Y68.432
X76.097 Y68.615
X75.898 Y68.759
X75.674 Y68.859
X75.434 Y68.910
X75.188 Y68.910
X74.948 Y68.859
X74.724 Y68.759
X74.525 Y68.615
X74.361 Y68.432
X74.238 Y68.220
X74.162 Y67.986
X74.136 Y67.742
X74.162 Y67.498
X74.238 Y67.264
X74.361 Y67.051
X74.525 Y66.869
X74.668 Y66.765
X74.564 Y66.787
X71.264 Y67.111
X71.264 Y70.395
G0 Z3.000
G0  X101.981 Y68.058
G0  Z3.000
G01 F400 Z0
G01 F400 Z-0.100
G01F400X102.041 Y67.955
X102.250 Y67.722
X102.468 Y67.564
X102.250 Y67.406
X102.041 Y67.173
X101.981 Y67.070
X101.921 Y67.173
X101.712 Y67.406
X101.494 Y67.564
X101.712 Y67.722
X101.921 Y67.955
X101.981 Y68.058
G0 Z3.000
G0  X101.981 Y65.518
G0  Z3.000
G01 F400 Z0
G01 F400 Z-0.100
G01F400X102.041 Y65.415
X102.250 Y65.182
X102.468 Y65.024
X102.250 Y64.866
X102.041 Y64.633
X101.981 Y64.530
X101.921 Y64.633
X101.712 Y64.866
X101.494 Y65.024
X101.712 Y65.182
X101.921 Y65.415
X101.981 Y65.518
G0 Z3.000
G0  X101.981 Y62.978
G0  Z3.000
G01 F400 Z0
G01 F400 Z-0.100
G01F400X102.041 Y62.875
X102.250 Y62.642
X102.468 Y62.484
X102.250 Y62.326
X102.041 Y62.093
X101.981 Y61.990
X101.921 Y62.093
X101.712 Y62.326
X101.494 Y62.484
X101.712 Y62.642
X101.921 Y62.875
X101.981 Y62.978
G0 Z3.000
G0  X96.520 Y62.806
G0  Z3.000
G01 F400 Z0
G01 F400 Z-0.100
G01F400X96.547 Y62.800
X99.568 Y62.800
X99.710 Y62.642
X99.928 Y62.484
X99.710 Y62.326
X99.568 Y62.168
X96.547 Y62.168
X96.520 Y62.162
X96.503 Y62.181
X96.282 Y62.342
X96.033 Y62.452
X95.884 Y62.484
X96.033 Y62.516
X96.282 Y62.627
X96.502 Y62.787
X96.520 Y62.806
G0 Z3.000
G0  X101.981 Y60.438
G0  Z3.000
G01 F400 Z0
G01 F400 Z-0.100
G01F400X102.041 Y60.335
X102.250 Y60.102
X102.468 Y59.944
X102.250 Y59.786
X102.041 Y59.553
X101.981 Y59.450
X101.921 Y59.553
X101.712 Y59.786
X101.494 Y59.944
X101.712 Y60.102
X101.921 Y60.335
X101.981 Y60.438
G0 Z3.000
G0  X101.981 Y57.898
G0  Z3.000
G01 F400 Z0
G01 F400 Z-0.100
G01F400X102.041 Y57.795
X102.250 Y57.562
X102.468 Y57.404
X102.250 Y57.246
X102.041 Y57.013
X101.981 Y56.910
X101.921 Y57.013
X101.712 Y57.246
X101.494 Y57.404
X101.712 Y57.562
X101.921 Y57.795
X101.981 Y57.898
G0 Z3.000
G0  X101.981 Y55.358
G0  Z3.000
G01 F400 Z0
G01 F400 Z-0.100
G01F400X102.041 Y55.255
X102.250 Y55.022
X102.468 Y54.864
X102.250 Y54.706
X102.041 Y54.473
X101.981 Y54.370
X101.921 Y54.473
X101.712 Y54.706
X101.494 Y54.864
X101.712 Y55.022
X101.921 Y55.255
X101.981 Y55.358
G0 Z3.000
G0  X101.981 Y52.818
G0  Z3.000
G01 F400 Z0
G01 F400 Z-0.100
G01F400X102.041 Y52.715
X102.250 Y52.482
X102.468 Y52.324
X102.250 Y52.166
X102.041 Y51.933
X101.981 Y51.830
X101.921 Y51.933
X101.712 Y52.166
X101.494 Y52.324
X101.712 Y52.482
X101.921 Y52.715
X101.981 Y52.818
G0 Z3.000
G0  X101.981 Y50.278
G0  Z3.000
G01 F400 Z0
G01 F400 Z-0.100
G01F400X102.041 Y50.175
X102.250 Y49.942
X102.468 Y49.784
X102.250 Y49.626
X102.041 Y49.393
X101.981 Y49.290
X101.921 Y49.393
X101.712 Y49.626
X101.494 Y49.784
X101.712 Y49.942
X101.921 Y50.175
X101.981 Y50.278
G0 Z3.000
G0  X101.981 Y47.738
G0  Z3.000
G01 F400 Z0
G01 F400 Z-0.100
G01F400X102.041 Y47.635
X102.250 Y47.402
X102.468 Y47.244
X102.250 Y47.086
X102.041 Y46.853
X101.981 Y46.750
X101.921 Y46.853
X101.712 Y47.086
X101.494 Y47.244
X101.712 Y47.402
X101.921 Y47.635
X101.981 Y47.738
G0 Z3.000
G0  X101.981 Y45.198
G0  Z3.000
G01 F400 Z0
G01 F400 Z-0.100
G01F400X102.041 Y45.095
X102.250 Y44.862
X102.468 Y44.704
X102.250 Y44.546
X102.041 Y44.313
X101.981 Y44.210
X101.921 Y44.313
X101.712 Y44.546
X101.494 Y44.704
X101.712 Y44.862
X101.921 Y45.095
X101.981 Y45.198
G0 Z3.000
G0  X101.981 Y42.658
G0  Z3.000
G01 F400 Z0
G01 F400 Z-0.100
G01F400X102.041 Y42.555
X102.250 Y42.322
X102.468 Y42.164
X102.250 Y42.006
X102.041 Y41.773
X101.981 Y41.670
X101.921 Y41.773
X101.712 Y42.006
X101.494 Y42.164
X101.712 Y42.322
X101.921 Y42.555
X101.981 Y42.658
G0 Z3.000
G0  X101.981 Y40.118
G0  Z3.000
G01 F400 Z0
G01 F400 Z-0.100
G01F400X102.041 Y40.015
X102.250 Y39.782
X102.468 Y39.624
X102.250 Y39.466
X102.041 Y39.233
X101.981 Y39.130
X101.921 Y39.233
X101.712 Y39.466
X101.494 Y39.624
X101.712 Y39.782
X101.921 Y40.015
X101.981 Y40.118
G0 Z3.000
G0  X101.981 Y37.578
G0  Z3.000
G01 F400 Z0
G01 F400 Z-0.100
G01F400X102.041 Y37.475
X102.250 Y37.242
X102.468 Y37.084
X102.250 Y36.926
X102.041 Y36.693
X101.981 Y36.590
X101.921 Y36.693
X101.712 Y36.926
X101.494 Y37.084
X101.712 Y37.242
X101.921 Y37.475
X101.981 Y37.578
G0 Z3.000
G0  X101.981 Y35.038
G0  Z3.000
G01 F400 Z0
G01 F400 Z-0.100
G01F400X102.041 Y34.935
X102.250 Y34.702
X102.468 Y34.544
X102.250 Y34.386
X102.041 Y34.153
X101.981 Y34.050
X101.921 Y34.153
X101.712 Y34.386
X101.494 Y34.544
X101.712 Y34.702
X101.921 Y34.935
X101.981 Y35.038
G0 Z3.000
G0  X101.981 Y32.498
G0  Z3.000
G01 F400 Z0
G01 F400 Z-0.100
G01F400X102.041 Y32.395
X102.250 Y32.162
X102.468 Y32.004
X102.250 Y31.846
X102.041 Y31.613
X101.981 Y31.510
X101.921 Y31.613
X101.712 Y31.846
X101.494 Y32.004
X101.712 Y32.162
X101.921 Y32.395
X101.981 Y32.498
G0 Z3.000
G0  X100.531 Y80.705
G0  Z3.000
G01 F400 Z0
G01 F400 Z-0.100
G01F400X100.179 Y80.630
X99.851 Y80.484
X99.560 Y80.273
X99.319 Y80.005
X99.139 Y79.694
X99.028 Y79.352
X98.991 Y78.994
X99.028 Y78.636
X99.139 Y78.294
X99.319 Y77.983
X99.552 Y77.724
X99.319 Y77.465
X99.139 Y77.154
X99.028 Y76.812
X98.991 Y76.454
X99.028 Y76.096
X99.139 Y75.754
X99.319 Y75.443
X99.552 Y75.184
X99.319 Y74.925
X99.139 Y74.614
X99.028 Y74.272
X98.991 Y73.914
X99.028 Y73.556
X99.139 Y73.214
X99.319 Y72.903
X99.552 Y72.644
X99.319 Y72.385
X99.139 Y72.074
X99.028 Y71.732
X98.991 Y71.374
X99.005 Y71.232
X88.554 Y77.489
X88.352 Y77.580
X88.109 Y77.631
X62.487 Y77.631
X62.245 Y77.580
X62.019 Y77.479
X61.819 Y77.334
X61.654 Y77.150
X61.530 Y76.935
X61.453 Y76.700
X61.431 Y76.484
X61.431 Y58.644
X61.453 Y58.428
X61.530 Y58.193
X61.654 Y57.978
X61.819 Y57.794
X62.019 Y57.649
X62.245 Y57.548
X62.487 Y57.497
X82.892 Y57.471
X83.080 Y57.471
X83.322 Y57.523
X83.548 Y57.624
X83.748 Y57.769
X83.914 Y57.953
X84.038 Y58.167
X84.114 Y58.403
X84.140 Y58.649
X84.114 Y58.895
X84.038 Y59.130
X83.914 Y59.344
X83.748 Y59.528
X83.588 Y59.645
X76.583 Y64.332
X76.577 Y64.345
X76.443 Y64.577
X76.292 Y64.745
X76.443 Y64.913
X76.590 Y65.166
X76.680 Y65.444
X76.694 Y65.581
X77.178 Y65.299
X79.611 Y62.866
X79.788 Y62.737
X84.033 Y60.602
X84.085 Y60.579
X84.236 Y60.317
X84.450 Y60.080
X84.708 Y59.892
X84.999 Y59.762
X85.311 Y59.696
X85.631 Y59.696
X85.943 Y59.762
X86.234 Y59.892
X86.492 Y60.080
X86.706 Y60.317
X86.865 Y60.593
X86.964 Y60.897
X86.998 Y61.214
X86.964 Y61.531
X86.865 Y61.835
X86.706 Y62.111
X86.492 Y62.348
X86.306 Y62.484
X86.492 Y62.620
X86.706 Y62.857
X86.865 Y63.133
X86.964 Y63.437
X86.998 Y63.754
X86.964 Y64.071
X86.865 Y64.375
X86.706 Y64.651
X86.492 Y64.888
X86.234 Y65.076
X85.943 Y65.206
X85.631 Y65.272
X85.617 Y65.272
X85.583 Y65.311
X81.572 Y69.345
X81.572 Y71.379
X81.549 Y71.595
X81.472 Y71.830
X81.349 Y72.044
X81.183 Y72.228
X80.983 Y72.374
X80.757 Y72.474
X80.515 Y72.526
X70.183 Y72.526
X69.941 Y72.474
X69.716 Y72.374
X69.515 Y72.228
X69.350 Y72.044
X69.226 Y71.830
X69.150 Y71.595
X69.127 Y71.379
X69.127 Y66.213
X69.150 Y65.997
X69.226 Y65.762
X69.350 Y65.547
X69.515 Y65.364
X69.716 Y65.218
X69.942 Y65.118
X70.156 Y65.072
X74.262 Y64.669
X74.179 Y64.577
X74.032 Y64.323
X73.942 Y64.045
X73.912 Y63.754
X73.942 Y63.463
X74.025 Y63.209
X66.357 Y64.722
X66.357 Y72.788
X84.309 Y72.788
X84.291 Y69.797
X84.291 Y69.792
X84.236 Y69.731
X84.077 Y69.455
X83.978 Y69.151
X83.945 Y68.834
X83.978 Y68.517
X84.077 Y68.213
X84.236 Y67.937
X84.450 Y67.700
X84.708 Y67.512
X84.999 Y67.382
X85.311 Y67.316
X85.631 Y67.316
X85.943 Y67.382
X86.234 Y67.512
X86.492 Y67.700
X86.706 Y67.937
X86.865 Y68.213
X86.964 Y68.517
X86.998 Y68.834
X86.964 Y69.151
X86.865 Y69.455
X86.706 Y69.731
X86.651 Y69.792
X86.651 Y69.793
X86.677 Y73.993
X86.654 Y74.211
X86.578 Y74.446
X86.454 Y74.660
X86.288 Y74.844
X86.088 Y74.990
X85.862 Y75.090
X85.620 Y75.142
X65.053 Y75.142
X64.811 Y75.090
X64.585 Y74.990
X64.384 Y74.844
X64.219 Y74.660
X64.095 Y74.446
X64.019 Y74.211
X63.996 Y73.995
X63.996 Y63.724
X64.019 Y63.508
X64.095 Y63.273
X64.219 Y63.058
X64.384 Y62.874
X64.585 Y62.729
X64.811 Y62.628
X64.998 Y62.589
X74.328 Y60.748
X74.338 Y60.748
X74.375 Y60.707
X74.611 Y60.535
X74.879 Y60.416
X75.165 Y60.356
X75.457 Y60.356
X75.743 Y60.416
X76.011 Y60.535
X76.248 Y60.707
X76.443 Y60.925
X76.590 Y61.178
X76.673 Y61.434
X79.069 Y59.831
X63.792 Y59.850
X63.792 Y75.277
X87.654 Y75.277
X95.928 Y70.323
X95.791 Y70.352
X95.471 Y70.352
X95.159 Y70.286
X94.868 Y70.156
X94.610 Y69.968
X94.396 Y69.731
X94.237 Y69.455
X94.138 Y69.151
X94.105 Y68.834
X94.138 Y68.517
X94.237 Y68.213
X94.396 Y67.937
X94.610 Y67.700
X94.868 Y67.512
X95.159 Y67.382
X95.471 Y67.316
X95.791 Y67.316
X95.959 Y67.352
X99.070 Y65.809
X99.139 Y65.594
X99.319 Y65.283
X99.552 Y65.024
X99.469 Y64.931
X96.594 Y64.931
X96.394 Y65.076
X96.103 Y65.206
X95.791 Y65.272
X95.471 Y65.272
X95.159 Y65.206
X94.868 Y65.076
X94.610 Y64.888
X94.396 Y64.651
X94.237 Y64.375
X94.138 Y64.071
X94.105 Y63.754
X94.138 Y63.437
X94.237 Y63.133
X94.396 Y62.857
X94.610 Y62.620
X94.796 Y62.484
X94.610 Y62.348
X94.396 Y62.111
X94.237 Y61.835
X94.138 Y61.531
X94.105 Y61.214
X94.138 Y60.897
X94.237 Y60.593
X94.396 Y60.317
X94.610 Y60.080
X94.868 Y59.892
X95.159 Y59.762
X95.471 Y59.696
X95.791 Y59.696
X96.103 Y59.762
X96.394 Y59.892
X96.594 Y60.037
X99.469 Y60.037
X99.552 Y59.944
X99.319 Y59.685
X99.139 Y59.374
X99.028 Y59.032
X98.991 Y58.674
X99.028 Y58.316
X99.139 Y57.974
X99.319 Y57.663
X99.552 Y57.404
X99.319 Y57.145
X99.139 Y56.834
X99.028 Y56.492
X98.991 Y56.134
X99.028 Y55.776
X99.139 Y55.434
X99.319 Y55.123
X99.552 Y54.864
X99.319 Y54.605
X99.139 Y54.294
X99.028 Y53.952
X98.991 Y53.594
X99.028 Y53.236
X99.139 Y52.894
X99.319 Y52.583
X99.552 Y52.324
X99.319 Y52.065
X99.139 Y51.754
X99.028 Y51.412
X98.991 Y51.054
X99.028 Y50.696
X99.139 Y50.354
X99.319 Y50.043
X99.552 Y49.784
X99.319 Y49.525
X99.139 Y49.214
X99.028 Y48.872
X98.991 Y48.514
X99.028 Y48.156
X99.139 Y47.814
X99.319 Y47.503
X99.552 Y47.244
X99.319 Y46.985
X99.139 Y46.674
X99.028 Y46.332
X98.991 Y45.974
X99.028 Y45.616
X99.139 Y45.274
X99.319 Y44.963
X99.552 Y44.704
X99.319 Y44.445
X99.139 Y44.134
X99.028 Y43.792
X98.991 Y43.434
X99.028 Y43.076
X99.139 Y42.734
X99.319 Y42.423
X99.552 Y42.164
X99.319 Y41.905
X99.139 Y41.594
X99.028 Y41.252
X98.991 Y40.894
X99.028 Y40.536
X99.139 Y40.194
X99.319 Y39.883
X99.552 Y39.624
X99.319 Y39.365
X99.139 Y39.054
X99.028 Y38.712
X98.991 Y38.354
X99.028 Y37.996
X99.139 Y37.654
X99.319 Y37.343
X99.552 Y37.084
X99.319 Y36.825
X99.139 Y36.514
X99.028 Y36.172
X98.991 Y35.814
X99.028 Y35.456
X99.139 Y35.114
X99.319 Y34.803
X99.552 Y34.544
X99.319 Y34.285
X99.139 Y33.974
X99.028 Y33.632
X98.991 Y33.274
X99.028 Y32.916
X99.139 Y32.574
X99.319 Y32.263
X99.552 Y32.004
X99.319 Y31.745
X99.139 Y31.434
X99.028 Y31.092
X98.991 Y30.734
X99.028 Y30.376
X99.139 Y30.034
X99.319 Y29.723
X99.560 Y29.455
X99.851 Y29.244
X100.179 Y29.098
X100.531 Y29.023
X100.891 Y29.023
X101.243 Y29.098
X101.571 Y29.244
X101.862 Y29.455
X101.981 Y29.587
X102.100 Y29.455
X102.391 Y29.244
X102.719 Y29.098
X103.071 Y29.023
X103.431 Y29.023
X103.783 Y29.098
X104.111 Y29.244
X104.402 Y29.455
X104.643 Y29.723
X104.823 Y30.034
X104.934 Y30.376
X104.972 Y30.734
X104.934 Y31.092
X104.823 Y31.434
X104.643 Y31.745
X104.410 Y32.004
X104.643 Y32.263
X104.823 Y32.574
X104.934 Y32.916
X104.972 Y33.274
X104.934 Y33.632
X104.823 Y33.974
X104.643 Y34.285
X104.410 Y34.544
X104.643 Y34.803
X104.823 Y35.114
X104.934 Y35.456
X104.972 Y35.814
X104.934 Y36.172
X104.823 Y36.514
X104.643 Y36.825
X104.410 Y37.084
X104.643 Y37.343
X104.823 Y37.654
X104.934 Y37.996
X104.972 Y38.354
X104.934 Y38.712
X104.823 Y39.054
X104.643 Y39.365
X104.410 Y39.624
X104.643 Y39.883
X104.823 Y40.194
X104.934 Y40.536
X104.972 Y40.894
X104.934 Y41.252
X104.823 Y41.594
X104.643 Y41.905
X104.410 Y42.164
X104.643 Y42.423
X104.823 Y42.734
X104.934 Y43.076
X104.972 Y43.434
X104.934 Y43.792
X104.823 Y44.134
X104.643 Y44.445
X104.410 Y44.704
X104.643 Y44.963
X104.823 Y45.274
X104.934 Y45.616
X104.972 Y45.974
X104.934 Y46.332
X104.823 Y46.674
X104.643 Y46.985
X104.410 Y47.244
X104.643 Y47.503
X104.823 Y47.814
X104.934 Y48.156
X104.972 Y48.514
X104.934 Y48.872
X104.823 Y49.214
X104.643 Y49.525
X104.410 Y49.784
X104.643 Y50.043
X104.823 Y50.354
X104.934 Y50.696
X104.972 Y51.054
X104.934 Y51.412
X104.823 Y51.754
X104.643 Y52.065
X104.410 Y52.324
X104.643 Y52.583
X104.823 Y52.894
X104.934 Y53.236
X104.972 Y53.594
X104.934 Y53.952
X104.823 Y54.294
X104.643 Y54.605
X104.410 Y54.864
X104.643 Y55.123
X104.823 Y55.434
X104.934 Y55.776
X104.972 Y56.134
X104.934 Y56.492
X104.823 Y56.834
X104.643 Y57.145
X104.410 Y57.404
X104.643 Y57.663
X104.823 Y57.974
X104.934 Y58.316
X104.972 Y58.674
X104.934 Y59.032
X104.823 Y59.374
X104.643 Y59.685
X104.410 Y59.944
X104.643 Y60.203
X104.823 Y60.514
X104.934 Y60.856
X104.972 Y61.214
X104.934 Y61.572
X104.823 Y61.914
X104.643 Y62.225
X104.410 Y62.484
X104.643 Y62.743
X104.823 Y63.054
X104.934 Y63.396
X104.972 Y63.754
X104.934 Y64.112
X104.823 Y64.454
X104.643 Y64.765
X104.410 Y65.024
X104.643 Y65.283
X104.823 Y65.594
X104.934 Y65.936
X104.972 Y66.294
X104.934 Y66.652
X104.823 Y66.994
X104.643 Y67.305
X104.410 Y67.564
X104.643 Y67.823
X104.823 Y68.134
X104.934 Y68.476
X104.972 Y68.834
X104.934 Y69.192
X104.823 Y69.534
X104.643 Y69.845
X104.410 Y70.104
X104.643 Y70.363
X104.823 Y70.674
X104.934 Y71.016
X104.972 Y71.374
X104.934 Y71.732
X104.823 Y72.074
X104.643 Y72.385
X104.410 Y72.644
X104.643 Y72.903
X104.823 Y73.214
X104.934 Y73.556
X104.972 Y73.914
X104.934 Y74.272
X104.823 Y74.614
X104.643 Y74.925
X104.410 Y75.184
X104.643 Y75.443
X104.823 Y75.754
X104.934 Y76.096
X104.972 Y76.454
X104.934 Y76.812
X104.823 Y77.154
X104.643 Y77.465
X104.410 Y77.724
X104.643 Y77.983
X104.823 Y78.294
X104.934 Y78.636
X104.972 Y78.994
X104.934 Y79.352
X104.823 Y79.694
X104.643 Y80.005
X104.402 Y80.273
X104.111 Y80.484
X103.783 Y80.630
X103.431 Y80.705
X103.071 Y80.705
X102.719 Y80.630
X102.391 Y80.484
X102.100 Y80.273
X101.981 Y80.141
X101.862 Y80.273
X101.571 Y80.484
X101.243 Y80.630
X100.891 Y80.705
X100.531 Y80.705
G0 Z3.000
G0  X101.981 Y77.847
G0  Z3.000
G01 F400 Z0
G01 F400 Z-0.100
G01F400X102.092 Y77.724
X101.981 Y77.601
X101.870 Y77.724
X101.981 Y77.847
G0 Z3.000
G0  X101.981 Y75.307
G0  Z3.000
G01 F400 Z0
G01 F400 Z-0.100
G01F400X102.092 Y75.184
X101.981 Y75.061
X101.870 Y75.184
X101.981 Y75.307
G0 Z3.000
G0  X101.981 Y72.767
G0  Z3.000
G01 F400 Z0
G01 F400 Z-0.100
G01F400X102.092 Y72.644
X101.981 Y72.521
X101.870 Y72.644
X101.981 Y72.767
G0 Z3.000
G0  X101.981 Y70.227
G0  Z3.000
G01 F400 Z0
G01 F400 Z-0.100
G01F400X102.092 Y70.104
X101.981 Y69.981
X101.870 Y70.104
X101.981 Y70.227
G0 Z3.000
G0  X71.488 Y70.171
G0  Z3.000
G01 F400 Z0
G01 F400 Z-0.100
G01F400X79.211 Y70.171
X79.211 Y68.830
X79.233 Y68.613
X79.310 Y68.378
X79.434 Y68.164
X79.568 Y68.014
X83.961 Y63.595
X83.978 Y63.437
X84.043 Y63.237
X81.091 Y64.722
X78.682 Y67.131
X78.519 Y67.250
X76.639 Y68.347
X76.545 Y68.388
X76.443 Y68.564
X76.248 Y68.782
X76.011 Y68.954
X75.743 Y69.073
X75.457 Y69.134
X75.165 Y69.134
X74.879 Y69.073
X74.611 Y68.954
X74.374 Y68.782
X74.179 Y68.564
X74.032 Y68.311
X73.942 Y68.033
X73.912 Y67.742
X73.942 Y67.451
X74.032 Y67.173
X74.099 Y67.057
X71.488 Y67.313
X71.488 Y70.171
G0 Z3.000
G0  X96.807 Y69.797
G0  Z3.000
G01 F400 Z0
G01 F400 Z-0.100
G01F400X99.032 Y68.465
X99.034 Y68.459
X97.093 Y69.421
X97.027 Y69.451
X97.026 Y69.455
X96.866 Y69.731
X96.807 Y69.797
G0 Z3.000
G0  X101.981 Y67.687
G0  Z3.000
G01 F400 Z0
G01 F400 Z-0.100
G01F400X102.092 Y67.564
X101.981 Y67.441
X101.870 Y67.564
X101.981 Y67.687
G0 Z3.000
G0  X101.981 Y65.147
G0  Z3.000
G01 F400 Z0
G01 F400 Z-0.100
G01F400X102.092 Y65.024
X101.981 Y64.901
X101.870 Y65.024
X101.981 Y65.147
G0 Z3.000
G0  X101.981 Y62.607
G0  Z3.000
G01 F400 Z0
G01 F400 Z-0.100
G01F400X102.092 Y62.484
X101.981 Y62.361
X101.870 Y62.484
X101.981 Y62.607
G0 Z3.000
G0  X96.594 Y62.577
G0  Z3.000
G01 F400 Z0
G01 F400 Z-0.100
G01F400X99.469 Y62.577
X99.552 Y62.484
X99.469 Y62.391
X96.594 Y62.391
X96.466 Y62.484
X96.594 Y62.577
G0 Z3.000
G0  X101.981 Y60.067
G0  Z3.000
G01 F400 Z0
G01 F400 Z-0.100
G01F400X102.092 Y59.944
X101.981 Y59.821
X101.870 Y59.944
X101.981 Y60.067
G0 Z3.000
G0  X101.981 Y57.527
G0  Z3.000
G01 F400 Z0
G01 F400 Z-0.100
G01F400X102.092 Y57.404
X101.981 Y57.281
X101.870 Y57.404
X101.981 Y57.527
G0 Z3.000
G0  X101.981 Y54.987
G0  Z3.000
G01 F400 Z0
G01 F400 Z-0.100
G01F400X102.092 Y54.864
X101.981 Y54.741
X101.870 Y54.864
X101.981 Y54.987
G0 Z3.000
G0  X101.981 Y52.447
G0  Z3.000
G01 F400 Z0
G01 F400 Z-0.100
G01F400X102.092 Y52.324
X101.981 Y52.201
X101.870 Y52.324
X101.981 Y52.447
G0 Z3.000
G0  X101.981 Y49.907
G0  Z3.000
G01 F400 Z0
G01 F400 Z-0.100
G01F400X102.092 Y49.784
X101.981 Y49.661
X101.870 Y49.784
X101.981 Y49.907
G0 Z3.000
G0  X101.981 Y47.367
G0  Z3.000
G01 F400 Z0
G01 F400 Z-0.100
G01F400X102.092 Y47.244
X101.981 Y47.121
X101.870 Y47.244
X101.981 Y47.367
G0 Z3.000
G0  X101.981 Y44.827
G0  Z3.000
G01 F400 Z0
G01 F400 Z-0.100
G01F400X102.092 Y44.704
X101.981 Y44.581
X101.870 Y44.704
X101.981 Y44.827
G0 Z3.000
G0  X101.981 Y42.287
G0  Z3.000
G01 F400 Z0
G01 F400 Z-0.100
G01F400X102.092 Y42.164
X101.981 Y42.041
X101.870 Y42.164
X101.981 Y42.287
G0 Z3.000
G0  X101.981 Y39.747
G0  Z3.000
G01 F400 Z0
G01 F400 Z-0.100
G01F400X102.092 Y39.624
X101.981 Y39.501
X101.870 Y39.624
X101.981 Y39.747
G0 Z3.000
G0  X101.981 Y37.207
G0  Z3.000
G01 F400 Z0
G01 F400 Z-0.100
G01F400X102.092 Y37.084
X101.981 Y36.961
X101.870 Y37.084
X101.981 Y37.207
G0 Z3.000
G0  X101.981 Y34.667
G0  Z3.000
G01 F400 Z0
G01 F400 Z-0.100
G01F400X102.092 Y34.544
X101.981 Y34.421
X101.870 Y34.544
X101.981 Y34.667
G0 Z3.000
G0  X101.981 Y32.127
G0  Z3.000
G01 F400 Z0
G01 F400 Z-0.100
G01F400X102.092 Y32.004
X101.981 Y31.881
X101.870 Y32.004
X101.981 Y32.127
G0 Z3.000
G0  X100.508 Y80.928
G0  Z3.000
G01 F400 Z0
G01 F400 Z-0.100
G01F400X100.110 Y80.844
X99.738 Y80.678
X99.409 Y80.440
X99.137 Y80.137
X98.934 Y79.785
X98.808 Y79.398
X98.766 Y78.994
X98.808 Y78.590
X98.934 Y78.203
X99.137 Y77.851
X99.251 Y77.724
X99.137 Y77.597
X98.934 Y77.245
X98.808 Y76.858
X98.766 Y76.454
X98.808 Y76.050
X98.934 Y75.663
X99.137 Y75.311
X99.251 Y75.184
X99.137 Y75.057
X98.934 Y74.705
X98.808 Y74.318
X98.766 Y73.914
X98.808 Y73.510
X98.934 Y73.123
X99.137 Y72.771
X99.251 Y72.644
X99.137 Y72.517
X98.934 Y72.165
X98.808 Y71.778
X98.792 Y71.620
X88.657 Y77.688
X88.421 Y77.793
X88.133 Y77.855
X62.464 Y77.855
X62.176 Y77.793
X61.907 Y77.674
X61.669 Y77.501
X61.472 Y77.282
X61.325 Y77.027
X61.234 Y76.747
X61.207 Y76.496
X61.207 Y58.632
X61.234 Y58.381
X61.325 Y58.101
X61.472 Y57.846
X61.669 Y57.627
X61.907 Y57.455
X62.176 Y57.335
X62.463 Y57.274
X82.892 Y57.248
X83.104 Y57.248
X83.392 Y57.309
X83.660 Y57.429
X83.899 Y57.602
X84.096 Y57.821
X84.243 Y58.076
X84.334 Y58.356
X84.365 Y58.649
X84.334 Y58.941
X84.243 Y59.221
X84.096 Y59.476
X83.899 Y59.695
X83.716 Y59.828
X76.753 Y64.486
X76.625 Y64.709
X76.593 Y64.745
X76.625 Y64.781
X76.795 Y65.075
X76.846 Y65.234
X77.040 Y65.121
X79.466 Y62.695
X79.672 Y62.546
X83.927 Y60.405
X84.054 Y60.185
X84.299 Y59.913
X84.596 Y59.698
X84.930 Y59.549
X85.288 Y59.472
X85.654 Y59.472
X86.012 Y59.549
X86.347 Y59.698
X86.643 Y59.913
X86.888 Y60.185
X87.071 Y60.502
X87.184 Y60.850
X87.222 Y61.214
X87.184 Y61.578
X87.071 Y61.926
X86.888 Y62.243
X86.671 Y62.484
X86.888 Y62.725
X87.071 Y63.042
X87.184 Y63.390
X87.222 Y63.754
X87.184 Y64.118
X87.071 Y64.466
X86.888 Y64.783
X86.643 Y65.055
X86.347 Y65.270
X86.012 Y65.419
X85.730 Y65.480
X81.795 Y69.437
X81.795 Y71.390
X81.768 Y71.641
X81.678 Y71.921
X81.530 Y72.176
X81.333 Y72.395
X81.100 Y72.564
X84.084 Y72.564
X84.068 Y69.878
X84.054 Y69.863
X83.871 Y69.546
X83.758 Y69.198
X83.720 Y68.834
X83.758 Y68.470
X83.871 Y68.122
X84.054 Y67.805
X84.299 Y67.533
X84.596 Y67.318
X84.930 Y67.169
X85.288 Y67.092
X85.654 Y67.092
X86.012 Y67.169
X86.347 Y67.318
X86.643 Y67.533
X86.888 Y67.805
X87.071 Y68.122
X87.184 Y68.470
X87.222 Y68.834
X87.184 Y69.198
X87.071 Y69.546
X86.888 Y69.863
X86.875 Y69.877
X86.900 Y74.004
X86.874 Y74.257
X86.783 Y74.537
X86.636 Y74.793
X86.439 Y75.011
X86.381 Y75.053
X87.592 Y75.053
X95.170 Y70.517
X95.090 Y70.499
X94.755 Y70.350
X94.459 Y70.135
X94.214 Y69.863
X94.031 Y69.546
X93.918 Y69.198
X93.880 Y68.834
X93.918 Y68.470
X94.031 Y68.122
X94.214 Y67.805
X94.459 Y67.533
X94.755 Y67.318
X95.090 Y67.169
X95.448 Y67.092
X95.814 Y67.092
X95.929 Y67.117
X98.886 Y65.651
X98.934 Y65.503
X99.135 Y65.155
X96.666 Y65.155
X96.507 Y65.270
X96.172 Y65.419
X95.814 Y65.496
X95.448 Y65.496
X95.090 Y65.419
X94.755 Y65.270
X94.459 Y65.055
X94.214 Y64.783
X94.031 Y64.466
X93.918 Y64.118
X93.880 Y63.754
X93.918 Y63.390
X94.031 Y63.042
X94.214 Y62.725
X94.431 Y62.484
X94.214 Y62.243
X94.031 Y61.926
X93.918 Y61.578
X93.880 Y61.214
X93.918 Y60.850
X94.031 Y60.502
X94.214 Y60.185
X94.459 Y59.913
X94.755 Y59.698
X95.090 Y59.549
X95.448 Y59.472
X95.814 Y59.472
X96.172 Y59.549
X96.507 Y59.698
X96.666 Y59.813
X99.135 Y59.813
X98.934 Y59.465
X98.808 Y59.078
X98.766 Y58.674
X98.808 Y58.270
X98.934 Y57.883
X99.137 Y57.531
X99.251 Y57.404
X99.137 Y57.277
X98.934 Y56.925
X98.808 Y56.538
X98.766 Y56.134
X98.808 Y55.730
X98.934 Y55.343
X99.137 Y54.991
X99.251 Y54.864
X99.137 Y54.737
X98.934 Y54.385
X98.808 Y53.998
X98.766 Y53.594
X98.808 Y53.190
X98.934 Y52.803
X99.137 Y52.451
X99.251 Y52.324
X99.137 Y52.197
X98.934 Y51.845
X98.808 Y51.458
X98.766 Y51.054
X98.808 Y50.650
X98.934 Y50.263
X99.137 Y49.911
X99.251 Y49.784
X99.137 Y49.657
X98.934 Y49.305
X98.808 Y48.918
X98.766 Y48.514
X98.808 Y48.110
X98.934 Y47.723
X99.137 Y47.371
X99.251 Y47.244
X99.137 Y47.117
X98.934 Y46.765
X98.808 Y46.378
X98.766 Y45.974
X98.808 Y45.570
X98.934 Y45.183
X99.137 Y44.831
X99.251 Y44.704
X99.137 Y44.577
X98.934 Y44.225
X98.808 Y43.838
X98.766 Y43.434
X98.808 Y43.030
X98.934 Y42.643
X99.137 Y42.291
X99.251 Y42.164
X99.137 Y42.037
X98.934 Y41.685
X98.808 Y41.298
X98.766 Y40.894
X98.808 Y40.490
X98.934 Y40.103
X99.137 Y39.751
X99.251 Y39.624
X99.137 Y39.497
X98.934 Y39.145
X98.808 Y38.758
X98.766 Y38.354
X98.808 Y37.950
X98.934 Y37.563
X99.137 Y37.211
X99.251 Y37.084
X99.137 Y36.957
X98.934 Y36.605
X98.808 Y36.218
X98.766 Y35.814
X98.808 Y35.410
X98.934 Y35.023
X99.137 Y34.671
X99.251 Y34.544
X99.137 Y34.417
X98.934 Y34.065
X98.808 Y33.678
X98.766 Y33.274
X98.808 Y32.870
X98.934 Y32.483
X99.137 Y32.131
X99.251 Y32.004
X99.137 Y31.877
X98.934 Y31.525
X98.808 Y31.138
X98.766 Y30.734
X98.808 Y30.330
X98.934 Y29.943
X99.137 Y29.591
X99.409 Y29.289
X99.738 Y29.050
X100.110 Y28.884
X100.508 Y28.800
X100.914 Y28.800
X101.312 Y28.884
X101.684 Y29.050
X101.981 Y29.266
X102.278 Y29.050
X102.650 Y28.884
X103.048 Y28.800
X103.454 Y28.800
X103.852 Y28.884
X104.224 Y29.050
X104.553 Y29.289
X104.825 Y29.591
X105.028 Y29.943
X105.154 Y30.330
X105.196 Y30.734
X105.154 Y31.138
X105.028 Y31.525
X104.825 Y31.877
X104.711 Y32.004
X104.825 Y32.131
X105.028 Y32.483
X105.154 Y32.870
X105.196 Y33.274
X105.154 Y33.678
X105.028 Y34.065
X104.825 Y34.417
X104.711 Y34.544
X104.825 Y34.671
X105.028 Y35.023
X105.154 Y35.410
X105.196 Y35.814
X105.154 Y36.218
X105.028 Y36.605
X104.825 Y36.957
X104.711 Y37.084
X104.825 Y37.211
X105.028 Y37.563
X105.154 Y37.950
X105.196 Y38.354
X105.154 Y38.758
X105.028 Y39.145
X104.825 Y39.497
X104.711 Y39.624
X104.825 Y39.751
X105.028 Y40.103
X105.154 Y40.490
X105.196 Y40.894
X105.154 Y41.298
X105.028 Y41.685
X104.825 Y42.037
X104.711 Y42.164
X104.825 Y42.291
X105.028 Y42.643
X105.154 Y43.030
X105.196 Y43.434
X105.154 Y43.838
X105.028 Y44.225
X104.825 Y44.577
X104.711 Y44.704
X104.825 Y44.831
X105.028 Y45.183
X105.154 Y45.570
X105.196 Y45.974
X105.154 Y46.378
X105.028 Y46.765
X104.825 Y47.117
X104.711 Y47.244
X104.825 Y47.371
X105.028 Y47.723
X105.154 Y48.110
X105.196 Y48.514
X105.154 Y48.918
X105.028 Y49.305
X104.825 Y49.657
X104.711 Y49.784
X104.825 Y49.911
X105.028 Y50.263
X105.154 Y50.650
X105.196 Y51.054
X105.154 Y51.458
X105.028 Y51.845
X104.825 Y52.197
X104.711 Y52.324
X104.825 Y52.451
X105.028 Y52.803
X105.154 Y53.190
X105.196 Y53.594
X105.154 Y53.998
X105.028 Y54.385
X104.825 Y54.737
X104.711 Y54.864
X104.825 Y54.991
X105.028 Y55.343
X105.154 Y55.730
X105.196 Y56.134
X105.154 Y56.538
X105.028 Y56.925
X104.825 Y57.277
X104.711 Y57.404
X104.825 Y57.531
X105.028 Y57.883
X105.154 Y58.270
X105.196 Y58.674
X105.154 Y59.078
X105.028 Y59.465
X104.825 Y59.817
X104.711 Y59.944
X104.825 Y60.071
X105.028 Y60.423
X105.154 Y60.810
X105.196 Y61.214
X105.154 Y61.618
X105.028 Y62.005
X104.825 Y62.357
X104.711 Y62.484
X104.825 Y62.611
X105.028 Y62.963
X105.154 Y63.350
X105.196 Y63.754
X105.154 Y64.158
X105.028 Y64.545
X104.825 Y64.897
X104.711 Y65.024
X104.825 Y65.151
X105.028 Y65.503
X105.154 Y65.890
X105.196 Y66.294
X105.154 Y66.698
X105.028 Y67.085
X104.825 Y67.437
X104.711 Y67.564
X104.825 Y67.691
X105.028 Y68.043
X105.154 Y68.430
X105.196 Y68.834
X105.154 Y69.238
X105.028 Y69.625
X104.825 Y69.977
X104.711 Y70.104
X104.825 Y70.231
X105.028 Y70.583
X105.154 Y70.970
X105.196 Y71.374
X105.154 Y71.778
X105.028 Y72.165
X104.825 Y72.517
X104.711 Y72.644
X104.825 Y72.771
X105.028 Y73.123
X105.154 Y73.510
X105.196 Y73.914
X105.154 Y74.318
X105.028 Y74.705
X104.825 Y75.057
X104.711 Y75.184
X104.825 Y75.311
X105.028 Y75.663
X105.154 Y76.050
X105.196 Y76.454
X105.154 Y76.858
X105.028 Y77.245
X104.825 Y77.597
X104.711 Y77.724
X104.825 Y77.851
X105.028 Y78.203
X105.154 Y78.590
X105.196 Y78.994
X105.154 Y79.398
X105.028 Y79.785
X104.825 Y80.137
X104.553 Y80.440
X104.224 Y80.678
X103.852 Y80.844
X103.454 Y80.928
X103.048 Y80.928
X102.650 Y80.844
X102.278 Y80.678
X101.981 Y80.463
X101.684 Y80.678
X101.312 Y80.844
X100.914 Y80.928
X100.508 Y80.928
G0 Z3.000
G0  X64.015 Y75.053
G0  Z3.000
G01 F400 Z0
G01 F400 Z-0.100
G01F400X64.292 Y75.053
X64.234 Y75.011
X64.037 Y74.793
X64.015 Y74.754
X64.015 Y75.053
G0 Z3.000
G0  X66.580 Y72.564
G0  Z3.000
G01 F400 Z0
G01 F400 Z-0.100
G01F400X69.598 Y72.564
X69.365 Y72.395
X69.168 Y72.176
X69.021 Y71.921
X68.930 Y71.641
X68.903 Y71.390
X68.903 Y66.202
X68.930 Y65.950
X69.021 Y65.671
X69.168 Y65.416
X69.365 Y65.197
X69.603 Y65.024
X69.872 Y64.904
X70.122 Y64.851
X73.867 Y64.483
X73.827 Y64.414
X73.722 Y64.092
X73.687 Y63.754
X73.714 Y63.498
X66.580 Y64.906
X66.580 Y72.564
G0 Z3.000
G0  X71.711 Y69.948
G0  Z3.000
G01 F400 Z0
G01 F400 Z-0.100
G01F400X78.987 Y69.948
X78.987 Y68.818
X79.014 Y68.567
X79.105 Y68.287
X79.252 Y68.032
X79.406 Y67.860
X83.465 Y63.778
X81.223 Y64.906
X78.827 Y67.302
X78.641 Y67.437
X76.740 Y68.546
X76.702 Y68.563
X76.625 Y68.696
X76.398 Y68.949
X76.123 Y69.148
X75.813 Y69.286
X75.481 Y69.357
X75.141 Y69.357
X74.809 Y69.286
X74.499 Y69.148
X74.224 Y68.949
X73.997 Y68.696
X73.827 Y68.402
X73.722 Y68.080
X73.687 Y67.742
X73.722 Y67.404
X73.751 Y67.316
X71.711 Y67.516
X71.711 Y69.948
G0 Z3.000
G0  X64.015 Y62.965
G0  Z3.000
G01 F400 Z0
G01 F400 Z-0.100
G01F400X64.037 Y62.926
X64.234 Y62.707
X64.473 Y62.535
X64.741 Y62.415
X64.953 Y62.370
X74.224 Y60.541
X74.224 Y60.540
X74.499 Y60.341
X74.809 Y60.203
X75.141 Y60.132
X75.481 Y60.132
X75.813 Y60.203
X76.123 Y60.341
X76.398 Y60.541
X76.625 Y60.793
X76.793 Y61.085
X78.332 Y60.055
X64.015 Y60.073
X64.015 Y62.965
G0 Z3.000
G0  X100.484 Y81.152
G0  Z3.000
G01 F400 Z0
G01 F400 Z-0.100
G01F400X100.041 Y81.058
X99.626 Y80.873
X99.259 Y80.606
X98.956 Y80.269
X98.729 Y79.876
X98.589 Y79.445
X98.541 Y78.994
X98.589 Y78.543
X98.729 Y78.112
X98.953 Y77.724
X98.729 Y77.336
X98.589 Y76.905
X98.541 Y76.454
X98.589 Y76.003
X98.729 Y75.572
X98.953 Y75.184
X98.729 Y74.796
X98.589 Y74.365
X98.541 Y73.914
X98.589 Y73.463
X98.729 Y73.032
X98.953 Y72.644
X98.729 Y72.256
X98.637 Y71.974
X88.761 Y77.887
X88.490 Y78.007
X88.156 Y78.078
X62.440 Y78.078
X62.106 Y78.007
X61.795 Y77.868
X61.518 Y77.668
X61.290 Y77.414
X61.119 Y77.118
X61.014 Y76.794
X60.984 Y76.507
X60.984 Y58.621
X61.014 Y58.335
X61.119 Y58.010
X61.290 Y57.714
X61.518 Y57.460
X61.795 Y57.260
X62.107 Y57.121
X62.440 Y57.050
X82.892 Y57.025
X83.127 Y57.025
X83.461 Y57.096
X83.773 Y57.235
X84.049 Y57.435
X84.277 Y57.689
X84.448 Y57.985
X84.553 Y58.309
X84.589 Y58.649
X84.553 Y58.988
X84.448 Y59.313
X84.277 Y59.608
X84.162 Y59.736
X84.483 Y59.503
X84.861 Y59.335
X85.264 Y59.249
X85.678 Y59.249
X86.082 Y59.335
X86.459 Y59.503
X86.793 Y59.746
X87.069 Y60.053
X87.276 Y60.410
X87.404 Y60.803
X87.447 Y61.214
X87.404 Y61.625
X87.276 Y62.018
X87.069 Y62.375
X86.971 Y62.484
X87.069 Y62.593
X87.276 Y62.950
X87.404 Y63.343
X87.447 Y63.754
X87.404 Y64.165
X87.276 Y64.558
X87.069 Y64.915
X86.793 Y65.222
X86.459 Y65.465
X86.082 Y65.633
X85.841 Y65.684
X84.222 Y67.313
X84.483 Y67.123
X84.861 Y66.955
X85.264 Y66.869
X85.678 Y66.869
X86.082 Y66.955
X86.459 Y67.123
X86.793 Y67.366
X87.069 Y67.673
X87.276 Y68.030
X87.404 Y68.423
X87.447 Y68.834
X87.404 Y69.245
X87.276 Y69.638
X87.099 Y69.944
X87.124 Y74.015
X87.094 Y74.304
X86.988 Y74.629
X86.872 Y74.830
X87.530 Y74.830
X94.669 Y70.556
X94.643 Y70.545
X94.309 Y70.302
X94.033 Y69.995
X93.826 Y69.638
X93.699 Y69.245
X93.655 Y68.834
X93.699 Y68.423
X93.826 Y68.030
X94.033 Y67.673
X94.309 Y67.366
X94.643 Y67.123
X95.020 Y66.955
X95.424 Y66.869
X95.838 Y66.869
X95.900 Y66.882
X98.703 Y65.492
X98.729 Y65.412
X98.748 Y65.378
X96.739 Y65.378
X96.619 Y65.465
X96.242 Y65.633
X95.838 Y65.719
X95.424 Y65.719
X95.020 Y65.633
X94.643 Y65.465
X94.309 Y65.222
X94.033 Y64.915
X93.826 Y64.558
X93.699 Y64.165
X93.655 Y63.754
X93.699 Y63.343
X93.826 Y62.950
X94.033 Y62.593
X94.131 Y62.484
X94.033 Y62.375
X93.826 Y62.018
X93.699 Y61.625
X93.655 Y61.214
X93.699 Y60.803
X93.826 Y60.410
X94.033 Y60.053
X94.309 Y59.746
X94.643 Y59.503
X95.020 Y59.335
X95.424 Y59.249
X95.838 Y59.249
X96.242 Y59.335
X96.619 Y59.503
X96.739 Y59.590
X98.748 Y59.590
X98.729 Y59.556
X98.589 Y59.125
X98.541 Y58.674
X98.589 Y58.223
X98.729 Y57.792
X98.953 Y57.404
X98.729 Y57.016
X98.589 Y56.585
X98.541 Y56.134
X98.589 Y55.683
X98.729 Y55.252
X98.953 Y54.864
X98.729 Y54.476
X98.589 Y54.045
X98.541 Y53.594
X98.589 Y53.143
X98.729 Y52.712
X98.953 Y52.324
X98.729 Y51.936
X98.589 Y51.505
X98.541 Y51.054
X98.589 Y50.603
X98.729 Y50.172
X98.953 Y49.784
X98.729 Y49.396
X98.589 Y48.965
X98.541 Y48.514
X98.589 Y48.063
X98.729 Y47.632
X98.953 Y47.244
X98.729 Y46.856
X98.589 Y46.425
X98.541 Y45.974
X98.589 Y45.523
X98.729 Y45.092
X98.953 Y44.704
X98.729 Y44.316
X98.589 Y43.885
X98.541 Y43.434
X98.589 Y42.983
X98.729 Y42.552
X98.953 Y42.164
X98.729 Y41.776
X98.589 Y41.345
X98.541 Y40.894
X98.589 Y40.443
X98.729 Y40.012
X98.953 Y39.624
X98.729 Y39.236
X98.589 Y38.805
X98.541 Y38.354
X98.589 Y37.903
X98.729 Y37.472
X98.953 Y37.084
X98.729 Y36.696
X98.589 Y36.265
X98.541 Y35.814
X98.589 Y35.363
X98.729 Y34.932
X98.953 Y34.544
X98.729 Y34.156
X98.589 Y33.725
X98.541 Y33.274
X98.589 Y32.823
X98.729 Y32.392
X98.953 Y32.004
X98.729 Y31.616
X98.589 Y31.185
X98.541 Y30.734
X98.589 Y30.283
X98.729 Y29.852
X98.956 Y29.459
X99.259 Y29.122
X99.626 Y28.855
X100.041 Y28.671
X100.484 Y28.576
X100.938 Y28.576
X101.382 Y28.671
X101.796 Y28.855
X101.981 Y28.989
X102.166 Y28.855
X102.581 Y28.671
X103.024 Y28.576
X103.478 Y28.576
X103.922 Y28.671
X104.336 Y28.855
X104.703 Y29.122
X105.006 Y29.459
X105.233 Y29.852
X105.373 Y30.283
X105.421 Y30.734
X105.373 Y31.185
X105.233 Y31.616
X105.009 Y32.004
X105.233 Y32.392
X105.373 Y32.823
X105.421 Y33.274
X105.373 Y33.725
X105.233 Y34.156
X105.009 Y34.544
X105.233 Y34.932
X105.373 Y35.363
X105.421 Y35.814
X105.373 Y36.265
X105.233 Y36.696
X105.009 Y37.084
X105.233 Y37.472
X105.373 Y37.903
X105.421 Y38.354
X105.373 Y38.805
X105.233 Y39.236
X105.009 Y39.624
X105.233 Y40.012
X105.373 Y40.443
X105.421 Y40.894
X105.373 Y41.345
X105.233 Y41.776
X105.009 Y42.164
X105.233 Y42.552
X105.373 Y42.983
X105.421 Y43.434
X105.373 Y43.885
X105.233 Y44.316
X105.009 Y44.704
X105.233 Y45.092
X105.373 Y45.523
X105.421 Y45.974
X105.373 Y46.425
X105.233 Y46.856
X105.009 Y47.244
X105.233 Y47.632
X105.373 Y48.063
X105.421 Y48.514
X105.373 Y48.965
X105.233 Y49.396
X105.009 Y49.784
X105.233 Y50.172
X105.373 Y50.603
X105.421 Y51.054
X105.373 Y51.505
X105.233 Y51.936
X105.009 Y52.324
X105.233 Y52.712
X105.373 Y53.143
X105.421 Y53.594
X105.373 Y54.045
X105.233 Y54.476
X105.009 Y54.864
X105.233 Y55.252
X105.373 Y55.683
X105.421 Y56.134
X105.373 Y56.585
X105.233 Y57.016
X105.009 Y57.404
X105.233 Y57.792
X105.373 Y58.223
X105.421 Y58.674
X105.373 Y59.125
X105.233 Y59.556
X105.009 Y59.944
X105.233 Y60.332
X105.373 Y60.763
X105.421 Y61.214
X105.373 Y61.665
X105.233 Y62.096
X105.009 Y62.484
X105.233 Y62.872
X105.373 Y63.303
X105.421 Y63.754
X105.373 Y64.205
X105.233 Y64.636
X105.009 Y65.024
X105.233 Y65.412
X105.373 Y65.843
X105.421 Y66.294
X105.373 Y66.745
X105.233 Y67.176
X105.009 Y67.564
X105.233 Y67.952
X105.373 Y68.383
X105.421 Y68.834
X105.373 Y69.285
X105.233 Y69.716
X105.009 Y70.104
X105.233 Y70.492
X105.373 Y70.923
X105.421 Y71.374
X105.373 Y71.825
X105.233 Y72.256
X105.009 Y72.644
X105.233 Y73.032
X105.373 Y73.463
X105.421 Y73.914
X105.373 Y74.365
X105.233 Y74.796
X105.009 Y75.184
X105.233 Y75.572
X105.373 Y76.003
X105.421 Y76.454
X105.373 Y76.905
X105.233 Y77.336
X105.009 Y77.724
X105.233 Y78.112
X105.373 Y78.543
X105.421 Y78.994
X105.373 Y79.445
X105.233 Y79.876
X105.006 Y80.269
X104.703 Y80.606
X104.336 Y80.873
X103.922 Y81.058
X103.478 Y81.152
X103.024 Y81.152
X102.581 Y81.058
X102.166 Y80.873
X101.981 Y80.739
X101.796 Y80.873
X101.382 Y81.058
X100.938 Y81.152
X100.484 Y81.152
G0 Z3.000
G0  X81.683 Y72.341
G0  Z3.000
G01 F400 Z0
G01 F400 Z-0.100
G01F400X83.859 Y72.341
X83.845 Y69.947
X83.666 Y69.638
X83.538 Y69.245
X83.495 Y68.834
X83.538 Y68.423
X83.666 Y68.030
X83.873 Y67.673
X83.956 Y67.580
X82.018 Y69.529
X82.018 Y71.402
X81.988 Y71.688
X81.883 Y72.013
X81.712 Y72.308
X81.683 Y72.341
G0 Z3.000
G0  X66.804 Y72.341
G0  Z3.000
G01 F400 Z0
G01 F400 Z-0.100
G01F400X69.016 Y72.341
X68.986 Y72.308
X68.816 Y72.013
X68.710 Y71.688
X68.680 Y71.402
X68.680 Y66.190
X68.710 Y65.904
X68.816 Y65.579
X68.986 Y65.284
X69.215 Y65.030
X69.491 Y64.829
X69.803 Y64.690
X70.087 Y64.630
X73.552 Y64.290
X73.503 Y64.138
X73.465 Y63.775
X66.804 Y65.089
X66.804 Y72.341
G0 Z3.000
G0  X71.934 Y69.725
G0  Z3.000
G01 F400 Z0
G01 F400 Z-0.100
G01F400X78.764 Y69.725
X78.764 Y68.806
X78.794 Y68.520
X78.899 Y68.195
X79.070 Y67.900
X79.244 Y67.707
X82.337 Y64.595
X81.356 Y65.089
X78.973 Y67.472
X78.764 Y67.624
X76.861 Y68.734
X76.807 Y68.828
X76.548 Y69.116
X76.235 Y69.343
X75.882 Y69.500
X75.504 Y69.581
X75.118 Y69.581
X74.740 Y69.500
X74.387 Y69.343
X74.074 Y69.116
X73.815 Y68.828
X73.622 Y68.494
X73.503 Y68.126
X73.462 Y67.742
X73.481 Y67.567
X71.934 Y67.718
X71.934 Y69.725
G0 Z3.000
G0  X76.949 Y64.896
G0  Z3.000
G01 F400 Z0
G01 F400 Z-0.100
G01F400X77.770 Y64.075
X76.921 Y64.643
X76.862 Y64.745
X76.949 Y64.896
G0 Z3.000
G0  X64.238 Y62.428
G0  Z3.000
G01 F400 Z0
G01 F400 Z-0.100
G01F400X64.360 Y62.340
X64.672 Y62.201
X64.909 Y62.151
X74.132 Y60.331
X74.198 Y60.284
X64.238 Y60.296
X64.238 Y62.428
G0 Z3.000
G0  X76.867 Y60.766
G0  Z3.000
G01 F400 Z0
G01 F400 Z-0.100
G01F400X77.595 Y60.279
X76.420 Y60.281
X76.548 Y60.374
X76.807 Y60.661
X76.867 Y60.766
G0 Z3.000
G0  X82.726 Y60.759
G0  Z3.000
G01 F400 Z0
G01 F400 Z-0.100
G01F400X83.767 Y60.235
X83.873 Y60.053
X84.036 Y59.872
X83.843 Y60.011
X82.726 Y60.759
G0 Z3.000
M05
(  )
T609 M06
( Drilling )
M04 S10000
G00 X103.256 Y45.969
G0  Z3.000
G01 F360.0 Z-1.780
G00 Z3.000
G00 X100.716 Y68.826
G0  Z3.000
G01 F360.0 Z-1.780
G00 Z3.000
G00 X100.716 Y61.206
G0  Z3.000
G01 F360.0 Z-1.780
G00 Z3.000
G00 X103.256 Y66.286
G0  Z3.000
G01 F360.0 Z-1.780
G00 Z3.000
G00 X103.256 Y78.986
G0  Z3.000
G01 F360.0 Z-1.780
G00 Z3.000
G00 X100.716 Y76.446
G0  Z3.000
G01 F360.0 Z-1.780
G00 Z3.000
G00 X103.256 Y38.346
G0  Z3.000
G01 F360.0 Z-1.780
G00 Z3.000
G00 X100.716 Y66.286
G0  Z3.000
G01 F360.0 Z-1.780
G00 Z3.000
G00 X103.256 Y35.806
G0  Z3.000
G01 F360.0 Z-1.780
G00 Z3.000
G00 X103.256 Y40.886
G0  Z3.000
G01 F360.0 Z-1.780
G00 Z3.000
G00 X100.716 Y58.669
G0  Z3.000
G01 F360.0 Z-1.780
G00 Z3.000
G00 X103.256 Y30.726
G0  Z3.000
G01 F360.0 Z-1.780
G00 Z3.000
G00 X103.256 Y68.826
G0  Z3.000
G01 F360.0 Z-1.780
G00 Z3.000
G00 X100.716 Y38.346
G0  Z3.000
G01 F360.0 Z-1.780
G00 Z3.000
G00 X100.716 Y33.269
G0  Z3.000
G01 F360.0 Z-1.780
G00 Z3.000
G00 X100.716 Y35.806
G0  Z3.000
G01 F360.0 Z-1.780
G00 Z3.000
G00 X100.716 Y40.886
G0  Z3.000
G01 F360.0 Z-1.780
G00 Z3.000
G00 X103.256 Y73.906
G0  Z3.000
G01 F360.0 Z-1.780
G00 Z3.000
G00 X103.256 Y51.046
G0  Z3.000
G01 F360.0 Z-1.780
G00 Z3.000
G00 X103.256 Y61.206
G0  Z3.000
G01 F360.0 Z-1.780
G00 Z3.000
G00 X100.716 Y48.506
G0  Z3.000
G01 F360.0 Z-1.780
G00 Z3.000
G00 X103.256 Y56.126
G0  Z3.000
G01 F360.0 Z-1.780
G00 Z3.000
G00 X100.716 Y73.906
G0  Z3.000
G01 F360.0 Z-1.780
G00 Z3.000
G00 X103.256 Y58.669
G0  Z3.000
G01 F360.0 Z-1.780
G00 Z3.000
G00 X103.256 Y43.426
G0  Z3.000
G01 F360.0 Z-1.780
G00 Z3.000
G00 X103.256 Y71.369
G0  Z3.000
G01 F360.0 Z-1.780
G00 Z3.000
G00 X100.716 Y53.586
G0  Z3.000
G01 F360.0 Z-1.780
G00 Z3.000
G00 X100.716 Y56.126
G0  Z3.000
G01 F360.0 Z-1.780
G00 Z3.000
G00 X100.716 Y30.726
G0  Z3.000
G01 F360.0 Z-1.780
G00 Z3.000
G00 X100.716 Y71.369
G0  Z3.000
G01 F360.0 Z-1.780
G00 Z3.000
G00 X100.716 Y45.969
G0  Z3.000
G01 F360.0 Z-1.780
G00 Z3.000
G00 X103.256 Y76.446
G0  Z3.000
G01 F360.0 Z-1.780
G00 Z3.000
G00 X100.716 Y43.426
G0  Z3.000
G01 F360.0 Z-1.780
G00 Z3.000
G00 X100.716 Y51.046
G0  Z3.000
G01 F360.0 Z-1.780
G00 Z3.000
G00 X103.256 Y63.749
G0  Z3.000
G01 F360.0 Z-1.780
G00 Z3.000
G00 X103.256 Y48.506
G0  Z3.000
G01 F360.0 Z-1.780
G00 Z3.000
G00 X100.716 Y63.749
G0  Z3.000
G01 F360.0 Z-1.780
G00 Z3.000
G00 X103.256 Y53.586
G0  Z3.000
G01 F360.0 Z-1.780
G00 Z3.000
G00 X103.256 Y33.269
G0  Z3.000
G01 F360.0 Z-1.780
G00 Z3.000
G00 X100.716 Y78.986
G0  Z3.000
G01 F360.0 Z-1.780
G00 Z3.000
G00 X75.316 Y63.746
G0  Z3.000
G01 F360.0 Z-1.780
G00 Z3.000
G00 X75.316 Y61.745
G0  Z3.000
G01 F360.0 Z-1.780
G00 Z3.000
G00 X75.316 Y65.743
G0  Z3.000
G01 F360.0 Z-1.780
G00 Z3.000
G00 X75.316 Y67.744
G0  Z3.000
G01 F360.0 Z-1.780
G00 Z3.000
G00 X95.636 Y61.206
G0  Z3.000
G01 F360.0 Z-1.780
G00 Z3.000
G00 X85.476 Y68.826
G0  Z3.000
G01 F360.0 Z-1.780
G00 Z3.000
G00 X85.476 Y63.746
G0  Z3.000
G01 F360.0 Z-1.780
G00 Z3.000
G00 X95.636 Y63.746
G0  Z3.000
G01 F360.0 Z-1.780
G00 Z3.000
G00 X85.476 Y61.206
G0  Z3.000
G01 F360.0 Z-1.780
G00 Z3.000
G00 X95.636 Y68.826
G0  Z3.000
G01 F360.0 Z-1.780
G00 Z3.000
M05
(  )
T112 M06
( Rubout )
M04 S10000
G0  X60.794 Y82.197
G0  Z3.000
G01 F400 Z0
G01 F400 Z-0.100
G01F400X60.794 Y81.355
X106.207 Y81.355
X106.207 Y82.197
X60.794 Y82.197
G0 Z3.000
G0  X60.794 Y80.164
G0  Z3.000
G01 F400 Z0
G01 F400 Z-0.100
G01F400X60.794 Y78.974
X98.769 Y78.974
X98.809 Y79.398
X98.935 Y79.785
X99.138 Y80.137
X99.163 Y80.164
X60.794 Y80.164
G0 Z3.000
G0  X104.799 Y80.164
G0  Z3.000
G01 F400 Z0
G01 F400 Z-0.100
G01F400X104.824 Y80.137
X105.027 Y79.785
X105.153 Y79.398
X105.195 Y78.994
X106.207 Y78.974
X106.207 Y80.164
X104.799 Y80.164
G0 Z3.000
G0  X60.794 Y77.784
G0  Z3.000
G01 F400 Z0
G01 F400 Z-0.100
G01F400X60.794 Y76.594
X61.218 Y76.594
X61.234 Y76.747
X61.325 Y77.026
X61.472 Y77.281
X61.669 Y77.500
X61.907 Y77.673
X62.157 Y77.784
X60.794 Y77.784
G0 Z3.000
G0  X88.440 Y77.784
G0  Z3.000
G01 F400 Z0
G01 F400 Z-0.100
G01F400X88.657 Y77.687
X90.484 Y76.594
X98.781 Y76.594
X98.809 Y76.858
X98.935 Y77.245
X99.138 Y77.597
X99.252 Y77.724
X99.198 Y77.784
X88.440 Y77.784
G0 Z3.000
G0  X104.764 Y77.784
G0  Z3.000
G01 F400 Z0
G01 F400 Z-0.100
G01F400X104.710 Y77.724
X104.824 Y77.597
X105.027 Y77.245
X105.153 Y76.858
X105.181 Y76.594
X106.207 Y76.594
X106.207 Y77.784
X104.764 Y77.784
G0 Z3.000
G0  X60.794 Y75.403
G0  Z3.000
G01 F400 Z0
G01 F400 Z-0.100
G01F400X60.794 Y74.213
X61.208 Y74.213
X61.208 Y75.403
X60.794 Y75.403
G0 Z3.000
G0  X92.472 Y75.403
G0  Z3.000
G01 F400 Z0
G01 F400 Z-0.100
G01F400X94.460 Y74.213
X98.798 Y74.213
X98.809 Y74.318
X98.935 Y74.705
X99.138 Y75.057
X99.252 Y75.184
X99.138 Y75.311
X99.085 Y75.403
X92.472 Y75.403
G0 Z3.000
G0  X104.877 Y75.403
G0  Z3.000
G01 F400 Z0
G01 F400 Z-0.100
G01F400X104.824 Y75.311
X104.710 Y75.184
X104.824 Y75.057
X105.027 Y74.705
X105.153 Y74.318
X105.164 Y74.213
X106.207 Y74.213
X106.207 Y75.403
X104.877 Y75.403
G0 Z3.000
G0  X64.014 Y75.054
G0  Z3.000
G01 F400 Z0
G01 F400 Z-0.100
G01F400X64.014 Y74.751
X64.038 Y74.792
X64.235 Y75.011
X64.294 Y75.054
X64.014 Y75.054
G0 Z3.000
G0  X86.378 Y75.054
G0  Z3.000
G01 F400 Z0
G01 F400 Z-0.100
G01F400X86.438 Y75.011
X86.635 Y74.792
X86.782 Y74.537
X86.873 Y74.257
X86.878 Y74.213
X88.997 Y74.213
X87.592 Y75.054
X86.378 Y75.054
G0 Z3.000
G0  X60.794 Y73.023
G0  Z3.000
G01 F400 Z0
G01 F400 Z-0.100
G01F400X60.794 Y71.833
X61.208 Y71.833
X61.208 Y73.023
X60.794 Y73.023
G0 Z3.000
G0  X86.894 Y73.023
G0  Z3.000
G01 F400 Z0
G01 F400 Z-0.100
G01F400X86.886 Y71.833
X92.973 Y71.833
X90.985 Y73.023
X86.894 Y73.023
G0 Z3.000
G0  X96.448 Y73.023
G0  Z3.000
G01 F400 Z0
G01 F400 Z-0.100
G01F400X98.436 Y71.833
X98.827 Y71.833
X98.935 Y72.165
X99.138 Y72.517
X99.252 Y72.644
X99.138 Y72.771
X98.993 Y73.023
X96.448 Y73.023
G0 Z3.000
G0  X104.970 Y73.023
G0  Z3.000
G01 F400 Z0
G01 F400 Z-0.100
G01F400X104.824 Y72.771
X104.710 Y72.644
X104.824 Y72.517
X105.027 Y72.165
X105.135 Y71.833
X106.207 Y71.833
X106.207 Y73.023
X104.970 Y73.023
G0 Z3.000
G0  X66.580 Y72.565
G0  Z3.000
G01 F400 Z0
G01 F400 Z-0.100
G01F400X66.580 Y71.833
X68.993 Y71.833
X69.021 Y71.921
X69.169 Y72.176
X69.365 Y72.395
X69.600 Y72.565
X66.580 Y72.565
G0 Z3.000
G0  X81.098 Y72.565
G0  Z3.000
G01 F400 Z0
G01 F400 Z-0.100
G01F400X81.333 Y72.395
X81.530 Y72.176
X81.677 Y71.921
X81.706 Y71.833
X84.080 Y71.833
X84.085 Y72.565
X81.098 Y72.565
G0 Z3.000
G0  X60.794 Y70.642
G0  Z3.000
G01 F400 Z0
G01 F400 Z-0.100
G01F400X60.794 Y69.452
X61.208 Y69.452
X61.208 Y70.642
X60.794 Y70.642
G0 Z3.000
G0  X66.580 Y70.642
G0  Z3.000
G01 F400 Z0
G01 F400 Z-0.100
G01F400X66.580 Y69.452
X68.904 Y69.452
X68.904 Y70.642
X66.580 Y70.642
G0 Z3.000
G0  X81.794 Y70.642
G0  Z3.000
G01 F400 Z0
G01 F400 Z-0.100
G01F400X81.794 Y69.452
X83.842 Y69.452
X83.872 Y69.546
X84.055 Y69.863
X84.073 Y70.642
X81.794 Y70.642
G0 Z3.000
G0  X86.879 Y70.642
G0  Z3.000
G01 F400 Z0
G01 F400 Z-0.100
G01F400X86.874 Y69.877
X87.070 Y69.546
X87.100 Y69.452
X94.002 Y69.452
X94.032 Y69.546
X94.215 Y69.863
X94.460 Y70.135
X94.756 Y70.350
X95.090 Y70.499
X95.172 Y70.516
X94.961 Y70.642
X86.879 Y70.642
G0 Z3.000
G0  X105.047 Y70.642
G0  Z3.000
G01 F400 Z0
G01 F400 Z-0.100
G01F400X105.027 Y70.583
X104.824 Y70.231
X104.710 Y70.104
X104.824 Y69.977
X105.027 Y69.625
X105.083 Y69.452
X106.207 Y69.452
X106.207 Y70.642
X105.047 Y70.642
G0 Z3.000
G0  X71.710 Y69.949
G0  Z3.000
G01 F400 Z0
G01 F400 Z-0.100
G01F400X71.710 Y69.452
X78.988 Y69.452
X78.988 Y69.949
X71.710 Y69.949
G0 Z3.000
G0  X60.794 Y68.262
G0  Z3.000
G01 F400 Z0
G01 F400 Z-0.100
G01F400X60.794 Y67.072
X61.208 Y67.072
X61.208 Y68.262
X60.794 Y68.262
G0 Z3.000
G0  X66.580 Y68.262
G0  Z3.000
G01 F400 Z0
G01 F400 Z-0.100
G01F400X66.580 Y67.072
X68.904 Y67.072
X68.904 Y68.262
X66.580 Y68.262
G0 Z3.000
G0  X71.710 Y68.262
G0  Z3.000
G01 F400 Z0
G01 F400 Z-0.100
G01F400X71.710 Y67.515
X73.752 Y67.315
X73.723 Y67.404
X73.688 Y67.742
X73.723 Y68.079
X73.782 Y68.262
X71.710 Y68.262
G0 Z3.000
G0  X77.226 Y68.262
G0  Z3.000
G01 F400 Z0
G01 F400 Z-0.100
G01F400X78.641 Y67.437
X78.827 Y67.301
X79.056 Y67.072
X80.191 Y67.072
X79.407 Y67.861
X79.252 Y68.032
X79.120 Y68.262
X77.226 Y68.262
G0 Z3.000
G0  X82.962 Y68.262
G0  Z3.000
G01 F400 Z0
G01 F400 Z-0.100
G01F400X84.146 Y67.072
X96.022 Y67.072
X95.929 Y67.118
X95.814 Y67.093
X95.448 Y67.093
X95.090 Y67.169
X94.756 Y67.318
X94.460 Y67.533
X94.215 Y67.805
X94.032 Y68.122
X93.987 Y68.262
X87.116 Y68.262
X87.070 Y68.122
X86.887 Y67.805
X86.642 Y67.533
X86.346 Y67.318
X86.012 Y67.169
X85.654 Y67.093
X85.288 Y67.093
X84.930 Y67.169
X84.596 Y67.318
X84.300 Y67.533
X84.055 Y67.805
X83.872 Y68.122
X83.827 Y68.262
X82.962 Y68.262
G0 Z3.000
G0  X105.098 Y68.262
G0  Z3.000
G01 F400 Z0
G01 F400 Z-0.100
G01F400X105.027 Y68.043
X104.824 Y67.691
X104.710 Y67.564
X104.824 Y67.437
X105.027 Y67.085
X106.207 Y67.072
X106.207 Y68.262
X105.098 Y68.262
G0 Z3.000
G0  X60.794 Y65.881
G0  Z3.000
G01 F400 Z0
G01 F400 Z-0.100
G01F400X60.794 Y64.691
X61.208 Y64.691
X61.208 Y65.881
X60.794 Y65.881
G0 Z3.000
G0  X66.580 Y65.881
G0  Z3.000
G01 F400 Z0
G01 F400 Z-0.100
G01F400X66.580 Y64.905
X67.663 Y64.691
X71.755 Y64.691
X70.122 Y64.852
X69.872 Y64.905
X69.603 Y65.024
X69.365 Y65.197
X69.169 Y65.416
X69.021 Y65.671
X68.953 Y65.881
X66.580 Y65.881
G0 Z3.000
G0  X80.247 Y65.881
G0  Z3.000
G01 F400 Z0
G01 F400 Z-0.100
G01F400X81.223 Y64.905
X81.648 Y64.691
X82.558 Y64.691
X81.374 Y65.881
X80.247 Y65.881
G0 Z3.000
G0  X85.329 Y65.881
G0  Z3.000
G01 F400 Z0
G01 F400 Z-0.100
G01F400X85.729 Y65.479
X86.012 Y65.419
X86.346 Y65.270
X86.642 Y65.055
X86.887 Y64.783
X86.940 Y64.691
X94.162 Y64.691
X94.215 Y64.783
X94.460 Y65.055
X94.756 Y65.270
X95.090 Y65.419
X95.448 Y65.495
X95.814 Y65.495
X96.172 Y65.419
X96.506 Y65.270
X96.666 Y65.154
X99.136 Y65.154
X98.935 Y65.503
X98.887 Y65.651
X98.422 Y65.881
X85.329 Y65.881
G0 Z3.000
G0  X105.150 Y65.881
G0  Z3.000
G01 F400 Z0
G01 F400 Z-0.100
G01F400X105.027 Y65.503
X104.824 Y65.151
X104.710 Y65.024
X104.824 Y64.897
X104.943 Y64.691
X106.207 Y64.691
X106.207 Y65.881
X105.150 Y65.881
G0 Z3.000
G0  X76.846 Y65.235
G0  Z3.000
G01 F400 Z0
G01 F400 Z-0.100
G01F400X76.794 Y65.075
X76.624 Y64.781
X76.592 Y64.745
X76.624 Y64.708
X77.471 Y64.691
X77.041 Y65.121
X76.846 Y65.235
G0 Z3.000
G0  X60.794 Y63.501
G0  Z3.000
G01 F400 Z0
G01 F400 Z-0.100
G01F400X60.794 Y62.311
X61.208 Y62.311
X61.208 Y63.501
X60.794 Y63.501
G0 Z3.000
G0  X78.224 Y63.501
G0  Z3.000
G01 F400 Z0
G01 F400 Z-0.100
G01F400X80.004 Y62.311
X80.140 Y62.311
X79.672 Y62.546
X79.466 Y62.696
X78.661 Y63.501
X78.224 Y63.501
G0 Z3.000
G0  X87.195 Y63.501
G0  Z3.000
G01 F400 Z0
G01 F400 Z-0.100
G01F400X87.183 Y63.390
X87.070 Y63.042
X86.887 Y62.725
X86.670 Y62.484
X86.826 Y62.311
X94.276 Y62.311
X94.432 Y62.484
X94.215 Y62.725
X94.032 Y63.042
X93.919 Y63.390
X93.907 Y63.501
X87.195 Y63.501
G0 Z3.000
G0  X105.169 Y63.501
G0  Z3.000
G01 F400 Z0
G01 F400 Z-0.100
G01F400X105.153 Y63.350
X105.027 Y62.963
X104.824 Y62.611
X104.710 Y62.484
X104.824 Y62.357
X104.851 Y62.311
X106.207 Y62.311
X106.207 Y63.501
X105.169 Y63.501
G0 Z3.000
G0  X64.014 Y62.968
G0  Z3.000
G01 F400 Z0
G01 F400 Z-0.100
G01F400X64.014 Y62.311
X65.256 Y62.311
X64.953 Y62.370
X64.742 Y62.415
X64.473 Y62.535
X64.235 Y62.708
X64.038 Y62.927
X64.014 Y62.968
G0 Z3.000
G0  X60.794 Y61.120
G0  Z3.000
G01 F400 Z0
G01 F400 Z-0.100
G01F400X60.794 Y59.930
X61.208 Y59.930
X61.208 Y61.120
X60.794 Y61.120
G0 Z3.000
G0  X64.014 Y61.120
G0  Z3.000
G01 F400 Z0
G01 F400 Z-0.100
G01F400X64.014 Y60.072
X78.335 Y60.054
X76.793 Y61.086
X76.624 Y60.793
X76.397 Y60.541
X76.123 Y60.342
X75.813 Y60.204
X75.481 Y60.133
X75.141 Y60.133
X74.809 Y60.204
X74.499 Y60.342
X74.225 Y60.541
X71.290 Y61.120
X64.014 Y61.120
G0 Z3.000
G0  X81.783 Y61.120
G0  Z3.000
G01 F400 Z0
G01 F400 Z-0.100
G01F400X83.562 Y59.930
X84.284 Y59.930
X84.055 Y60.185
X83.928 Y60.405
X82.506 Y61.120
X81.783 Y61.120
G0 Z3.000
G0  X87.212 Y61.120
G0  Z3.000
G01 F400 Z0
G01 F400 Z-0.100
G01F400X87.183 Y60.850
X87.070 Y60.502
X86.887 Y60.185
X86.658 Y59.930
X94.444 Y59.930
X94.215 Y60.185
X94.032 Y60.502
X93.919 Y60.850
X93.890 Y61.120
X87.212 Y61.120
G0 Z3.000
G0  X105.186 Y61.120
G0  Z3.000
G01 F400 Z0
G01 F400 Z-0.100
G01F400X105.153 Y60.810
X105.027 Y60.423
X104.824 Y60.071
X104.710 Y59.944
X106.207 Y59.930
X106.207 Y61.120
X105.186 Y61.120
G0 Z3.000
G0  X60.794 Y58.740
G0  Z3.000
G01 F400 Z0
G01 F400 Z-0.100
G01F400X60.794 Y57.550
X61.777 Y57.550
X61.669 Y57.628
X61.472 Y57.847
X61.325 Y58.102
X61.234 Y58.381
X61.208 Y58.632
X61.208 Y58.740
X60.794 Y58.740
G0 Z3.000
G0  X84.354 Y58.740
G0  Z3.000
G01 F400 Z0
G01 F400 Z-0.100
G01F400X84.364 Y58.649
X84.333 Y58.356
X84.242 Y58.076
X84.095 Y57.821
X83.898 Y57.603
X83.825 Y57.550
X99.127 Y57.550
X98.935 Y57.883
X98.809 Y58.270
X98.767 Y58.674
X98.773 Y58.740
X84.354 Y58.740
G0 Z3.000
G0  X105.189 Y58.740
G0  Z3.000
G01 F400 Z0
G01 F400 Z-0.100
G01F400X105.195 Y58.674
X105.153 Y58.270
X105.027 Y57.883
X104.835 Y57.550
X106.207 Y57.550
X106.207 Y58.740
X105.189 Y58.740
G0 Z3.000
G0  X60.794 Y56.359
G0  Z3.000
G01 F400 Z0
G01 F400 Z-0.100
G01F400X60.794 Y55.169
X99.035 Y55.169
X98.935 Y55.343
X98.809 Y55.730
X98.767 Y56.134
X98.790 Y56.359
X60.794 Y56.359
G0 Z3.000
G0  X105.172 Y56.359
G0  Z3.000
G01 F400 Z0
G01 F400 Z-0.100
G01F400X105.195 Y56.134
X105.153 Y55.730
X105.027 Y55.343
X104.927 Y55.169
X106.207 Y55.169
X106.207 Y56.359
X105.172 Y56.359
G0 Z3.000
G0  X60.794 Y53.979
G0  Z3.000
G01 F400 Z0
G01 F400 Z-0.100
G01F400X60.794 Y52.789
X98.943 Y52.789
X98.809 Y53.190
X98.767 Y53.594
X98.807 Y53.979
X60.794 Y53.979
G0 Z3.000
G0  X105.155 Y53.979
G0  Z3.000
G01 F400 Z0
G01 F400 Z-0.100
G01F400X105.195 Y53.594
X105.153 Y53.190
X105.027 Y52.803
X106.207 Y52.789
X106.207 Y53.979
X105.155 Y53.979
G0 Z3.000
G0  X60.794 Y51.598
G0  Z3.000
G01 F400 Z0
G01 F400 Z-0.100
G01F400X60.794 Y50.408
X98.888 Y50.408
X98.809 Y50.650
X98.767 Y51.054
X98.809 Y51.458
X98.855 Y51.598
X60.794 Y51.598
G0 Z3.000
G0  X105.107 Y51.598
G0  Z3.000
G01 F400 Z0
G01 F400 Z-0.100
G01F400X105.153 Y51.458
X105.195 Y51.054
X105.153 Y50.650
X105.075 Y50.408
X106.207 Y50.408
X106.207 Y51.598
X105.107 Y51.598
G0 Z3.000
G0  X60.794 Y49.218
G0  Z3.000
G01 F400 Z0
G01 F400 Z-0.100
G01F400X60.794 Y48.028
X98.836 Y48.028
X98.809 Y48.110
X98.767 Y48.514
X98.809 Y48.918
X98.907 Y49.218
X60.794 Y49.218
G0 Z3.000
G0  X105.056 Y49.218
G0  Z3.000
G01 F400 Z0
G01 F400 Z-0.100
G01F400X105.153 Y48.918
X105.195 Y48.514
X105.153 Y48.110
X105.126 Y48.028
X106.207 Y48.028
X106.207 Y49.218
X105.056 Y49.218
G0 Z3.000
G0  X60.794 Y46.838
G0  Z3.000
G01 F400 Z0
G01 F400 Z-0.100
G01F400X60.794 Y45.647
X98.801 Y45.647
X98.767 Y45.974
X98.809 Y46.378
X98.935 Y46.765
X98.977 Y46.838
X60.794 Y46.838
G0 Z3.000
G0  X104.985 Y46.838
G0  Z3.000
G01 F400 Z0
G01 F400 Z-0.100
G01F400X105.027 Y46.765
X105.153 Y46.378
X105.195 Y45.974
X105.161 Y45.647
X106.207 Y45.647
X106.207 Y46.838
X104.985 Y46.838
G0 Z3.000
G0  X60.794 Y44.457
G0  Z3.000
G01 F400 Z0
G01 F400 Z-0.100
G01F400X60.794 Y43.267
X98.784 Y43.267
X98.767 Y43.434
X98.809 Y43.838
X98.935 Y44.225
X99.069 Y44.457
X60.794 Y44.457
G0 Z3.000
G0  X104.893 Y44.457
G0  Z3.000
G01 F400 Z0
G01 F400 Z-0.100
G01F400X105.027 Y44.225
X105.153 Y43.838
X105.195 Y43.434
X105.178 Y43.267
X106.207 Y43.267
X106.207 Y44.457
X104.893 Y44.457
G0 Z3.000
G0  X60.794 Y42.076
G0  Z3.000
G01 F400 Z0
G01 F400 Z-0.100
G01F400X60.794 Y40.886
X98.767 Y40.886
X98.809 Y41.298
X98.935 Y41.685
X99.138 Y42.037
X99.174 Y42.076
X60.794 Y42.076
G0 Z3.000
G0  X104.788 Y42.076
G0  Z3.000
G01 F400 Z0
G01 F400 Z-0.100
G01F400X104.824 Y42.037
X105.027 Y41.685
X105.153 Y41.298
X105.195 Y40.894
X106.207 Y40.886
X106.207 Y42.076
X104.788 Y42.076
G0 Z3.000
G0  X60.794 Y39.696
G0  Z3.000
G01 F400 Z0
G01 F400 Z-0.100
G01F400X60.794 Y38.506
X98.783 Y38.506
X98.809 Y38.758
X98.935 Y39.145
X99.138 Y39.497
X99.252 Y39.624
X99.188 Y39.696
X60.794 Y39.696
G0 Z3.000
G0  X104.775 Y39.696
G0  Z3.000
G01 F400 Z0
G01 F400 Z-0.100
G01F400X104.710 Y39.624
X104.824 Y39.497
X105.027 Y39.145
X105.153 Y38.758
X105.179 Y38.506
X106.207 Y38.506
X106.207 Y39.696
X104.775 Y39.696
G0 Z3.000
G0  X60.794 Y37.316
G0  Z3.000
G01 F400 Z0
G01 F400 Z-0.100
G01F400X60.794 Y36.125
X98.799 Y36.125
X98.809 Y36.218
X98.935 Y36.605
X99.138 Y36.957
X99.252 Y37.084
X99.138 Y37.211
X99.078 Y37.316
X60.794 Y37.316
G0 Z3.000
G0  X104.884 Y37.316
G0  Z3.000
G01 F400 Z0
G01 F400 Z-0.100
G01F400X104.824 Y37.211
X104.710 Y37.084
X104.824 Y36.957
X105.027 Y36.605
X105.153 Y36.218
X105.163 Y36.125
X106.207 Y36.125
X106.207 Y37.316
X104.884 Y37.316
G0 Z3.000
G0  X60.794 Y34.935
G0  Z3.000
G01 F400 Z0
G01 F400 Z-0.100
G01F400X60.794 Y33.745
X98.831 Y33.745
X98.935 Y34.065
X99.138 Y34.417
X99.252 Y34.544
X99.138 Y34.671
X98.986 Y34.935
X60.794 Y34.935
G0 Z3.000
G0  X104.976 Y34.935
G0  Z3.000
G01 F400 Z0
G01 F400 Z-0.100
G01F400X104.824 Y34.671
X104.710 Y34.544
X104.824 Y34.417
X105.027 Y34.065
X105.131 Y33.745
X106.207 Y33.745
X106.207 Y34.935
X104.976 Y34.935
G0 Z3.000
G0  X60.794 Y32.555
G0  Z3.000
G01 F400 Z0
G01 F400 Z-0.100
G01F400X60.794 Y31.364
X98.883 Y31.364
X98.935 Y31.525
X99.138 Y31.877
X99.252 Y32.004
X99.138 Y32.131
X98.935 Y32.483
X98.912 Y32.555
X60.794 Y32.555
G0 Z3.000
G0  X105.050 Y32.555
G0  Z3.000
G01 F400 Z0
G01 F400 Z-0.100
G01F400X105.027 Y32.483
X104.824 Y32.131
X104.710 Y32.004
X104.824 Y31.877
X105.027 Y31.525
X105.080 Y31.364
X106.207 Y31.364
X106.207 Y32.555
X105.050 Y32.555
G0 Z3.000
G0  X60.794 Y30.174
G0  Z3.000
G01 F400 Z0
G01 F400 Z-0.100
G01F400X60.794 Y28.984
X99.888 Y28.984
X99.739 Y29.050
X99.410 Y29.289
X99.138 Y29.591
X98.935 Y29.943
X98.860 Y30.174
X60.794 Y30.174
G0 Z3.000
G0  X105.102 Y30.174
G0  Z3.000
G01 F400 Z0
G01 F400 Z-0.100
G01F400X105.027 Y29.943
X104.824 Y29.591
X104.552 Y29.289
X104.223 Y29.050
X104.074 Y28.984
X106.207 Y28.984
X106.207 Y30.174
X105.102 Y30.174
G0 Z3.000
G0  X101.981 Y29.266
G0  Z3.000
G01 F400 Z0
G01 F400 Z-0.100
G01F400X101.683 Y29.050
X101.534 Y28.984
X102.428 Y28.984
X102.279 Y29.050
X101.981 Y29.266
G0 Z3.000
G0  X60.794 Y82.207
G0  Z3.000
G01 F400 Z0
G01 F400 Z-0.100
G01F400X60.794 Y27.794
X106.207 Y27.794
X106.207 Y82.207
X60.794 Y82.207
G0 Z3.000
G0  X100.508 Y80.928
G0  Z3.000
G01 F400 Z0
G01 F400 Z-0.100
G01F400X100.914 Y80.928
X101.312 Y80.843
X101.683 Y80.678
X101.981 Y80.462
X102.279 Y80.678
X102.650 Y80.843
X103.048 Y80.928
X103.454 Y80.928
X103.852 Y80.843
X104.223 Y80.678
X104.552 Y80.439
X104.824 Y80.137
X105.027 Y79.785
X105.153 Y79.398
X105.195 Y78.994
X105.153 Y78.590
X105.027 Y78.203
X104.824 Y77.851
X104.710 Y77.724
X104.824 Y77.597
X105.027 Y77.245
X105.153 Y76.858
X105.195 Y76.454
X105.153 Y76.050
X105.027 Y75.663
X104.824 Y75.311
X104.710 Y75.184
X104.824 Y75.057
X105.027 Y74.705
X105.153 Y74.318
X105.195 Y73.914
X105.153 Y73.510
X105.027 Y73.123
X104.824 Y72.771
X104.710 Y72.644
X104.824 Y72.517
X105.027 Y72.165
X105.153 Y71.778
X105.195 Y71.374
X105.153 Y70.970
X105.027 Y70.583
X104.824 Y70.231
X104.710 Y70.104
X104.824 Y69.977
X105.027 Y69.625
X105.153 Y69.238
X105.195 Y68.834
X105.153 Y68.430
X105.027 Y68.043
X104.824 Y67.691
X104.710 Y67.564
X104.824 Y67.437
X105.027 Y67.085
X105.153 Y66.698
X105.195 Y66.294
X105.153 Y65.890
X105.027 Y65.503
X104.824 Y65.151
X104.710 Y65.024
X104.824 Y64.897
X105.027 Y64.545
X105.153 Y64.158
X105.195 Y63.754
X105.153 Y63.350
X105.027 Y62.963
X104.824 Y62.611
X104.710 Y62.484
X104.824 Y62.357
X105.027 Y62.005
X105.153 Y61.618
X105.195 Y61.214
X105.153 Y60.810
X105.027 Y60.423
X104.824 Y60.071
X104.710 Y59.944
X104.824 Y59.817
X105.027 Y59.465
X105.153 Y59.078
X105.195 Y58.674
X105.153 Y58.270
X105.027 Y57.883
X104.824 Y57.531
X104.710 Y57.404
X104.824 Y57.277
X105.027 Y56.925
X105.153 Y56.538
X105.195 Y56.134
X105.153 Y55.730
X105.027 Y55.343
X104.824 Y54.991
X104.710 Y54.864
X104.824 Y54.737
X105.027 Y54.385
X105.153 Y53.998
X105.195 Y53.594
X105.153 Y53.190
X105.027 Y52.803
X104.824 Y52.451
X104.710 Y52.324
X104.824 Y52.197
X105.027 Y51.845
X105.153 Y51.458
X105.195 Y51.054
X105.153 Y50.650
X105.027 Y50.263
X104.824 Y49.911
X104.710 Y49.784
X104.824 Y49.657
X105.027 Y49.305
X105.153 Y48.918
X105.195 Y48.514
X105.153 Y48.110
X105.027 Y47.723
X104.824 Y47.371
X104.710 Y47.244
X104.824 Y47.117
X105.027 Y46.765
X105.153 Y46.378
X105.195 Y45.974
X105.153 Y45.570
X105.027 Y45.183
X104.824 Y44.831
X104.710 Y44.704
X104.824 Y44.577
X105.027 Y44.225
X105.153 Y43.838
X105.195 Y43.434
X105.153 Y43.030
X105.027 Y42.643
X104.824 Y42.291
X104.710 Y42.164
X104.824 Y42.037
X105.027 Y41.685
X105.153 Y41.298
X105.195 Y40.894
X105.153 Y40.490
X105.027 Y40.103
X104.824 Y39.751
X104.710 Y39.624
X104.824 Y39.497
X105.027 Y39.145
X105.153 Y38.758
X105.195 Y38.354
X105.153 Y37.950
X105.027 Y37.563
X104.824 Y37.211
X104.710 Y37.084
X104.824 Y36.957
X105.027 Y36.605
X105.153 Y36.218
X105.195 Y35.814
X105.153 Y35.410
X105.027 Y35.023
X104.824 Y34.671
X104.710 Y34.544
X104.824 Y34.417
X105.027 Y34.065
X105.153 Y33.678
X105.195 Y33.274
X105.153 Y32.870
X105.027 Y32.483
X104.824 Y32.131
X104.710 Y32.004
X104.824 Y31.877
X105.027 Y31.525
X105.153 Y31.138
X105.195 Y30.734
X105.153 Y30.330
X105.027 Y29.943
X104.824 Y29.591
X104.552 Y29.289
X104.223 Y29.050
X103.852 Y28.885
X103.454 Y28.800
X103.048 Y28.800
X102.650 Y28.885
X102.279 Y29.050
X101.981 Y29.266
X101.683 Y29.050
X101.312 Y28.885
X100.914 Y28.800
X100.508 Y28.800
X100.110 Y28.885
X99.739 Y29.050
X99.410 Y29.289
X99.138 Y29.591
X98.935 Y29.943
X98.809 Y30.330
X98.767 Y30.734
X98.809 Y31.138
X98.935 Y31.525
X99.138 Y31.877
X99.252 Y32.004
X99.138 Y32.131
X98.935 Y32.483
X98.809 Y32.870
X98.767 Y33.274
X98.809 Y33.678
X98.935 Y34.065
X99.138 Y34.417
X99.252 Y34.544
X99.138 Y34.671
X98.935 Y35.023
X98.809 Y35.410
X98.767 Y35.814
X98.809 Y36.218
X98.935 Y36.605
X99.138 Y36.957
X99.252 Y37.084
X99.138 Y37.211
X98.935 Y37.563
X98.809 Y37.950
X98.767 Y38.354
X98.809 Y38.758
X98.935 Y39.145
X99.138 Y39.497
X99.252 Y39.624
X99.138 Y39.751
X98.935 Y40.103
X98.809 Y40.490
X98.767 Y40.894
X98.809 Y41.298
X98.935 Y41.685
X99.138 Y42.037
X99.252 Y42.164
X99.138 Y42.291
X98.935 Y42.643
X98.809 Y43.030
X98.767 Y43.434
X98.809 Y43.838
X98.935 Y44.225
X99.138 Y44.577
X99.252 Y44.704
X99.138 Y44.831
X98.935 Y45.183
X98.809 Y45.570
X98.767 Y45.974
X98.809 Y46.378
X98.935 Y46.765
X99.138 Y47.117
X99.252 Y47.244
X99.138 Y47.371
X98.935 Y47.723
X98.809 Y48.110
X98.767 Y48.514
X98.809 Y48.918
X98.935 Y49.305
X99.138 Y49.657
X99.252 Y49.784
X99.138 Y49.911
X98.935 Y50.263
X98.809 Y50.650
X98.767 Y51.054
X98.809 Y51.458
X98.935 Y51.845
X99.138 Y52.197
X99.252 Y52.324
X99.138 Y52.451
X98.935 Y52.803
X98.809 Y53.190
X98.767 Y53.594
X98.809 Y53.998
X98.935 Y54.385
X99.138 Y54.737
X99.252 Y54.864
X99.138 Y54.991
X98.935 Y55.343
X98.809 Y55.730
X98.767 Y56.134
X98.809 Y56.538
X98.935 Y56.925
X99.138 Y57.277
X99.252 Y57.404
X99.138 Y57.531
X98.935 Y57.883
X98.809 Y58.270
X98.767 Y58.674
X98.809 Y59.078
X98.935 Y59.465
X99.136 Y59.814
X96.666 Y59.814
X96.506 Y59.698
X96.172 Y59.549
X95.814 Y59.473
X95.448 Y59.473
X95.090 Y59.549
X94.756 Y59.698
X94.460 Y59.913
X94.215 Y60.185
X94.032 Y60.502
X93.919 Y60.850
X93.881 Y61.214
X93.919 Y61.578
X94.032 Y61.926
X94.215 Y62.243
X94.432 Y62.484
X94.215 Y62.725
X94.032 Y63.042
X93.919 Y63.390
X93.881 Y63.754
X93.919 Y64.118
X94.032 Y64.466
X94.215 Y64.783
X94.460 Y65.055
X94.756 Y65.270
X95.090 Y65.419
X95.448 Y65.495
X95.814 Y65.495
X96.172 Y65.419
X96.506 Y65.270
X96.666 Y65.154
X99.136 Y65.154
X98.935 Y65.503
X98.887 Y65.651
X95.929 Y67.118
X95.814 Y67.093
X95.448 Y67.093
X95.090 Y67.169
X94.756 Y67.318
X94.460 Y67.533
X94.215 Y67.805
X94.032 Y68.122
X93.919 Y68.470
X93.881 Y68.834
X93.919 Y69.198
X94.032 Y69.546
X94.215 Y69.863
X94.460 Y70.135
X94.756 Y70.350
X95.090 Y70.499
X95.172 Y70.516
X87.592 Y75.054
X86.378 Y75.054
X86.438 Y75.011
X86.635 Y74.792
X86.782 Y74.537
X86.873 Y74.257
X86.900 Y74.004
X86.874 Y69.877
X87.070 Y69.546
X87.183 Y69.198
X87.221 Y68.834
X87.183 Y68.470
X87.070 Y68.122
X86.887 Y67.805
X86.642 Y67.533
X86.346 Y67.318
X86.012 Y67.169
X85.654 Y67.093
X85.288 Y67.093
X84.930 Y67.169
X84.596 Y67.318
X84.300 Y67.533
X84.055 Y67.805
X83.872 Y68.122
X83.759 Y68.470
X83.721 Y68.834
X83.759 Y69.198
