( Generated by Carbide Copper )
( Material Size )
( X= 152.400, Y= 101.600, Z= 1.580 )
()
G17
G21
G54
G90
M05

(  )
T609 M06
( Drilling )
M04 S10000
G00 X103.256 Y45.969
G0  Z3.000
G01 F360.0 Z-1.780
G00 Z3.000
G00 X100.716 Y68.826
G0  Z3.000
G01 F360.0 Z-1.780
G00 Z3.000
G00 X100.716 Y61.206
G0  Z3.000
G01 F360.0 Z-1.780
G00 Z3.000
G00 X103.256 Y66.286
G0  Z3.000
G01 F360.0 Z-1.780
G00 Z3.000
G00 X103.256 Y78.986
G0  Z3.000
G01 F360.0 Z-1.780
G00 Z3.000
G00 X100.716 Y76.446
G0  Z3.000
G01 F360.0 Z-1.780
G00 Z3.000
G00 X103.256 Y38.346
G0  Z3.000
G01 F360.0 Z-1.780
G00 Z3.000
G00 X100.716 Y66.286
G0  Z3.000
G01 F360.0 Z-1.780
G00 Z3.000
G00 X103.256 Y35.806
G0  Z3.000
G01 F360.0 Z-1.780
G00 Z3.000
G00 X103.256 Y40.886
G0  Z3.000
G01 F360.0 Z-1.780
G00 Z3.000
G00 X100.716 Y58.669
G0  Z3.000
G01 F360.0 Z-1.780
G00 Z3.000
G00 X103.256 Y30.726
G0  Z3.000
G01 F360.0 Z-1.780
G00 Z3.000
G00 X103.256 Y68.826
G0  Z3.000
G01 F360.0 Z-1.780
G00 Z3.000
G00 X100.716 Y38.346
G0  Z3.000
G01 F360.0 Z-1.780
G00 Z3.000
G00 X100.716 Y33.269
G0  Z3.000
G01 F360.0 Z-1.780
G00 Z3.000
G00 X100.716 Y35.806
G0  Z3.000
G01 F360.0 Z-1.780
G00 Z3.000
G00 X100.716 Y40.886
G0  Z3.000
G01 F360.0 Z-1.780
G00 Z3.000
G00 X103.256 Y73.906
G0  Z3.000
G01 F360.0 Z-1.780
G00 Z3.000
G00 X103.256 Y51.046
G0  Z3.000
G01 F360.0 Z-1.780
G00 Z3.000
G00 X103.256 Y61.206
G0  Z3.000
G01 F360.0 Z-1.780
G00 Z3.000
G00 X100.716 Y48.506
G0  Z3.000
G01 F360.0 Z-1.780
G00 Z3.000
G00 X103.256 Y56.126
G0  Z3.000
G01 F360.0 Z-1.780
G00 Z3.000
G00 X100.716 Y73.906
G0  Z3.000
G01 F360.0 Z-1.780
G00 Z3.000
G00 X103.256 Y58.669
G0  Z3.000
G01 F360.0 Z-1.780
G00 Z3.000
G00 X103.256 Y43.426
G0  Z3.000
G01 F360.0 Z-1.780
G00 Z3.000
G00 X103.256 Y71.369
G0  Z3.000
G01 F360.0 Z-1.780
G00 Z3.000
G00 X100.716 Y53.586
G0  Z3.000
G01 F360.0 Z-1.780
G00 Z3.000
G00 X100.716 Y56.126
G0  Z3.000
G01 F360.0 Z-1.780
G00 Z3.000
G00 X100.716 Y30.726
G0  Z3.000
G01 F360.0 Z-1.780
G00 Z3.000
G00 X100.716 Y71.369
G0  Z3.000
G01 F360.0 Z-1.780
G00 Z3.000
G00 X100.716 Y45.969
G0  Z3.000
G01 F360.0 Z-1.780
G00 Z3.000
G00 X103.256 Y76.446
G0  Z3.000
G01 F360.0 Z-1.780
G00 Z3.000
G00 X100.716 Y43.426
G0  Z3.000
G01 F360.0 Z-1.780
G00 Z3.000
G00 X100.716 Y51.046
G0  Z3.000
G01 F360.0 Z-1.780
G00 Z3.000
G00 X103.256 Y63.749
G0  Z3.000
G01 F360.0 Z-1.780
G00 Z3.000
G00 X103.256 Y48.506
G0  Z3.000
G01 F360.0 Z-1.780
G00 Z3.000
G00 X100.716 Y63.749
G0  Z3.000
G01 F360.0 Z-1.780
G00 Z3.000
G00 X103.256 Y53.586
G0  Z3.000
G01 F360.0 Z-1.780
G00 Z3.000
G00 X103.256 Y33.269
G0  Z3.000
G01 F360.0 Z-1.780
G00 Z3.000
G00 X100.716 Y78.986
G0  Z3.000
G01 F360.0 Z-1.780
G00 Z3.000
G00 X75.316 Y63.746
G0  Z3.000
G01 F360.0 Z-1.780
G00 Z3.000
G00 X75.316 Y61.745
G0  Z3.000
G01 F360.0 Z-1.780
G00 Z3.000
G00 X75.316 Y65.743
G0  Z3.000
G01 F360.0 Z-1.780
G00 Z3.000
G00 X75.316 Y67.744
G0  Z3.000
G01 F360.0 Z-1.780
G00 Z3.000
G00 X95.636 Y61.206
G0  Z3.000
G01 F360.0 Z-1.780
G00 Z3.000
G00 X85.476 Y68.826
G0  Z3.000
G01 F360.0 Z-1.780
G00 Z3.000
G00 X85.476 Y63.746
G0  Z3.000
G01 F360.0 Z-1.780
G00 Z3.000
G00 X95.636 Y63.746
G0  Z3.000
G01 F360.0 Z-1.780
G00 Z3.000
G00 X85.476 Y61.206
G0  Z3.000
G01 F360.0 Z-1.780
G00 Z3.000
G00 X95.636 Y68.826
G0  Z3.000
G01 F360.0 Z-1.780
G00 Z3.000
M05

M30
%