( Generated by Carbide Copper )
( Material Size )
( X= 152.400, Y= 101.600, Z= 1.580 )
()
G17
G21
G54
G90
M05

(  )
T112 M06
( Rubout )
M04 S10000
G0  X60.794 Y82.197
G0  Z3.000
G01 F400 Z0
G01 F400 Z-0.100
G01F400X60.794 Y81.355
X106.207 Y81.355
X106.207 Y82.197
X60.794 Y82.197
G0 Z3.000
G0  X60.794 Y80.164
G0  Z3.000
G01 F400 Z0
G01 F400 Z-0.100
G01F400X60.794 Y78.974
X98.769 Y78.974
X98.809 Y79.398
X98.935 Y79.785
X99.138 Y80.137
X99.163 Y80.164
X60.794 Y80.164
G0 Z3.000
G0  X104.799 Y80.164
G0  Z3.000
G01 F400 Z0
G01 F400 Z-0.100
G01F400X104.824 Y80.137
X105.027 Y79.785
X105.153 Y79.398
X105.195 Y78.994
X106.207 Y78.974
X106.207 Y80.164
X104.799 Y80.164
G0 Z3.000
G0  X60.794 Y77.784
G0  Z3.000
G01 F400 Z0
G01 F400 Z-0.100
G01F400X60.794 Y76.594
X61.218 Y76.594
X61.234 Y76.747
X61.325 Y77.026
X61.472 Y77.281
X61.669 Y77.500
X61.907 Y77.673
X62.157 Y77.784
X60.794 Y77.784
G0 Z3.000
G0  X88.440 Y77.784
G0  Z3.000
G01 F400 Z0
G01 F400 Z-0.100
G01F400X88.657 Y77.687
X90.484 Y76.594
X98.781 Y76.594
X98.809 Y76.858
X98.935 Y77.245
X99.138 Y77.597
X99.252 Y77.724
X99.198 Y77.784
X88.440 Y77.784
G0 Z3.000
G0  X104.764 Y77.784
G0  Z3.000
G01 F400 Z0
G01 F400 Z-0.100
G01F400X104.710 Y77.724
X104.824 Y77.597
X105.027 Y77.245
X105.153 Y76.858
X105.181 Y76.594
X106.207 Y76.594
X106.207 Y77.784
X104.764 Y77.784
G0 Z3.000
G0  X60.794 Y75.403
G0  Z3.000
G01 F400 Z0
G01 F400 Z-0.100
G01F400X60.794 Y74.213
X61.208 Y74.213
X61.208 Y75.403
X60.794 Y75.403
G0 Z3.000
G0  X92.472 Y75.403
G0  Z3.000
G01 F400 Z0
G01 F400 Z-0.100
G01F400X94.460 Y74.213
X98.798 Y74.213
X98.809 Y74.318
X98.935 Y74.705
X99.138 Y75.057
X99.252 Y75.184
X99.138 Y75.311
X99.085 Y75.403
X92.472 Y75.403
G0 Z3.000
G0  X104.877 Y75.403
G0  Z3.000
G01 F400 Z0
G01 F400 Z-0.100
G01F400X104.824 Y75.311
X104.710 Y75.184
X104.824 Y75.057
X105.027 Y74.705
X105.153 Y74.318
X105.164 Y74.213
X106.207 Y74.213
X106.207 Y75.403
X104.877 Y75.403
G0 Z3.000
G0  X64.014 Y75.054
G0  Z3.000
G01 F400 Z0
G01 F400 Z-0.100
G01F400X64.014 Y74.751
X64.038 Y74.792
X64.235 Y75.011
X64.294 Y75.054
X64.014 Y75.054
G0 Z3.000
G0  X86.378 Y75.054
G0  Z3.000
G01 F400 Z0
G01 F400 Z-0.100
G01F400X86.438 Y75.011
X86.635 Y74.792
X86.782 Y74.537
X86.873 Y74.257
X86.878 Y74.213
X88.997 Y74.213
X87.592 Y75.054
X86.378 Y75.054
G0 Z3.000
G0  X60.794 Y73.023
G0  Z3.000
G01 F400 Z0
G01 F400 Z-0.100
G01F400X60.794 Y71.833
X61.208 Y71.833
X61.208 Y73.023
X60.794 Y73.023
G0 Z3.000
G0  X86.894 Y73.023
G0  Z3.000
G01 F400 Z0
G01 F400 Z-0.100
G01F400X86.886 Y71.833
X92.973 Y71.833
X90.985 Y73.023
X86.894 Y73.023
G0 Z3.000
G0  X96.448 Y73.023
G0  Z3.000
G01 F400 Z0
G01 F400 Z-0.100
G01F400X98.436 Y71.833
X98.827 Y71.833
X98.935 Y72.165
X99.138 Y72.517
X99.252 Y72.644
X99.138 Y72.771
X98.993 Y73.023
X96.448 Y73.023
G0 Z3.000
G0  X104.970 Y73.023
G0  Z3.000
G01 F400 Z0
G01 F400 Z-0.100
G01F400X104.824 Y72.771
X104.710 Y72.644
X104.824 Y72.517
X105.027 Y72.165
X105.135 Y71.833
X106.207 Y71.833
X106.207 Y73.023
X104.970 Y73.023
G0 Z3.000
G0  X66.580 Y72.565
G0  Z3.000
G01 F400 Z0
G01 F400 Z-0.100
G01F400X66.580 Y71.833
X68.993 Y71.833
X69.021 Y71.921
X69.169 Y72.176
X69.365 Y72.395
X69.600 Y72.565
X66.580 Y72.565
G0 Z3.000
G0  X81.098 Y72.565
G0  Z3.000
G01 F400 Z0
G01 F400 Z-0.100
G01F400X81.333 Y72.395
X81.530 Y72.176
X81.677 Y71.921
X81.706 Y71.833
X84.080 Y71.833
X84.085 Y72.565
X81.098 Y72.565
G0 Z3.000
G0  X60.794 Y70.642
G0  Z3.000
G01 F400 Z0
G01 F400 Z-0.100
G01F400X60.794 Y69.452
X61.208 Y69.452
X61.208 Y70.642
X60.794 Y70.642
G0 Z3.000
G0  X66.580 Y70.642
G0  Z3.000
G01 F400 Z0
G01 F400 Z-0.100
G01F400X66.580 Y69.452
X68.904 Y69.452
X68.904 Y70.642
X66.580 Y70.642
G0 Z3.000
G0  X81.794 Y70.642
G0  Z3.000
G01 F400 Z0
G01 F400 Z-0.100
G01F400X81.794 Y69.452
X83.842 Y69.452
X83.872 Y69.546
X84.055 Y69.863
X84.073 Y70.642
X81.794 Y70.642
G0 Z3.000
G0  X86.879 Y70.642
G0  Z3.000
G01 F400 Z0
G01 F400 Z-0.100
G01F400X86.874 Y69.877
X87.070 Y69.546
X87.100 Y69.452
X94.002 Y69.452
X94.032 Y69.546
X94.215 Y69.863
X94.460 Y70.135
X94.756 Y70.350
X95.090 Y70.499
X95.172 Y70.516
X94.961 Y70.642
X86.879 Y70.642
G0 Z3.000
G0  X105.047 Y70.642
G0  Z3.000
G01 F400 Z0
G01 F400 Z-0.100
G01F400X105.027 Y70.583
X104.824 Y70.231
X104.710 Y70.104
X104.824 Y69.977
X105.027 Y69.625
X105.083 Y69.452
X106.207 Y69.452
X106.207 Y70.642
X105.047 Y70.642
G0 Z3.000
G0  X71.710 Y69.949
G0  Z3.000
G01 F400 Z0
G01 F400 Z-0.100
G01F400X71.710 Y69.452
X78.988 Y69.452
X78.988 Y69.949
X71.710 Y69.949
G0 Z3.000
G0  X60.794 Y68.262
G0  Z3.000
G01 F400 Z0
G01 F400 Z-0.100
G01F400X60.794 Y67.072
X61.208 Y67.072
X61.208 Y68.262
X60.794 Y68.262
G0 Z3.000
G0  X66.580 Y68.262
G0  Z3.000
G01 F400 Z0
G01 F400 Z-0.100
G01F400X66.580 Y67.072
X68.904 Y67.072
X68.904 Y68.262
X66.580 Y68.262
G0 Z3.000
G0  X71.710 Y68.262
G0  Z3.000
G01 F400 Z0
G01 F400 Z-0.100
G01F400X71.710 Y67.515
X73.752 Y67.315
X73.723 Y67.404
X73.688 Y67.742
X73.723 Y68.079
X73.782 Y68.262
X71.710 Y68.262
G0 Z3.000
G0  X77.226 Y68.262
G0  Z3.000
G01 F400 Z0
G01 F400 Z-0.100
G01F400X78.641 Y67.437
X78.827 Y67.301
X79.056 Y67.072
X80.191 Y67.072
X79.407 Y67.861
X79.252 Y68.032
X79.120 Y68.262
X77.226 Y68.262
G0 Z3.000
G0  X82.962 Y68.262
G0  Z3.000
G01 F400 Z0
G01 F400 Z-0.100
G01F400X84.146 Y67.072
X96.022 Y67.072
X95.929 Y67.118
X95.814 Y67.093
X95.448 Y67.093
X95.090 Y67.169
X94.756 Y67.318
X94.460 Y67.533
X94.215 Y67.805
X94.032 Y68.122
X93.987 Y68.262
X87.116 Y68.262
X87.070 Y68.122
X86.887 Y67.805
X86.642 Y67.533
X86.346 Y67.318
X86.012 Y67.169
X85.654 Y67.093
X85.288 Y67.093
X84.930 Y67.169
X84.596 Y67.318
X84.300 Y67.533
X84.055 Y67.805
X83.872 Y68.122
X83.827 Y68.262
X82.962 Y68.262
G0 Z3.000
G0  X105.098 Y68.262
G0  Z3.000
G01 F400 Z0
G01 F400 Z-0.100
G01F400X105.027 Y68.043
X104.824 Y67.691
X104.710 Y67.564
X104.824 Y67.437
X105.027 Y67.085
X106.207 Y67.072
X106.207 Y68.262
X105.098 Y68.262
G0 Z3.000
G0  X60.794 Y65.881
G0  Z3.000
G01 F400 Z0
G01 F400 Z-0.100
G01F400X60.794 Y64.691
X61.208 Y64.691
X61.208 Y65.881
X60.794 Y65.881
G0 Z3.000
G0  X66.580 Y65.881
G0  Z3.000
G01 F400 Z0
G01 F400 Z-0.100
G01F400X66.580 Y64.905
X67.663 Y64.691
X71.755 Y64.691
X70.122 Y64.852
X69.872 Y64.905
X69.603 Y65.024
X69.365 Y65.197
X69.169 Y65.416
X69.021 Y65.671
X68.953 Y65.881
X66.580 Y65.881
G0 Z3.000
G0  X80.247 Y65.881
G0  Z3.000
G01 F400 Z0
G01 F400 Z-0.100
G01F400X81.223 Y64.905
X81.648 Y64.691
X82.558 Y64.691
X81.374 Y65.881
X80.247 Y65.881
G0 Z3.000
G0  X85.329 Y65.881
G0  Z3.000
G01 F400 Z0
G01 F400 Z-0.100
G01F400X85.729 Y65.479
X86.012 Y65.419
X86.346 Y65.270
X86.642 Y65.055
X86.887 Y64.783
X86.940 Y64.691
X94.162 Y64.691
X94.215 Y64.783
X94.460 Y65.055
X94.756 Y65.270
X95.090 Y65.419
X95.448 Y65.495
X95.814 Y65.495
X96.172 Y65.419
X96.506 Y65.270
X96.666 Y65.154
X99.136 Y65.154
X98.935 Y65.503
X98.887 Y65.651
X98.422 Y65.881
X85.329 Y65.881
G0 Z3.000
G0  X105.150 Y65.881
G0  Z3.000
G01 F400 Z0
G01 F400 Z-0.100
G01F400X105.027 Y65.503
X104.824 Y65.151
X104.710 Y65.024
X104.824 Y64.897
X104.943 Y64.691
X106.207 Y64.691
X106.207 Y65.881
X105.150 Y65.881
G0 Z3.000
G0  X76.846 Y65.235
G0  Z3.000
G01 F400 Z0
G01 F400 Z-0.100
G01F400X76.794 Y65.075
X76.624 Y64.781
X76.592 Y64.745
X76.624 Y64.708
X77.471 Y64.691
X77.041 Y65.121
X76.846 Y65.235
G0 Z3.000
G0  X60.794 Y63.501
G0  Z3.000
G01 F400 Z0
G01 F400 Z-0.100
G01F400X60.794 Y62.311
X61.208 Y62.311
X61.208 Y63.501
X60.794 Y63.501
G0 Z3.000
G0  X78.224 Y63.501
G0  Z3.000
G01 F400 Z0
G01 F400 Z-0.100
G01F400X80.004 Y62.311
X80.140 Y62.311
X79.672 Y62.546
X79.466 Y62.696
X78.661 Y63.501
X78.224 Y63.501
G0 Z3.000
G0  X87.195 Y63.501
G0  Z3.000
G01 F400 Z0
G01 F400 Z-0.100
G01F400X87.183 Y63.390
X87.070 Y63.042
X86.887 Y62.725
X86.670 Y62.484
X86.826 Y62.311
X94.276 Y62.311
X94.432 Y62.484
X94.215 Y62.725
X94.032 Y63.042
X93.919 Y63.390
X93.907 Y63.501
X87.195 Y63.501
G0 Z3.000
G0  X105.169 Y63.501
G0  Z3.000
G01 F400 Z0
G01 F400 Z-0.100
G01F400X105.153 Y63.350
X105.027 Y62.963
X104.824 Y62.611
X104.710 Y62.484
X104.824 Y62.357
X104.851 Y62.311
X106.207 Y62.311
X106.207 Y63.501
X105.169 Y63.501
G0 Z3.000
G0  X64.014 Y62.968
G0  Z3.000
G01 F400 Z0
G01 F400 Z-0.100
G01F400X64.014 Y62.311
X65.256 Y62.311
X64.953 Y62.370
X64.742 Y62.415
X64.473 Y62.535
X64.235 Y62.708
X64.038 Y62.927
X64.014 Y62.968
G0 Z3.000
G0  X60.794 Y61.120
G0  Z3.000
G01 F400 Z0
G01 F400 Z-0.100
G01F400X60.794 Y59.930
X61.208 Y59.930
X61.208 Y61.120
X60.794 Y61.120
G0 Z3.000
G0  X64.014 Y61.120
G0  Z3.000
G01 F400 Z0
G01 F400 Z-0.100
G01F400X64.014 Y60.072
X78.335 Y60.054
X76.793 Y61.086
X76.624 Y60.793
X76.397 Y60.541
X76.123 Y60.342
X75.813 Y60.204
X75.481 Y60.133
X75.141 Y60.133
X74.809 Y60.204
X74.499 Y60.342
X74.225 Y60.541
X71.290 Y61.120
X64.014 Y61.120
G0 Z3.000
G0  X81.783 Y61.120
G0  Z3.000
G01 F400 Z0
G01 F400 Z-0.100
G01F400X83.562 Y59.930
X84.284 Y59.930
X84.055 Y60.185
X83.928 Y60.405
X82.506 Y61.120
X81.783 Y61.120
G0 Z3.000
G0  X87.212 Y61.120
G0  Z3.000
G01 F400 Z0
G01 F400 Z-0.100
G01F400X87.183 Y60.850
X87.070 Y60.502
X86.887 Y60.185
X86.658 Y59.930
X94.444 Y59.930
X94.215 Y60.185
X94.032 Y60.502
X93.919 Y60.850
X93.890 Y61.120
X87.212 Y61.120
G0 Z3.000
G0  X105.186 Y61.120
G0  Z3.000
G01 F400 Z0
G01 F400 Z-0.100
G01F400X105.153 Y60.810
X105.027 Y60.423
X104.824 Y60.071
X104.710 Y59.944
X106.207 Y59.930
X106.207 Y61.120
X105.186 Y61.120
G0 Z3.000
G0  X60.794 Y58.740
G0  Z3.000
G01 F400 Z0
G01 F400 Z-0.100
G01F400X60.794 Y57.550
X61.777 Y57.550
X61.669 Y57.628
X61.472 Y57.847
X61.325 Y58.102
X61.234 Y58.381
X61.208 Y58.632
X61.208 Y58.740
X60.794 Y58.740
G0 Z3.000
G0  X84.354 Y58.740
G0  Z3.000
G01 F400 Z0
G01 F400 Z-0.100
G01F400X84.364 Y58.649
X84.333 Y58.356
X84.242 Y58.076
X84.095 Y57.821
X83.898 Y57.603
X83.825 Y57.550
X99.127 Y57.550
X98.935 Y57.883
X98.809 Y58.270
X98.767 Y58.674
X98.773 Y58.740
X84.354 Y58.740
G0 Z3.000
G0  X105.189 Y58.740
G0  Z3.000
G01 F400 Z0
G01 F400 Z-0.100
G01F400X105.195 Y58.674
X105.153 Y58.270
X105.027 Y57.883
X104.835 Y57.550
X106.207 Y57.550
X106.207 Y58.740
X105.189 Y58.740
G0 Z3.000
G0  X60.794 Y56.359
G0  Z3.000
G01 F400 Z0
G01 F400 Z-0.100
G01F400X60.794 Y55.169
X99.035 Y55.169
X98.935 Y55.343
X98.809 Y55.730
X98.767 Y56.134
X98.790 Y56.359
X60.794 Y56.359
G0 Z3.000
G0  X105.172 Y56.359
G0  Z3.000
G01 F400 Z0
G01 F400 Z-0.100
G01F400X105.195 Y56.134
X105.153 Y55.730
X105.027 Y55.343
X104.927 Y55.169
X106.207 Y55.169
X106.207 Y56.359
X105.172 Y56.359
G0 Z3.000
G0  X60.794 Y53.979
G0  Z3.000
G01 F400 Z0
G01 F400 Z-0.100
G01F400X60.794 Y52.789
X98.943 Y52.789
X98.809 Y53.190
X98.767 Y53.594
X98.807 Y53.979
X60.794 Y53.979
G0 Z3.000
G0  X105.155 Y53.979
G0  Z3.000
G01 F400 Z0
G01 F400 Z-0.100
G01F400X105.195 Y53.594
X105.153 Y53.190
X105.027 Y52.803
X106.207 Y52.789
X106.207 Y53.979
X105.155 Y53.979
G0 Z3.000
G0  X60.794 Y51.598
G0  Z3.000
G01 F400 Z0
G01 F400 Z-0.100
G01F400X60.794 Y50.408
X98.888 Y50.408
X98.809 Y50.650
X98.767 Y51.054
X98.809 Y51.458
X98.855 Y51.598
X60.794 Y51.598
G0 Z3.000
G0  X105.107 Y51.598
G0  Z3.000
G01 F400 Z0
G01 F400 Z-0.100
G01F400X105.153 Y51.458
X105.195 Y51.054
X105.153 Y50.650
X105.075 Y50.408
X106.207 Y50.408
X106.207 Y51.598
X105.107 Y51.598
G0 Z3.000
G0  X60.794 Y49.218
G0  Z3.000
G01 F400 Z0
G01 F400 Z-0.100
G01F400X60.794 Y48.028
X98.836 Y48.028
X98.809 Y48.110
X98.767 Y48.514
X98.809 Y48.918
X98.907 Y49.218
X60.794 Y49.218
G0 Z3.000
G0  X105.056 Y49.218
G0  Z3.000
G01 F400 Z0
G01 F400 Z-0.100
G01F400X105.153 Y48.918
X105.195 Y48.514
X105.153 Y48.110
X105.126 Y48.028
X106.207 Y48.028
X106.207 Y49.218
X105.056 Y49.218
G0 Z3.000
G0  X60.794 Y46.838
G0  Z3.000
G01 F400 Z0
G01 F400 Z-0.100
G01F400X60.794 Y45.647
X98.801 Y45.647
X98.767 Y45.974
X98.809 Y46.378
X98.935 Y46.765
X98.977 Y46.838
X60.794 Y46.838
G0 Z3.000
G0  X104.985 Y46.838
G0  Z3.000
G01 F400 Z0
G01 F400 Z-0.100
G01F400X105.027 Y46.765
X105.153 Y46.378
X105.195 Y45.974
X105.161 Y45.647
X106.207 Y45.647
X106.207 Y46.838
X104.985 Y46.838
G0 Z3.000
G0  X60.794 Y44.457
G0  Z3.000
G01 F400 Z0
G01 F400 Z-0.100
G01F400X60.794 Y43.267
X98.784 Y43.267
X98.767 Y43.434
X98.809 Y43.838
X98.935 Y44.225
X99.069 Y44.457
X60.794 Y44.457
G0 Z3.000
G0  X104.893 Y44.457
G0  Z3.000
G01 F400 Z0
G01 F400 Z-0.100
G01F400X105.027 Y44.225
X105.153 Y43.838
X105.195 Y43.434
X105.178 Y43.267
X106.207 Y43.267
X106.207 Y44.457
X104.893 Y44.457
G0 Z3.000
G0  X60.794 Y42.076
G0  Z3.000
G01 F400 Z0
G01 F400 Z-0.100
G01F400X60.794 Y40.886
X98.767 Y40.886
X98.809 Y41.298
X98.935 Y41.685
X99.138 Y42.037
X99.174 Y42.076
X60.794 Y42.076
G0 Z3.000
G0  X104.788 Y42.076
G0  Z3.000
G01 F400 Z0
G01 F400 Z-0.100
G01F400X104.824 Y42.037
X105.027 Y41.685
X105.153 Y41.298
X105.195 Y40.894
X106.207 Y40.886
X106.207 Y42.076
X104.788 Y42.076
G0 Z3.000
G0  X60.794 Y39.696
G0  Z3.000
G01 F400 Z0
G01 F400 Z-0.100
G01F400X60.794 Y38.506
X98.783 Y38.506
X98.809 Y38.758
X98.935 Y39.145
X99.138 Y39.497
X99.252 Y39.624
X99.188 Y39.696
X60.794 Y39.696
G0 Z3.000
G0  X104.775 Y39.696
G0  Z3.000
G01 F400 Z0
G01 F400 Z-0.100
G01F400X104.710 Y39.624
X104.824 Y39.497
X105.027 Y39.145
X105.153 Y38.758
X105.179 Y38.506
X106.207 Y38.506
X106.207 Y39.696
X104.775 Y39.696
G0 Z3.000
G0  X60.794 Y37.316
G0  Z3.000
G01 F400 Z0
G01 F400 Z-0.100
G01F400X60.794 Y36.125
X98.799 Y36.125
X98.809 Y36.218
X98.935 Y36.605
X99.138 Y36.957
X99.252 Y37.084
X99.138 Y37.211
X99.078 Y37.316
X60.794 Y37.316
G0 Z3.000
G0  X104.884 Y37.316
G0  Z3.000
G01 F400 Z0
G01 F400 Z-0.100
G01F400X104.824 Y37.211
X104.710 Y37.084
X104.824 Y36.957
X105.027 Y36.605
X105.153 Y36.218
X105.163 Y36.125
X106.207 Y36.125
X106.207 Y37.316
X104.884 Y37.316
G0 Z3.000
G0  X60.794 Y34.935
G0  Z3.000
G01 F400 Z0
G01 F400 Z-0.100
G01F400X60.794 Y33.745
X98.831 Y33.745
X98.935 Y34.065
X99.138 Y34.417
X99.252 Y34.544
X99.138 Y34.671
X98.986 Y34.935
X60.794 Y34.935
G0 Z3.000
G0  X104.976 Y34.935
G0  Z3.000
G01 F400 Z0
G01 F400 Z-0.100
G01F400X104.824 Y34.671
X104.710 Y34.544
X104.824 Y34.417
X105.027 Y34.065
X105.131 Y33.745
X106.207 Y33.745
X106.207 Y34.935
X104.976 Y34.935
G0 Z3.000
G0  X60.794 Y32.555
G0  Z3.000
G01 F400 Z0
G01 F400 Z-0.100
G01F400X60.794 Y31.364
X98.883 Y31.364
X98.935 Y31.525
X99.138 Y31.877
X99.252 Y32.004
X99.138 Y32.131
X98.935 Y32.483
X98.912 Y32.555
X60.794 Y32.555
G0 Z3.000
G0  X105.050 Y32.555
G0  Z3.000
G01 F400 Z0
G01 F400 Z-0.100
G01F400X105.027 Y32.483
X104.824 Y32.131
X104.710 Y32.004
X104.824 Y31.877
X105.027 Y31.525
X105.080 Y31.364
X106.207 Y31.364
X106.207 Y32.555
X105.050 Y32.555
G0 Z3.000
G0  X60.794 Y30.174
G0  Z3.000
G01 F400 Z0
G01 F400 Z-0.100
G01F400X60.794 Y28.984
X99.888 Y28.984
X99.739 Y29.050
X99.410 Y29.289
X99.138 Y29.591
X98.935 Y29.943
X98.860 Y30.174
X60.794 Y30.174
G0 Z3.000
G0  X105.102 Y30.174
G0  Z3.000
G01 F400 Z0
G01 F400 Z-0.100
G01F400X105.027 Y29.943
X104.824 Y29.591
X104.552 Y29.289
X104.223 Y29.050
X104.074 Y28.984
X106.207 Y28.984
X106.207 Y30.174
X105.102 Y30.174
G0 Z3.000
G0  X101.981 Y29.266
G0  Z3.000
G01 F400 Z0
G01 F400 Z-0.100
G01F400X101.683 Y29.050
X101.534 Y28.984
X102.428 Y28.984
X102.279 Y29.050
X101.981 Y29.266
G0 Z3.000
G0  X60.794 Y82.207
G0  Z3.000
G01 F400 Z0
G01 F400 Z-0.100
G01F400X60.794 Y27.794
X106.207 Y27.794
X106.207 Y82.207
X60.794 Y82.207
G0 Z3.000
G0  X100.508 Y80.928
G0  Z3.000
G01 F400 Z0
G01 F400 Z-0.100
G01F400X100.914 Y80.928
X101.312 Y80.843
X101.683 Y80.678
X101.981 Y80.462
X102.279 Y80.678
X102.650 Y80.843
X103.048 Y80.928
X103.454 Y80.928
X103.852 Y80.843
X104.223 Y80.678
X104.552 Y80.439
X104.824 Y80.137
X105.027 Y79.785
X105.153 Y79.398
X105.195 Y78.994
X105.153 Y78.590
X105.027 Y78.203
X104.824 Y77.851
X104.710 Y77.724
X104.824 Y77.597
X105.027 Y77.245
X105.153 Y76.858
X105.195 Y76.454
X105.153 Y76.050
X105.027 Y75.663
X104.824 Y75.311
X104.710 Y75.184
X104.824 Y75.057
X105.027 Y74.705
X105.153 Y74.318
X105.195 Y73.914
X105.153 Y73.510
X105.027 Y73.123
X104.824 Y72.771
X104.710 Y72.644
X104.824 Y72.517
X105.027 Y72.165
X105.153 Y71.778
X105.195 Y71.374
X105.153 Y70.970
X105.027 Y70.583
X104.824 Y70.231
X104.710 Y70.104
X104.824 Y69.977
X105.027 Y69.625
X105.153 Y69.238
X105.195 Y68.834
X105.153 Y68.430
X105.027 Y68.043
X104.824 Y67.691
X104.710 Y67.564
X104.824 Y67.437
X105.027 Y67.085
X105.153 Y66.698
X105.195 Y66.294
X105.153 Y65.890
X105.027 Y65.503
X104.824 Y65.151
X104.710 Y65.024
X104.824 Y64.897
X105.027 Y64.545
X105.153 Y64.158
X105.195 Y63.754
X105.153 Y63.350
X105.027 Y62.963
X104.824 Y62.611
X104.710 Y62.484
X104.824 Y62.357
X105.027 Y62.005
X105.153 Y61.618
X105.195 Y61.214
X105.153 Y60.810
X105.027 Y60.423
X104.824 Y60.071
X104.710 Y59.944
X104.824 Y59.817
X105.027 Y59.465
X105.153 Y59.078
X105.195 Y58.674
X105.153 Y58.270
X105.027 Y57.883
X104.824 Y57.531
X104.710 Y57.404
X104.824 Y57.277
X105.027 Y56.925
X105.153 Y56.538
X105.195 Y56.134
X105.153 Y55.730
X105.027 Y55.343
X104.824 Y54.991
X104.710 Y54.864
X104.824 Y54.737
X105.027 Y54.385
X105.153 Y53.998
X105.195 Y53.594
X105.153 Y53.190
X105.027 Y52.803
X104.824 Y52.451
X104.710 Y52.324
X104.824 Y52.197
X105.027 Y51.845
X105.153 Y51.458
X105.195 Y51.054
X105.153 Y50.650
X105.027 Y50.263
X104.824 Y49.911
X104.710 Y49.784
X104.824 Y49.657
X105.027 Y49.305
X105.153 Y48.918
X105.195 Y48.514
X105.153 Y48.110
X105.027 Y47.723
X104.824 Y47.371
X104.710 Y47.244
X104.824 Y47.117
X105.027 Y46.765
X105.153 Y46.378
X105.195 Y45.974
X105.153 Y45.570
X105.027 Y45.183
X104.824 Y44.831
X104.710 Y44.704
X104.824 Y44.577
X105.027 Y44.225
X105.153 Y43.838
X105.195 Y43.434
X105.153 Y43.030
X105.027 Y42.643
X104.824 Y42.291
X104.710 Y42.164
X104.824 Y42.037
X105.027 Y41.685
X105.153 Y41.298
X105.195 Y40.894
X105.153 Y40.490
X105.027 Y40.103
X104.824 Y39.751
X104.710 Y39.624
X104.824 Y39.497
X105.027 Y39.145
X105.153 Y38.758
X105.195 Y38.354
X105.153 Y37.950
X105.027 Y37.563
X104.824 Y37.211
X104.710 Y37.084
X104.824 Y36.957
X105.027 Y36.605
X105.153 Y36.218
X105.195 Y35.814
X105.153 Y35.410
X105.027 Y35.023
X104.824 Y34.671
X104.710 Y34.544
X104.824 Y34.417
X105.027 Y34.065
X105.153 Y33.678
X105.195 Y33.274
X105.153 Y32.870
X105.027 Y32.483
X104.824 Y32.131
X104.710 Y32.004
X104.824 Y31.877
X105.027 Y31.525
X105.153 Y31.138
X105.195 Y30.734
X105.153 Y30.330
X105.027 Y29.943
X104.824 Y29.591
X104.552 Y29.289
X104.223 Y29.050
X103.852 Y28.885
X103.454 Y28.800
X103.048 Y28.800
X102.650 Y28.885
X102.279 Y29.050
X101.981 Y29.266
X101.683 Y29.050
X101.312 Y28.885
X100.914 Y28.800
X100.508 Y28.800
X100.110 Y28.885
X99.739 Y29.050
X99.410 Y29.289
X99.138 Y29.591
X98.935 Y29.943
X98.809 Y30.330
X98.767 Y30.734
X98.809 Y31.138
X98.935 Y31.525
X99.138 Y31.877
X99.252 Y32.004
X99.138 Y32.131
X98.935 Y32.483
X98.809 Y32.870
X98.767 Y33.274
X98.809 Y33.678
X98.935 Y34.065
X99.138 Y34.417
X99.252 Y34.544
X99.138 Y34.671
X98.935 Y35.023
X98.809 Y35.410
X98.767 Y35.814
X98.809 Y36.218
X98.935 Y36.605
X99.138 Y36.957
X99.252 Y37.084
X99.138 Y37.211
X98.935 Y37.563
X98.809 Y37.950
X98.767 Y38.354
X98.809 Y38.758
X98.935 Y39.145
X99.138 Y39.497
X99.252 Y39.624
X99.138 Y39.751
X98.935 Y40.103
X98.809 Y40.490
X98.767 Y40.894
X98.809 Y41.298
X98.935 Y41.685
X99.138 Y42.037
X99.252 Y42.164
X99.138 Y42.291
X98.935 Y42.643
X98.809 Y43.030
X98.767 Y43.434
X98.809 Y43.838
X98.935 Y44.225
X99.138 Y44.577
X99.252 Y44.704
X99.138 Y44.831
X98.935 Y45.183
X98.809 Y45.570
X98.767 Y45.974
X98.809 Y46.378
X98.935 Y46.765
X99.138 Y47.117
X99.252 Y47.244
X99.138 Y47.371
X98.935 Y47.723
X98.809 Y48.110
X98.767 Y48.514
X98.809 Y48.918
X98.935 Y49.305
X99.138 Y49.657
X99.252 Y49.784
X99.138 Y49.911
X98.935 Y50.263
X98.809 Y50.650
X98.767 Y51.054
X98.809 Y51.458
X98.935 Y51.845
X99.138 Y52.197
X99.252 Y52.324
X99.138 Y52.451
X98.935 Y52.803
X98.809 Y53.190
X98.767 Y53.594
X98.809 Y53.998
X98.935 Y54.385
X99.138 Y54.737
X99.252 Y54.864
X99.138 Y54.991
X98.935 Y55.343
X98.809 Y55.730
X98.767 Y56.134
X98.809 Y56.538
X98.935 Y56.925
X99.138 Y57.277
X99.252 Y57.404
X99.138 Y57.531
X98.935 Y57.883
X98.809 Y58.270
X98.767 Y58.674
X98.809 Y59.078
X98.935 Y59.465
X99.136 Y59.814
X96.666 Y59.814
X96.506 Y59.698
X96.172 Y59.549
X95.814 Y59.473
X95.448 Y59.473
X95.090 Y59.549
X94.756 Y59.698
X94.460 Y59.913
X94.215 Y60.185
X94.032 Y60.502
X93.919 Y60.850
X93.881 Y61.214
X93.919 Y61.578
X94.032 Y61.926
X94.215 Y62.243
X94.432 Y62.484
X94.215 Y62.725
X94.032 Y63.042
X93.919 Y63.390
X93.881 Y63.754
X93.919 Y64.118
X94.032 Y64.466
X94.215 Y64.783
X94.460 Y65.055
X94.756 Y65.270
X95.090 Y65.419
X95.448 Y65.495
X95.814 Y65.495
X96.172 Y65.419
X96.506 Y65.270
X96.666 Y65.154
X99.136 Y65.154
X98.935 Y65.503
X98.887 Y65.651
X95.929 Y67.118
X95.814 Y67.093
X95.448 Y67.093
X95.090 Y67.169
X94.756 Y67.318
X94.460 Y67.533
X94.215 Y67.805
X94.032 Y68.122
X93.919 Y68.470
X93.881 Y68.834
X93.919 Y69.198
X94.032 Y69.546
X94.215 Y69.863
X94.460 Y70.135
X94.756 Y70.350
X95.090 Y70.499
X95.172 Y70.516
X87.592 Y75.054
X86.378 Y75.054
X86.438 Y75.011
X86.635 Y74.792
X86.782 Y74.537
X86.873 Y74.257
X86.900 Y74.004
X86.874 Y69.877
X87.070 Y69.546
X87.183 Y69.198
X87.221 Y68.834
X87.183 Y68.470
X87.070 Y68.122
X86.887 Y67.805
X86.642 Y67.533
X86.346 Y67.318
X86.012 Y67.169
X85.654 Y67.093
X85.288 Y67.093
X84.930 Y67.169
X84.596 Y67.318
X84.300 Y67.533
X84.055 Y67.805
X83.872 Y68.122
X83.759 Y68.470
X83.721 Y68.834
X83.759 Y69.198
X83.872 Y69.546
X84.055 Y69.863
X84.085 Y72.565
X81.098 Y72.565
X81.333 Y72.395
X81.530 Y72.176
X81.677 Y71.921
X81.768 Y71.641
X81.794 Y71.390
X81.794 Y69.437
X85.729 Y65.479
X86.012 Y65.419
X86.346 Y65.270
X86.642 Y65.055
X86.887 Y64.783
X87.070 Y64.466
X87.183 Y64.118
X87.221 Y63.754
X87.183 Y63.390
X87.070 Y63.042
X86.887 Y62.725
X86.670 Y62.484
X86.887 Y62.243
X87.070 Y61.926
X87.183 Y61.578
X87.221 Y61.214
X87.183 Y60.850
X87.070 Y60.502
X86.887 Y60.185
X86.642 Y59.913
X86.346 Y59.698
X86.012 Y59.549
X85.654 Y59.473
X85.288 Y59.473
X84.930 Y59.549
X84.596 Y59.698
X84.300 Y59.913
X84.055 Y60.185
X83.928 Y60.405
X79.672 Y62.546
X79.466 Y62.696
X77.041 Y65.121
X76.846 Y65.235
X76.794 Y65.075
X76.624 Y64.781
X76.592 Y64.745
X76.624 Y64.708
X76.753 Y64.486
X83.715 Y59.828
X83.898 Y59.695
X84.095 Y59.476
X84.242 Y59.221
X84.333 Y58.941
X84.364 Y58.649
X84.333 Y58.356
X84.242 Y58.076
X84.095 Y57.821
X83.898 Y57.603
X83.660 Y57.430
X83.391 Y57.310
X83.104 Y57.249
X82.892 Y57.249
X62.463 Y57.274
X62.176 Y57.335
X61.907 Y57.455
X61.669 Y57.628
X61.472 Y57.847
X61.325 Y58.102
X61.234 Y58.381
X61.208 Y58.632
X61.208 Y76.496
X61.234 Y76.747
X61.325 Y77.026
X61.472 Y77.281
X61.669 Y77.500
X61.907 Y77.673
X62.176 Y77.793
X62.464 Y77.854
X88.133 Y77.854
X88.421 Y77.793
X88.657 Y77.687
X98.792 Y71.619
X98.809 Y71.778
X98.935 Y72.165
X99.138 Y72.517
X99.252 Y72.644
X99.138 Y72.771
X98.935 Y73.123
X98.809 Y73.510
X98.767 Y73.914
X98.809 Y74.318
X98.935 Y74.705
X99.138 Y75.057
X99.252 Y75.184
X99.138 Y75.311
X98.935 Y75.663
X98.809 Y76.050
X98.767 Y76.454
X98.809 Y76.858
X98.935 Y77.245
X99.138 Y77.597
X99.252 Y77.724
X99.138 Y77.851
X98.935 Y78.203
X98.809 Y78.590
X98.767 Y78.994
X98.809 Y79.398
X98.935 Y79.785
X99.138 Y80.137
X99.410 Y80.439
X99.739 Y80.678
X100.110 Y80.843
X100.508 Y80.928
G0 Z3.000
G0  X64.014 Y75.054
G0  Z3.000
G01 F400 Z0
G01 F400 Z-0.100
G01F400X64.014 Y74.751
X64.038 Y74.792
X64.235 Y75.011
X64.294 Y75.054
X64.014 Y75.054
G0 Z3.000
G0  X66.580 Y72.565
G0  Z3.000
G01 F400 Z0
G01 F400 Z-0.100
G01F400X66.580 Y64.905
X73.715 Y63.497
X73.688 Y63.754
X73.723 Y64.091
X73.828 Y64.414
X73.868 Y64.484
X70.122 Y64.852
X69.872 Y64.905
X69.603 Y65.024
X69.365 Y65.197
X69.169 Y65.416
X69.021 Y65.671
X68.931 Y65.951
X68.904 Y66.202
X68.904 Y71.390
X68.931 Y71.641
X69.021 Y71.921
X69.169 Y72.176
X69.365 Y72.395
X69.600 Y72.565
X66.580 Y72.565
G0 Z3.000
G0  X71.710 Y69.949
G0  Z3.000
G01 F400 Z0
G01 F400 Z-0.100
G01F400X71.710 Y67.515
X73.752 Y67.315
X73.723 Y67.404
X73.688 Y67.742
X73.723 Y68.079
X73.828 Y68.402
X73.998 Y68.696
X74.225 Y68.948
X74.499 Y69.148
X74.809 Y69.286
X75.141 Y69.356
X75.481 Y69.356
X75.813 Y69.286
X76.123 Y69.148
X76.397 Y68.948
X76.624 Y68.696
X76.701 Y68.563
X76.740 Y68.545
X78.641 Y67.437
X78.827 Y67.301
X81.223 Y64.905
X83.468 Y63.776
X79.407 Y67.861
X79.252 Y68.032
X79.105 Y68.287
X79.014 Y68.567
X78.988 Y68.818
X78.988 Y69.949
X71.710 Y69.949
G0 Z3.000
G0  X64.014 Y62.968
G0  Z3.000
G01 F400 Z0
G01 F400 Z-0.100
G01F400X64.014 Y60.072
X78.335 Y60.054
X76.793 Y61.086
X76.624 Y60.793
X76.397 Y60.541
X76.123 Y60.342
X75.813 Y60.204
X75.481 Y60.133
X75.141 Y60.133
X74.809 Y60.204
X74.499 Y60.342
X74.225 Y60.541
X64.953 Y62.370
X64.742 Y62.415
X64.473 Y62.535
X64.235 Y62.708
X64.038 Y62.927
X64.014 Y62.968
G0 Z3.000
M05

M30
%