( Generated by Carbide Copper )
( Material Size )
( X= 76.200, Y= 50.800, Z= 1.560 )
()
G17
G21
G54
G90
M05
(  )
T502 M06
( Contour )
M03 S10000
G0  X27.134 Y34.370
G0  Z3.000
G01 F400 Z0
G01 F400 Z-0.100
G01F400X26.898 Y34.320
X26.678 Y34.221
X26.483 Y34.080
X26.322 Y33.901
X26.201 Y33.692
X26.127 Y33.463
X26.102 Y33.223
X26.127 Y32.983
X26.201 Y32.754
X26.322 Y32.546
X26.483 Y32.367
X26.678 Y32.225
X26.898 Y32.127
X27.134 Y32.077
X27.375 Y32.077
X27.610 Y32.127
X27.831 Y32.225
X28.026 Y32.367
X28.187 Y32.546
X28.307 Y32.754
X28.382 Y32.983
X28.407 Y33.223
X28.382 Y33.463
X28.307 Y33.692
X28.187 Y33.901
X28.026 Y34.080
X27.831 Y34.221
X27.610 Y34.320
X27.375 Y34.370
X27.134 Y34.370
G0 Z3.000
G0  X24.594 Y34.370
G0  Z3.000
G01 F400 Z0
G01 F400 Z-0.100
G01F400X24.358 Y34.320
X24.138 Y34.221
X23.943 Y34.080
X23.782 Y33.901
X23.661 Y33.692
X23.587 Y33.463
X23.562 Y33.223
X23.587 Y32.983
X23.661 Y32.754
X23.782 Y32.546
X23.943 Y32.367
X24.138 Y32.225
X24.358 Y32.127
X24.594 Y32.077
X24.835 Y32.077
X25.070 Y32.127
X25.291 Y32.225
X25.486 Y32.367
X25.647 Y32.546
X25.767 Y32.754
X25.842 Y32.983
X25.867 Y33.223
X25.842 Y33.463
X25.767 Y33.692
X25.647 Y33.901
X25.486 Y34.080
X25.291 Y34.221
X25.070 Y34.320
X24.835 Y34.370
X24.594 Y34.370
G0 Z3.000
G0  X32.214 Y34.370
G0  Z3.000
G01 F400 Z0
G01 F400 Z-0.100
G01F400X31.978 Y34.320
X31.758 Y34.221
X31.563 Y34.080
X31.402 Y33.901
X31.281 Y33.692
X31.207 Y33.463
X31.181 Y33.223
X31.207 Y32.983
X31.281 Y32.754
X31.402 Y32.546
X31.563 Y32.367
X31.758 Y32.225
X31.978 Y32.127
X32.214 Y32.077
X32.455 Y32.077
X32.690 Y32.127
X32.910 Y32.225
X33.105 Y32.367
X33.267 Y32.546
X33.387 Y32.754
X33.462 Y32.983
X33.487 Y33.223
X33.462 Y33.463
X33.387 Y33.692
X33.267 Y33.901
X33.105 Y34.080
X32.910 Y34.221
X32.690 Y34.320
X32.455 Y34.370
X32.214 Y34.370
G0 Z3.000
G0  X29.674 Y34.370
G0  Z3.000
G01 F400 Z0
G01 F400 Z-0.100
G01F400X29.438 Y34.320
X29.218 Y34.221
X29.023 Y34.080
X28.862 Y33.901
X28.741 Y33.692
X28.667 Y33.463
X28.642 Y33.223
X28.667 Y32.983
X28.741 Y32.754
X28.862 Y32.546
X29.023 Y32.367
X29.218 Y32.225
X29.438 Y32.127
X29.674 Y32.077
X29.915 Y32.077
X30.150 Y32.127
X30.370 Y32.225
X30.566 Y32.367
X30.727 Y32.546
X30.847 Y32.754
X30.922 Y32.983
X30.947 Y33.223
X30.922 Y33.463
X30.847 Y33.692
X30.727 Y33.901
X30.566 Y34.080
X30.370 Y34.221
X30.150 Y34.320
X29.915 Y34.370
X29.674 Y34.370
G0 Z3.000
G0  X16.974 Y34.370
G0  Z3.000
G01 F400 Z0
G01 F400 Z-0.100
G01F400X16.738 Y34.320
X16.518 Y34.221
X16.323 Y34.080
X16.162 Y33.901
X16.041 Y33.692
X15.967 Y33.463
X15.942 Y33.223
X15.967 Y32.983
X16.041 Y32.754
X16.162 Y32.546
X16.323 Y32.367
X16.518 Y32.225
X16.738 Y32.127
X16.974 Y32.077
X17.215 Y32.077
X17.450 Y32.127
X17.671 Y32.225
X17.866 Y32.367
X18.027 Y32.546
X18.147 Y32.754
X18.222 Y32.983
X18.247 Y33.223
X18.222 Y33.463
X18.147 Y33.692
X18.027 Y33.901
X17.866 Y34.080
X17.671 Y34.221
X17.450 Y34.320
X17.215 Y34.370
X16.974 Y34.370
G0 Z3.000
G0  X22.054 Y34.370
G0  Z3.000
G01 F400 Z0
G01 F400 Z-0.100
G01F400X21.818 Y34.320
X21.598 Y34.221
X21.403 Y34.080
X21.242 Y33.901
X21.121 Y33.692
X21.047 Y33.463
X21.021 Y33.223
X21.047 Y32.983
X21.121 Y32.754
X21.242 Y32.546
X21.403 Y32.367
X21.598 Y32.225
X21.818 Y32.127
X22.054 Y32.077
X22.295 Y32.077
X22.530 Y32.127
X22.751 Y32.225
X22.946 Y32.367
X23.107 Y32.546
X23.227 Y32.754
X23.302 Y32.983
X23.327 Y33.223
X23.302 Y33.463
X23.227 Y33.692
X23.107 Y33.901
X22.946 Y34.080
X22.751 Y34.221
X22.530 Y34.320
X22.295 Y34.370
X22.054 Y34.370
G0 Z3.000
G0  X19.514 Y34.370
G0  Z3.000
G01 F400 Z0
G01 F400 Z-0.100
G01F400X19.278 Y34.320
X19.058 Y34.221
X18.863 Y34.080
X18.702 Y33.901
X18.581 Y33.692
X18.507 Y33.463
X18.482 Y33.223
X18.507 Y32.983
X18.581 Y32.754
X18.702 Y32.546
X18.863 Y32.367
X19.058 Y32.225
X19.278 Y32.127
X19.514 Y32.077
X19.755 Y32.077
X19.990 Y32.127
X20.210 Y32.225
X20.405 Y32.367
X20.567 Y32.546
X20.687 Y32.754
X20.762 Y32.983
X20.787 Y33.223
X20.762 Y33.463
X20.687 Y33.692
X20.567 Y33.901
X20.405 Y34.080
X20.210 Y34.221
X19.990 Y34.320
X19.755 Y34.370
X19.514 Y34.370
G0 Z3.000
G0  X44.914 Y34.370
G0  Z3.000
G01 F400 Z0
G01 F400 Z-0.100
G01F400X44.678 Y34.320
X44.458 Y34.221
X44.263 Y34.080
X44.102 Y33.901
X43.981 Y33.692
X43.907 Y33.463
X43.882 Y33.223
X43.907 Y32.983
X43.981 Y32.754
X44.102 Y32.546
X44.263 Y32.367
X44.458 Y32.225
X44.678 Y32.127
X44.914 Y32.077
X45.155 Y32.077
X45.390 Y32.127
X45.611 Y32.225
X45.806 Y32.367
X45.967 Y32.546
X46.087 Y32.754
X46.162 Y32.983
X46.187 Y33.223
X46.162 Y33.463
X46.087 Y33.692
X45.967 Y33.901
X45.806 Y34.080
X45.611 Y34.221
X45.390 Y34.320
X45.155 Y34.370
X44.914 Y34.370
G0 Z3.000
G0  X37.294 Y34.370
G0  Z3.000
G01 F400 Z0
G01 F400 Z-0.100
G01F400X37.058 Y34.320
X36.838 Y34.221
X36.643 Y34.080
X36.482 Y33.901
X36.361 Y33.692
X36.287 Y33.463
X36.262 Y33.223
X36.287 Y32.983
X36.361 Y32.754
X36.482 Y32.546
X36.643 Y32.367
X36.838 Y32.225
X37.058 Y32.127
X37.294 Y32.077
X37.535 Y32.077
X37.770 Y32.127
X37.991 Y32.225
X38.186 Y32.367
X38.347 Y32.546
X38.467 Y32.754
X38.542 Y32.983
X38.567 Y33.223
X38.542 Y33.463
X38.467 Y33.692
X38.347 Y33.901
X38.186 Y34.080
X37.991 Y34.221
X37.770 Y34.320
X37.535 Y34.370
X37.294 Y34.370
G0 Z3.000
G0  X34.754 Y34.370
G0  Z3.000
G01 F400 Z0
G01 F400 Z-0.100
G01F400X34.518 Y34.320
X34.298 Y34.221
X34.103 Y34.080
X33.942 Y33.901
X33.821 Y33.692
X33.747 Y33.463
X33.721 Y33.223
X33.747 Y32.983
X33.821 Y32.754
X33.942 Y32.546
X34.103 Y32.367
X34.298 Y32.225
X34.518 Y32.127
X34.754 Y32.077
X34.995 Y32.077
X35.230 Y32.127
X35.451 Y32.225
X35.645 Y32.367
X35.807 Y32.546
X35.927 Y32.754
X36.002 Y32.983
X36.027 Y33.223
X36.002 Y33.463
X35.927 Y33.692
X35.807 Y33.901
X35.645 Y34.080
X35.451 Y34.221
X35.230 Y34.320
X34.995 Y34.370
X34.754 Y34.370
G0 Z3.000
G0  X42.374 Y34.370
G0  Z3.000
G01 F400 Z0
G01 F400 Z-0.100
G01F400X42.138 Y34.320
X41.918 Y34.221
X41.723 Y34.080
X41.562 Y33.901
X41.441 Y33.692
X41.367 Y33.463
X41.342 Y33.223
X41.367 Y32.983
X41.441 Y32.754
X41.562 Y32.546
X41.723 Y32.367
X41.918 Y32.225
X42.138 Y32.127
X42.374 Y32.077
X42.615 Y32.077
X42.850 Y32.127
X43.071 Y32.225
X43.266 Y32.367
X43.427 Y32.546
X43.547 Y32.754
X43.622 Y32.983
X43.647 Y33.223
X43.622 Y33.463
X43.547 Y33.692
X43.427 Y33.901
X43.266 Y34.080
X43.071 Y34.221
X42.850 Y34.320
X42.615 Y34.370
X42.374 Y34.370
G0 Z3.000
G0  X39.834 Y34.370
G0  Z3.000
G01 F400 Z0
G01 F400 Z-0.100
G01F400X39.598 Y34.320
X39.378 Y34.221
X39.183 Y34.080
X39.022 Y33.901
X38.901 Y33.692
X38.827 Y33.463
X38.802 Y33.223
X38.827 Y32.983
X38.901 Y32.754
X39.022 Y32.546
X39.183 Y32.367
X39.378 Y32.225
X39.598 Y32.127
X39.834 Y32.077
X40.075 Y32.077
X40.310 Y32.127
X40.531 Y32.225
X40.726 Y32.367
X40.887 Y32.546
X41.007 Y32.754
X41.082 Y32.983
X41.107 Y33.223
X41.082 Y33.463
X41.007 Y33.692
X40.887 Y33.901
X40.726 Y34.080
X40.531 Y34.221
X40.310 Y34.320
X40.075 Y34.370
X39.834 Y34.370
G0 Z3.000
G0  X58.815 Y33.752
G0  Z3.000
G01 F400 Z0
G01 F400 Z-0.100
G01F400X58.445 Y33.673
X58.100 Y33.519
X57.794 Y33.297
X57.541 Y33.016
X57.352 Y32.689
X57.235 Y32.329
X57.196 Y31.953
X57.235 Y31.577
X57.352 Y31.218
X57.541 Y30.890
X57.794 Y30.609
X58.100 Y30.387
X58.445 Y30.233
X58.815 Y30.155
X59.193 Y30.155
X59.563 Y30.233
X59.908 Y30.387
X60.214 Y30.609
X60.467 Y30.890
X60.656 Y31.218
X60.773 Y31.577
X60.813 Y31.953
X60.773 Y32.329
X60.656 Y32.689
X60.467 Y33.016
X60.214 Y33.297
X59.908 Y33.519
X59.563 Y33.673
X59.193 Y33.752
X58.815 Y33.752
G0 Z3.000
G0  X30.671 Y25.333
G0  Z3.000
G01 F400 Z0
G01 F400 Z-0.100
G01F400X30.671 Y24.686
X28.995 Y24.686
X28.923 Y24.671
X28.855 Y24.641
X28.795 Y24.597
X28.745 Y24.542
X28.708 Y24.478
X28.685 Y24.407
X28.677 Y24.336
X28.677 Y16.736
X28.685 Y16.665
X28.708 Y16.594
X28.745 Y16.530
X28.795 Y16.475
X28.855 Y16.431
X28.923 Y16.401
X28.995 Y16.386
X46.427 Y16.386
X46.990 Y13.896
X46.803 Y13.760
X46.642 Y13.581
X46.521 Y13.372
X46.447 Y13.143
X46.422 Y12.903
X46.447 Y12.664
X46.521 Y12.434
X46.642 Y12.226
X46.803 Y12.047
X46.998 Y11.905
X47.218 Y11.807
X47.454 Y11.757
X47.695 Y11.757
X47.930 Y11.807
X48.151 Y11.905
X48.346 Y12.047
X48.507 Y12.226
X48.627 Y12.434
X48.702 Y12.664
X48.727 Y12.903
X48.702 Y13.143
X48.627 Y13.372
X48.507 Y13.581
X48.346 Y13.760
X48.151 Y13.902
X47.930 Y14.000
X47.695 Y14.050
X47.682 Y14.050
X47.057 Y16.815
X47.035 Y16.883
X46.998 Y16.947
X46.948 Y17.003
X46.888 Y17.046
X46.820 Y17.076
X46.748 Y17.092
X29.387 Y17.092
X29.387 Y18.946
X30.671 Y18.928
X30.671 Y18.253
X32.371 Y18.253
X32.371 Y20.253
X30.671 Y20.253
X30.671 Y19.635
X29.387 Y19.653
X29.387 Y21.419
X30.671 Y21.437
X30.671 Y20.793
X32.371 Y20.793
X32.371 Y22.793
X30.671 Y22.793
X30.671 Y22.144
X29.387 Y22.126
X29.387 Y23.980
X30.671 Y23.980
X30.671 Y23.333
X32.371 Y23.333
X32.371 Y25.333
X30.671 Y25.333
G0 Z3.000
G0  X33.770 Y25.333
G0  Z3.000
G01 F400 Z0
G01 F400 Z-0.100
G01F400X33.770 Y23.333
X35.470 Y23.333
X35.470 Y23.980
X40.931 Y23.980
X40.931 Y23.533
X42.431 Y23.533
X42.431 Y25.133
X40.931 Y25.133
X40.931 Y24.686
X35.470 Y24.686
X35.470 Y25.333
X33.770 Y25.333
G0 Z3.000
G0  X42.963 Y25.133
G0  Z3.000
G01 F400 Z0
G01 F400 Z-0.100
G01F400X42.963 Y23.533
X44.463 Y23.533
X44.463 Y23.980
X46.356 Y23.980
X46.356 Y22.125
X44.463 Y22.145
X44.463 Y22.593
X42.963 Y22.593
X42.963 Y20.993
X44.463 Y20.993
X44.463 Y21.438
X46.356 Y21.418
X46.356 Y19.650
X44.463 Y19.611
X44.463 Y20.053
X42.963 Y20.053
X42.963 Y18.453
X44.463 Y18.453
X44.463 Y18.903
X46.630 Y18.948
X51.529 Y16.499
X52.072 Y13.897
X51.883 Y13.760
X51.722 Y13.581
X51.601 Y13.372
X51.527 Y13.143
X51.502 Y12.903
X51.527 Y12.664
X51.601 Y12.434
X51.722 Y12.226
X51.883 Y12.047
X52.078 Y11.905
X52.298 Y11.807
X52.534 Y11.757
X52.775 Y11.757
X53.010 Y11.807
X53.230 Y11.905
X53.425 Y12.047
X53.587 Y12.226
X53.707 Y12.434
X53.782 Y12.664
X53.807 Y12.903
X53.782 Y13.143
X53.707 Y13.372
X53.587 Y13.581
X53.425 Y13.760
X53.230 Y13.902
X53.010 Y14.000
X52.775 Y14.050
X52.765 Y14.050
X52.188 Y16.815
X52.166 Y16.883
X52.129 Y16.947
X52.079 Y17.003
X52.020 Y17.045
X47.065 Y19.523
X47.065 Y24.336
X47.058 Y24.407
X47.035 Y24.478
X46.998 Y24.542
X46.948 Y24.597
X46.888 Y24.641
X46.820 Y24.671
X46.748 Y24.686
X44.463 Y24.686
X44.463 Y25.133
X42.963 Y25.133
G0 Z3.000
G0  X33.770 Y22.793
G0  Z3.000
G01 F400 Z0
G01 F400 Z-0.100
G01F400X33.770 Y20.793
X35.470 Y20.793
X35.470 Y21.440
X40.931 Y21.440
X40.931 Y20.993
X42.431 Y20.993
X42.431 Y22.593
X40.931 Y22.593
X40.931 Y22.146
X35.470 Y22.146
X35.470 Y22.793
X33.770 Y22.793
G0 Z3.000
G0  X33.770 Y20.253
G0  Z3.000
G01 F400 Z0
G01 F400 Z-0.100
G01F400X33.770 Y18.253
X35.470 Y18.253
X35.470 Y18.900
X40.931 Y18.900
X40.931 Y18.453
X42.431 Y18.453
X42.431 Y20.053
X40.931 Y20.053
X40.931 Y19.606
X35.470 Y19.606
X35.470 Y20.253
X33.770 Y20.253
G0 Z3.000
G0  X58.815 Y15.972
G0  Z3.000
G01 F400 Z0
G01 F400 Z-0.100
G01F400X58.445 Y15.893
X58.100 Y15.739
X57.794 Y15.517
X57.541 Y15.236
X57.352 Y14.909
X57.235 Y14.549
X57.196 Y14.173
X57.235 Y13.797
X57.352 Y13.438
X57.541 Y13.110
X57.794 Y12.829
X58.100 Y12.607
X58.445 Y12.453
X58.815 Y12.375
X59.193 Y12.375
X59.563 Y12.453
X59.908 Y12.607
X60.214 Y12.829
X60.467 Y13.110
X60.656 Y13.438
X60.773 Y13.797
X60.813 Y14.173
X60.773 Y14.549
X60.656 Y14.909
X60.467 Y15.236
X60.214 Y15.517
X59.908 Y15.739
X59.563 Y15.893
X59.193 Y15.972
X58.815 Y15.972
G0 Z3.000
G0  X39.834 Y14.050
G0  Z3.000
G01 F400 Z0
G01 F400 Z-0.100
G01F400X39.598 Y14.000
X39.378 Y13.902
X39.183 Y13.760
X39.022 Y13.581
X38.901 Y13.372
X38.827 Y13.143
X38.802 Y12.903
X38.827 Y12.664
X38.901 Y12.434
X39.022 Y12.226
X39.183 Y12.047
X39.378 Y11.905
X39.598 Y11.807
X39.834 Y11.757
X40.075 Y11.757
X40.310 Y11.807
X40.531 Y11.905
X40.726 Y12.047
X40.887 Y12.226
X41.007 Y12.434
X41.082 Y12.664
X41.107 Y12.903
X41.082 Y13.143
X41.007 Y13.372
X40.887 Y13.581
X40.726 Y13.760
X40.531 Y13.902
X40.310 Y14.000
X40.075 Y14.050
X39.834 Y14.050
G0 Z3.000
G0  X55.074 Y14.050
G0  Z3.000
G01 F400 Z0
G01 F400 Z-0.100
G01F400X54.838 Y14.000
X54.618 Y13.902
X54.423 Y13.760
X54.262 Y13.581
X54.141 Y13.372
X54.067 Y13.143
X54.041 Y12.903
X54.067 Y12.664
X54.141 Y12.434
X54.262 Y12.226
X54.423 Y12.047
X54.618 Y11.905
X54.838 Y11.807
X55.074 Y11.757
X55.315 Y11.757
X55.550 Y11.807
X55.771 Y11.905
X55.966 Y12.047
X56.127 Y12.226
X56.247 Y12.434
X56.322 Y12.664
X56.347 Y12.903
X56.322 Y13.143
X56.247 Y13.372
X56.127 Y13.581
X55.966 Y13.760
X55.771 Y13.902
X55.550 Y14.000
X55.315 Y14.050
X55.074 Y14.050
G0 Z3.000
G0  X49.994 Y14.050
G0  Z3.000
G01 F400 Z0
G01 F400 Z-0.100
G01F400X49.758 Y14.000
X49.538 Y13.902
X49.343 Y13.760
X49.182 Y13.581
X49.061 Y13.372
X48.987 Y13.143
X48.962 Y12.903
X48.987 Y12.664
X49.061 Y12.434
X49.182 Y12.226
X49.343 Y12.047
X49.538 Y11.905
X49.758 Y11.807
X49.994 Y11.757
X50.235 Y11.757
X50.470 Y11.807
X50.691 Y11.905
X50.886 Y12.047
X51.047 Y12.226
X51.167 Y12.434
X51.242 Y12.664
X51.267 Y12.903
X51.242 Y13.143
X51.167 Y13.372
X51.047 Y13.581
X50.886 Y13.760
X50.691 Y13.902
X50.470 Y14.000
X50.235 Y14.050
X49.994 Y14.050
G0 Z3.000
G0  X22.054 Y14.050
G0  Z3.000
G01 F400 Z0
G01 F400 Z-0.100
G01F400X21.818 Y14.000
X21.598 Y13.902
X21.403 Y13.760
X21.242 Y13.581
X21.121 Y13.372
X21.047 Y13.143
X21.021 Y12.903
X21.047 Y12.664
X21.121 Y12.434
X21.242 Y12.226
X21.403 Y12.047
X21.598 Y11.905
X21.818 Y11.807
X22.054 Y11.757
X22.295 Y11.757
X22.530 Y11.807
X22.751 Y11.905
X22.946 Y12.047
X23.107 Y12.226
X23.227 Y12.434
X23.302 Y12.664
X23.327 Y12.903
X23.302 Y13.143
X23.227 Y13.372
X23.107 Y13.581
X22.946 Y13.760
X22.751 Y13.902
X22.530 Y14.000
X22.295 Y14.050
X22.054 Y14.050
G0 Z3.000
G0  X16.974 Y14.050
G0  Z3.000
G01 F400 Z0
G01 F400 Z-0.100
G01F400X16.738 Y14.000
X16.518 Y13.902
X16.323 Y13.760
X16.162 Y13.581
X16.041 Y13.372
X15.967 Y13.143
X15.942 Y12.903
X15.967 Y12.664
X16.041 Y12.434
X16.162 Y12.226
X16.323 Y12.047
X16.518 Y11.905
X16.738 Y11.807
X16.974 Y11.757
X17.215 Y11.757
X17.450 Y11.807
X17.671 Y11.905
X17.866 Y12.047
X18.027 Y12.226
X18.147 Y12.434
X18.222 Y12.664
X18.247 Y12.903
X18.222 Y13.143
X18.147 Y13.372
X18.027 Y13.581
X17.866 Y13.760
X17.671 Y13.902
X17.450 Y14.000
X17.215 Y14.050
X16.974 Y14.050
G0 Z3.000
G0  X19.514 Y14.050
G0  Z3.000
G01 F400 Z0
G01 F400 Z-0.100
G01F400X19.278 Y14.000
X19.058 Y13.902
X18.863 Y13.760
X18.702 Y13.581
X18.581 Y13.372
X18.507 Y13.143
X18.482 Y12.903
X18.507 Y12.664
X18.581 Y12.434
X18.702 Y12.226
X18.863 Y12.047
X19.058 Y11.905
X19.278 Y11.807
X19.514 Y11.757
X19.755 Y11.757
X19.990 Y11.807
X20.210 Y11.905
X20.405 Y12.047
X20.567 Y12.226
X20.687 Y12.434
X20.762 Y12.664
X20.787 Y12.903
X20.762 Y13.143
X20.687 Y13.372
X20.567 Y13.581
X20.405 Y13.760
X20.210 Y13.902
X19.990 Y14.000
X19.755 Y14.050
X19.514 Y14.050
G0 Z3.000
G0  X27.134 Y14.050
G0  Z3.000
G01 F400 Z0
G01 F400 Z-0.100
G01F400X26.898 Y14.000
X26.678 Y13.902
X26.483 Y13.760
X26.322 Y13.581
X26.201 Y13.372
X26.127 Y13.143
X26.102 Y12.903
X26.127 Y12.664
X26.201 Y12.434
X26.322 Y12.226
X26.483 Y12.047
X26.678 Y11.905
X26.898 Y11.807
X27.134 Y11.757
X27.375 Y11.757
X27.610 Y11.807
X27.831 Y11.905
X28.026 Y12.047
X28.187 Y12.226
X28.307 Y12.434
X28.382 Y12.664
X28.407 Y12.903
X28.382 Y13.143
X28.307 Y13.372
X28.187 Y13.581
X28.026 Y13.760
X27.831 Y13.902
X27.610 Y14.000
X27.375 Y14.050
X27.134 Y14.050
G0 Z3.000
G0  X34.754 Y14.050
G0  Z3.000
G01 F400 Z0
G01 F400 Z-0.100
G01F400X34.518 Y14.000
X34.298 Y13.902
X34.103 Y13.760
X33.942 Y13.581
X33.821 Y13.372
X33.747 Y13.143
X33.721 Y12.903
X33.747 Y12.664
X33.821 Y12.434
X33.942 Y12.226
X34.103 Y12.047
X34.298 Y11.905
X34.518 Y11.807
X34.754 Y11.757
X34.995 Y11.757
X35.230 Y11.807
X35.451 Y11.905
X35.645 Y12.047
X35.807 Y12.226
X35.927 Y12.434
X36.002 Y12.664
X36.027 Y12.903
X36.002 Y13.143
X35.927 Y13.372
X35.807 Y13.581
X35.645 Y13.760
X35.451 Y13.902
X35.230 Y14.000
X34.995 Y14.050
X34.754 Y14.050
G0 Z3.000
G0  X42.374 Y14.050
G0  Z3.000
G01 F400 Z0
G01 F400 Z-0.100
G01F400X42.138 Y14.000
X41.918 Y13.902
X41.723 Y13.760
X41.562 Y13.581
X41.441 Y13.372
X41.367 Y13.143
X41.342 Y12.903
X41.367 Y12.664
X41.441 Y12.434
X41.562 Y12.226
X41.723 Y12.047
X41.918 Y11.905
X42.138 Y11.807
X42.374 Y11.757
X42.615 Y11.757
X42.850 Y11.807
X43.071 Y11.905
X43.266 Y12.047
X43.427 Y12.226
X43.547 Y12.434
X43.622 Y12.664
X43.647 Y12.903
X43.622 Y13.143
X43.547 Y13.372
X43.427 Y13.581
X43.266 Y13.760
X43.071 Y13.902
X42.850 Y14.000
X42.615 Y14.050
X42.374 Y14.050
G0 Z3.000
G0  X24.594 Y14.050
G0  Z3.000
G01 F400 Z0
G01 F400 Z-0.100
G01F400X24.358 Y14.000
X24.138 Y13.902
X23.943 Y13.760
X23.782 Y13.581
X23.661 Y13.372
X23.587 Y13.143
X23.562 Y12.903
X23.587 Y12.664
X23.661 Y12.434
X23.782 Y12.226
X23.943 Y12.047
X24.138 Y11.905
X24.358 Y11.807
X24.594 Y11.757
X24.835 Y11.757
X25.070 Y11.807
X25.291 Y11.905
X25.486 Y12.047
X25.647 Y12.226
X25.767 Y12.434
X25.842 Y12.664
X25.867 Y12.903
X25.842 Y13.143
X25.767 Y13.372
X25.647 Y13.581
X25.486 Y13.760
X25.291 Y13.902
X25.070 Y14.000
X24.835 Y14.050
X24.594 Y14.050
G0 Z3.000
G0  X32.214 Y14.050
G0  Z3.000
G01 F400 Z0
G01 F400 Z-0.100
G01F400X31.978 Y14.000
X31.758 Y13.902
X31.563 Y13.760
X31.402 Y13.581
X31.281 Y13.372
X31.207 Y13.143
X31.181 Y12.903
X31.207 Y12.664
X31.281 Y12.434
X31.402 Y12.226
X31.563 Y12.047
X31.758 Y11.905
X31.978 Y11.807
X32.214 Y11.757
X32.455 Y11.757
X32.690 Y11.807
X32.910 Y11.905
X33.105 Y12.047
X33.267 Y12.226
X33.387 Y12.434
X33.462 Y12.664
X33.487 Y12.903
X33.462 Y13.143
X33.387 Y13.372
X33.267 Y13.581
X33.105 Y13.760
X32.910 Y13.902
X32.690 Y14.000
X32.455 Y14.050
X32.214 Y14.050
G0 Z3.000
G0  X29.674 Y14.050
G0  Z3.000
G01 F400 Z0
G01 F400 Z-0.100
G01F400X29.438 Y14.000
X29.218 Y13.902
X29.023 Y13.760
X28.862 Y13.581
X28.741 Y13.372
X28.667 Y13.143
X28.642 Y12.903
X28.667 Y12.664
X28.741 Y12.434
X28.862 Y12.226
X29.023 Y12.047
X29.218 Y11.905
X29.438 Y11.807
X29.674 Y11.757
X29.915 Y11.757
X30.150 Y11.807
X30.370 Y11.905
X30.566 Y12.047
X30.727 Y12.226
X30.847 Y12.434
X30.922 Y12.664
X30.947 Y12.903
X30.922 Y13.143
X30.847 Y13.372
X30.727 Y13.581
X30.566 Y13.760
X30.370 Y13.902
X30.150 Y14.000
X29.915 Y14.050
X29.674 Y14.050
G0 Z3.000
G0  X37.294 Y14.050
G0  Z3.000
G01 F400 Z0
G01 F400 Z-0.100
G01F400X37.058 Y14.000
X36.838 Y13.902
X36.643 Y13.760
X36.482 Y13.581
X36.361 Y13.372
X36.287 Y13.143
X36.262 Y12.903
X36.287 Y12.664
X36.361 Y12.434
X36.482 Y12.226
X36.643 Y12.047
X36.838 Y11.905
X37.058 Y11.807
X37.294 Y11.757
X37.535 Y11.757
X37.770 Y11.807
X37.991 Y11.905
X38.186 Y12.047
X38.347 Y12.226
X38.467 Y12.434
X38.542 Y12.664
X38.567 Y12.903
X38.542 Y13.143
X38.467 Y13.372
X38.347 Y13.581
X38.186 Y13.760
X37.991 Y13.902
X37.770 Y14.000
X37.535 Y14.050
X37.294 Y14.050
G0 Z3.000
G0  X44.914 Y14.050
G0  Z3.000
G01 F400 Z0
G01 F400 Z-0.100
G01F400X44.678 Y14.000
X44.458 Y13.902
X44.263 Y13.760
X44.102 Y13.581
X43.981 Y13.372
X43.907 Y13.143
X43.882 Y12.903
X43.907 Y12.664
X43.981 Y12.434
X44.102 Y12.226
X44.263 Y12.047
X44.458 Y11.905
X44.678 Y11.807
X44.914 Y11.757
X45.155 Y11.757
X45.390 Y11.807
X45.611 Y11.905
X45.806 Y12.047
X45.967 Y12.226
X46.087 Y12.434
X46.162 Y12.664
X46.187 Y12.903
X46.162 Y13.143
X46.087 Y13.372
X45.967 Y13.581
X45.806 Y13.760
X45.611 Y13.902
X45.390 Y14.000
X45.155 Y14.050
X44.914 Y14.050
G0 Z3.000
G0  X39.824 Y34.460
G0  Z3.000
G01 F400 Z0
G01 F400 Z-0.100
G01F400X39.570 Y34.406
X39.333 Y34.300
X39.122 Y34.147
X38.948 Y33.954
X38.819 Y33.729
X38.738 Y33.482
X38.711 Y33.223
X38.738 Y32.965
X38.819 Y32.718
X38.948 Y32.492
X39.122 Y32.299
X39.333 Y32.147
X39.570 Y32.041
X39.824 Y31.987
X40.084 Y31.987
X40.338 Y32.041
X40.576 Y32.147
X40.786 Y32.299
X40.960 Y32.492
X41.090 Y32.718
X41.170 Y32.965
X41.197 Y33.223
X41.170 Y33.482
X41.090 Y33.729
X40.960 Y33.954
X40.786 Y34.147
X40.576 Y34.300
X40.338 Y34.406
X40.084 Y34.460
X39.824 Y34.460
G0 Z3.000
G0  X42.364 Y34.460
G0  Z3.000
G01 F400 Z0
G01 F400 Z-0.100
G01F400X42.110 Y34.406
X41.873 Y34.300
X41.662 Y34.147
X41.488 Y33.954
X41.358 Y33.729
X41.278 Y33.482
X41.251 Y33.223
X41.278 Y32.965
X41.358 Y32.718
X41.488 Y32.492
X41.662 Y32.299
X41.873 Y32.147
X42.110 Y32.041
X42.364 Y31.987
X42.624 Y31.987
X42.878 Y32.041
X43.116 Y32.147
X43.326 Y32.299
X43.500 Y32.492
X43.630 Y32.718
X43.710 Y32.965
X43.737 Y33.223
X43.710 Y33.482
X43.630 Y33.729
X43.500 Y33.954
X43.326 Y34.147
X43.116 Y34.300
X42.878 Y34.406
X42.624 Y34.460
X42.364 Y34.460
G0 Z3.000
G0  X34.744 Y34.460
G0  Z3.000
G01 F400 Z0
G01 F400 Z-0.100
G01F400X34.490 Y34.406
X34.253 Y34.300
X34.042 Y34.147
X33.868 Y33.954
X33.739 Y33.729
X33.658 Y33.482
X33.631 Y33.223
X33.658 Y32.965
X33.739 Y32.718
X33.868 Y32.492
X34.042 Y32.299
X34.253 Y32.147
X34.490 Y32.041
X34.744 Y31.987
X35.004 Y31.987
X35.258 Y32.041
X35.496 Y32.147
X35.706 Y32.299
X35.880 Y32.492
X36.010 Y32.718
X36.090 Y32.965
X36.117 Y33.223
X36.090 Y33.482
X36.010 Y33.729
X35.880 Y33.954
X35.706 Y34.147
X35.496 Y34.300
X35.258 Y34.406
X35.004 Y34.460
X34.744 Y34.460
G0 Z3.000
G0  X37.284 Y34.460
G0  Z3.000
G01 F400 Z0
G01 F400 Z-0.100
G01F400X37.030 Y34.406
X36.793 Y34.300
X36.582 Y34.147
X36.408 Y33.954
X36.279 Y33.729
X36.198 Y33.482
X36.171 Y33.223
X36.198 Y32.965
X36.279 Y32.718
X36.408 Y32.492
X36.582 Y32.299
X36.793 Y32.147
X37.030 Y32.041
X37.284 Y31.987
X37.544 Y31.987
X37.798 Y32.041
X38.036 Y32.147
X38.246 Y32.299
X38.420 Y32.492
X38.550 Y32.718
X38.630 Y32.965
X38.657 Y33.223
X38.630 Y33.482
X38.550 Y33.729
X38.420 Y33.954
X38.246 Y34.147
X38.036 Y34.300
X37.798 Y34.406
X37.544 Y34.460
X37.284 Y34.460
G0 Z3.000
G0  X44.904 Y34.460
G0  Z3.000
G01 F400 Z0
G01 F400 Z-0.100
G01F400X44.650 Y34.406
X44.413 Y34.300
X44.202 Y34.147
X44.028 Y33.954
X43.899 Y33.729
X43.818 Y33.482
X43.791 Y33.223
X43.818 Y32.965
X43.899 Y32.718
X44.028 Y32.492
X44.202 Y32.299
X44.413 Y32.147
X44.650 Y32.041
X44.904 Y31.987
X45.164 Y31.987
X45.418 Y32.041
X45.656 Y32.147
X45.866 Y32.299
X46.040 Y32.492
X46.170 Y32.718
X46.250 Y32.965
X46.277 Y33.223
X46.250 Y33.482
X46.170 Y33.729
X46.040 Y33.954
X45.866 Y34.147
X45.656 Y34.300
X45.418 Y34.406
X45.164 Y34.460
X44.904 Y34.460
G0 Z3.000
G0  X19.504 Y34.460
G0  Z3.000
G01 F400 Z0
G01 F400 Z-0.100
G01F400X19.250 Y34.406
X19.013 Y34.300
X18.802 Y34.147
X18.628 Y33.954
X18.498 Y33.729
X18.418 Y33.482
X18.391 Y33.223
X18.418 Y32.965
X18.498 Y32.718
X18.628 Y32.492
X18.802 Y32.299
X19.013 Y32.147
X19.250 Y32.041
X19.504 Y31.987
X19.764 Y31.987
X20.018 Y32.041
X20.256 Y32.147
X20.466 Y32.299
X20.640 Y32.492
X20.770 Y32.718
X20.850 Y32.965
X20.877 Y33.223
X20.850 Y33.482
X20.770 Y33.729
X20.640 Y33.954
X20.466 Y34.147
X20.256 Y34.300
X20.018 Y34.406
X19.764 Y34.460
X19.504 Y34.460
G0 Z3.000
G0  X22.044 Y34.460
G0  Z3.000
G01 F400 Z0
G01 F400 Z-0.100
G01F400X21.790 Y34.406
X21.553 Y34.300
X21.342 Y34.147
X21.168 Y33.954
X21.039 Y33.729
X20.958 Y33.482
X20.931 Y33.223
X20.958 Y32.965
X21.039 Y32.718
X21.168 Y32.492
X21.342 Y32.299
X21.553 Y32.147
X21.790 Y32.041
X22.044 Y31.987
X22.304 Y31.987
X22.558 Y32.041
X22.796 Y32.147
X23.006 Y32.299
X23.180 Y32.492
X23.310 Y32.718
X23.390 Y32.965
X23.417 Y33.223
X23.390 Y33.482
X23.310 Y33.729
X23.180 Y33.954
X23.006 Y34.147
X22.796 Y34.300
X22.558 Y34.406
X22.304 Y34.460
X22.044 Y34.460
G0 Z3.000
G0  X16.964 Y34.460
G0  Z3.000
G01 F400 Z0
G01 F400 Z-0.100
G01F400X16.710 Y34.406
X16.473 Y34.300
X16.262 Y34.147
X16.088 Y33.954
X15.959 Y33.729
X15.878 Y33.482
X15.851 Y33.223
X15.878 Y32.965
X15.959 Y32.718
X16.088 Y32.492
X16.262 Y32.299
X16.473 Y32.147
X16.710 Y32.041
X16.964 Y31.987
X17.224 Y31.987
X17.478 Y32.041
X17.716 Y32.147
X17.926 Y32.299
X18.100 Y32.492
X18.230 Y32.718
X18.310 Y32.965
X18.337 Y33.223
X18.310 Y33.482
X18.230 Y33.729
X18.100 Y33.954
X17.926 Y34.147
X17.716 Y34.300
X17.478 Y34.406
X17.224 Y34.460
X16.964 Y34.460
G0 Z3.000
G0  X29.664 Y34.460
G0  Z3.000
G01 F400 Z0
G01 F400 Z-0.100
G01F400X29.410 Y34.406
X29.173 Y34.300
X28.962 Y34.147
X28.788 Y33.954
X28.659 Y33.729
X28.578 Y33.482
X28.551 Y33.223
X28.578 Y32.965
X28.659 Y32.718
X28.788 Y32.492
X28.962 Y32.299
X29.173 Y32.147
X29.410 Y32.041
X29.664 Y31.987
X29.924 Y31.987
X30.178 Y32.041
X30.416 Y32.147
X30.626 Y32.299
X30.800 Y32.492
X30.930 Y32.718
X31.010 Y32.965
X31.037 Y33.223
X31.010 Y33.482
X30.930 Y33.729
X30.800 Y33.954
X30.626 Y34.147
X30.416 Y34.300
X30.178 Y34.406
X29.924 Y34.460
X29.664 Y34.460
G0 Z3.000
G0  X32.204 Y34.460
G0  Z3.000
G01 F400 Z0
G01 F400 Z-0.100
G01F400X31.950 Y34.406
X31.713 Y34.300
X31.502 Y34.147
X31.328 Y33.954
X31.199 Y33.729
X31.118 Y33.482
X31.091 Y33.223
X31.118 Y32.965
X31.199 Y32.718
X31.328 Y32.492
X31.502 Y32.299
X31.713 Y32.147
X31.950 Y32.041
X32.204 Y31.987
X32.464 Y31.987
X32.718 Y32.041
X32.956 Y32.147
X33.166 Y32.299
X33.340 Y32.492
X33.470 Y32.718
X33.550 Y32.965
X33.577 Y33.223
X33.550 Y33.482
X33.470 Y33.729
X33.340 Y33.954
X33.166 Y34.147
X32.956 Y34.300
X32.718 Y34.406
X32.464 Y34.460
X32.204 Y34.460
G0 Z3.000
G0  X24.584 Y34.460
G0  Z3.000
G01 F400 Z0
G01 F400 Z-0.100
G01F400X24.330 Y34.406
X24.093 Y34.300
X23.882 Y34.147
X23.708 Y33.954
X23.579 Y33.729
X23.498 Y33.482
X23.471 Y33.223
X23.498 Y32.965
X23.579 Y32.718
X23.708 Y32.492
X23.882 Y32.299
X24.093 Y32.147
X24.330 Y32.041
X24.584 Y31.987
X24.844 Y31.987
X25.098 Y32.041
X25.336 Y32.147
X25.546 Y32.299
X25.720 Y32.492
X25.850 Y32.718
X25.930 Y32.965
X25.957 Y33.223
X25.930 Y33.482
X25.850 Y33.729
X25.720 Y33.954
X25.546 Y34.147
X25.336 Y34.300
X25.098 Y34.406
X24.844 Y34.460
X24.584 Y34.460
G0 Z3.000
G0  X27.124 Y34.460
G0  Z3.000
G01 F400 Z0
G01 F400 Z-0.100
G01F400X26.870 Y34.406
X26.633 Y34.300
X26.422 Y34.147
X26.248 Y33.954
X26.119 Y33.729
X26.038 Y33.482
X26.011 Y33.223
X26.038 Y32.965
X26.119 Y32.718
X26.248 Y32.492
X26.422 Y32.299
X26.633 Y32.147
X26.870 Y32.041
X27.124 Y31.987
X27.384 Y31.987
X27.638 Y32.041
X27.876 Y32.147
X28.086 Y32.299
X28.260 Y32.492
X28.390 Y32.718
X28.470 Y32.965
X28.497 Y33.223
X28.470 Y33.482
X28.390 Y33.729
X28.260 Y33.954
X28.086 Y34.147
X27.876 Y34.300
X27.638 Y34.406
X27.384 Y34.460
X27.124 Y34.460
G0 Z3.000
G0  X58.806 Y33.842
G0  Z3.000
G01 F400 Z0
G01 F400 Z-0.100
G01F400X58.417 Y33.759
X58.055 Y33.598
X57.734 Y33.364
X57.468 Y33.069
X57.270 Y32.726
X57.147 Y32.348
X57.105 Y31.953
X57.147 Y31.558
X57.270 Y31.181
X57.468 Y30.837
X57.734 Y30.542
X58.055 Y30.309
X58.417 Y30.147
X58.806 Y30.065
X59.203 Y30.065
X59.591 Y30.147
X59.954 Y30.309
X60.275 Y30.542
X60.540 Y30.837
X60.739 Y31.181
X60.861 Y31.558
X60.903 Y31.953
X60.861 Y32.348
X60.739 Y32.726
X60.540 Y33.069
X60.275 Y33.364
X59.954 Y33.598
X59.591 Y33.759
X59.203 Y33.842
X58.806 Y33.842
G0 Z3.000
G0  X33.680 Y25.423
G0  Z3.000
G01 F400 Z0
G01 F400 Z-0.100
G01F400X33.680 Y23.243
X35.560 Y23.243
X35.560 Y23.890
X40.841 Y23.890
X40.841 Y23.443
X42.521 Y23.443
X42.521 Y25.223
X40.841 Y25.223
X40.841 Y24.776
X35.560 Y24.776
X35.560 Y25.423
X33.680 Y25.423
G0 Z3.000
G0  X30.581 Y25.423
G0  Z3.000
G01 F400 Z0
G01 F400 Z-0.100
G01F400X30.581 Y24.776
X28.986 Y24.776
X28.895 Y24.757
X28.809 Y24.719
X28.734 Y24.664
X28.672 Y24.595
X28.625 Y24.514
X28.596 Y24.426
X28.587 Y24.341
X28.587 Y16.731
X28.596 Y16.646
X28.625 Y16.557
X28.672 Y16.477
X28.734 Y16.407
X28.809 Y16.353
X28.895 Y16.315
X28.986 Y16.296
X46.355 Y16.296
X46.889 Y13.933
X46.742 Y13.827
X46.568 Y13.634
X46.439 Y13.409
X46.358 Y13.162
X46.331 Y12.903
X46.358 Y12.645
X46.439 Y12.398
X46.568 Y12.173
X46.742 Y11.979
X46.953 Y11.827
X47.190 Y11.721
X47.444 Y11.667
X47.704 Y11.667
X47.958 Y11.721
X48.196 Y11.827
X48.406 Y11.979
X48.580 Y12.173
X48.710 Y12.398
X48.790 Y12.645
X48.817 Y12.903
X48.790 Y13.162
X48.710 Y13.409
X48.580 Y13.634
X48.406 Y13.827
X48.196 Y13.980
X47.958 Y14.086
X47.757 Y14.128
X47.144 Y16.839
X47.118 Y16.920
X47.071 Y17.001
X47.009 Y17.070
X46.933 Y17.125
X46.848 Y17.162
X46.757 Y17.182
X29.477 Y17.182
X29.477 Y18.854
X30.581 Y18.839
X30.581 Y18.163
X32.461 Y18.163
X32.461 Y20.343
X30.581 Y20.343
X30.581 Y19.726
X29.477 Y19.741
X29.477 Y21.330
X30.581 Y21.346
X30.581 Y20.703
X32.461 Y20.703
X32.461 Y22.883
X30.581 Y22.883
X30.581 Y22.233
X29.477 Y22.218
X29.477 Y23.890
X30.581 Y23.890
X30.581 Y23.243
X32.461 Y23.243
X32.461 Y25.423
X30.581 Y25.423
G0 Z3.000
G0  X42.873 Y25.223
G0  Z3.000
G01 F400 Z0
G01 F400 Z-0.100
G01F400X42.873 Y23.443
X44.553 Y23.443
X44.553 Y23.890
X46.266 Y23.890
X46.266 Y22.216
X44.553 Y22.234
X44.553 Y22.683
X42.873 Y22.683
X42.873 Y20.903
X44.553 Y20.903
X44.553 Y21.347
X46.266 Y21.329
X46.266 Y19.739
X44.553 Y19.703
X44.553 Y20.143
X42.873 Y20.143
X42.873 Y18.363
X44.553 Y18.363
X44.553 Y18.815
X46.609 Y18.858
X51.450 Y16.438
X51.972 Y13.936
X51.822 Y13.827
X51.648 Y13.634
X51.519 Y13.409
X51.438 Y13.162
X51.411 Y12.903
X51.438 Y12.645
X51.519 Y12.398
X51.648 Y12.173
X51.822 Y11.979
X52.033 Y11.827
X52.270 Y11.721
X52.524 Y11.667
X52.784 Y11.667
X53.038 Y11.721
X53.276 Y11.827
X53.486 Y11.979
X53.660 Y12.173
X53.790 Y12.398
X53.870 Y12.645
X53.897 Y12.903
X53.870 Y13.162
X53.790 Y13.409
X53.660 Y13.634
X53.486 Y13.827
X53.276 Y13.980
X53.038 Y14.086
X52.841 Y14.128
X52.275 Y16.838
X52.248 Y16.920
X52.202 Y17.001
X52.140 Y17.070
X52.067 Y17.123
X47.155 Y19.578
X47.155 Y24.341
X47.146 Y24.426
X47.118 Y24.514
X47.071 Y24.595
X47.009 Y24.664
X46.933 Y24.719
X46.848 Y24.757
X46.757 Y24.776
X44.553 Y24.776
X44.553 Y25.223
X42.873 Y25.223
G0 Z3.000
G0  X33.680 Y22.883
G0  Z3.000
G01 F400 Z0
G01 F400 Z-0.100
G01F400X33.680 Y20.703
X35.560 Y20.703
X35.560 Y21.350
X40.841 Y21.350
X40.841 Y20.903
X42.521 Y20.903
X42.521 Y22.683
X40.841 Y22.683
X40.841 Y22.236
X35.560 Y22.236
X35.560 Y22.883
X33.680 Y22.883
G0 Z3.000
G0  X33.680 Y20.343
G0  Z3.000
G01 F400 Z0
G01 F400 Z-0.100
G01F400X33.680 Y18.163
X35.560 Y18.163
X35.560 Y18.810
X40.841 Y18.810
X40.841 Y18.363
X42.521 Y18.363
X42.521 Y20.143
X40.841 Y20.143
X40.841 Y19.696
X35.560 Y19.696
X35.560 Y20.343
X33.680 Y20.343
G0 Z3.000
G0  X58.806 Y16.062
G0  Z3.000
G01 F400 Z0
G01 F400 Z-0.100
G01F400X58.417 Y15.979
X58.055 Y15.818
X57.734 Y15.584
X57.468 Y15.289
X57.270 Y14.946
X57.147 Y14.568
X57.105 Y14.173
X57.147 Y13.778
X57.270 Y13.401
X57.468 Y13.057
X57.734 Y12.762
X58.055 Y12.529
X58.417 Y12.367
X58.806 Y12.285
X59.203 Y12.285
X59.591 Y12.367
X59.954 Y12.529
X60.275 Y12.762
X60.540 Y13.057
X60.739 Y13.401
X60.861 Y13.778
X60.903 Y14.173
X60.861 Y14.568
X60.739 Y14.946
X60.540 Y15.289
X60.275 Y15.584
X59.954 Y15.818
X59.591 Y15.979
X59.203 Y16.062
X58.806 Y16.062
G0 Z3.000
G0  X44.904 Y14.140
G0  Z3.000
G01 F400 Z0
G01 F400 Z-0.100
G01F400X44.650 Y14.086
X44.413 Y13.980
X44.202 Y13.827
X44.028 Y13.634
X43.899 Y13.409
X43.818 Y13.162
X43.791 Y12.903
X43.818 Y12.645
X43.899 Y12.398
X44.028 Y12.173
X44.202 Y11.979
X44.413 Y11.827
X44.650 Y11.721
X44.904 Y11.667
X45.164 Y11.667
X45.418 Y11.721
X45.656 Y11.827
X45.866 Y11.979
X46.040 Y12.173
X46.170 Y12.398
X46.250 Y12.645
X46.277 Y12.903
X46.250 Y13.162
X46.170 Y13.409
X46.040 Y13.634
X45.866 Y13.827
X45.656 Y13.980
X45.418 Y14.086
X45.164 Y14.140
X44.904 Y14.140
G0 Z3.000
G0  X37.284 Y14.140
G0  Z3.000
G01 F400 Z0
G01 F400 Z-0.100
G01F400X37.030 Y14.086
X36.793 Y13.980
X36.582 Y13.827
X36.408 Y13.634
X36.279 Y13.409
X36.198 Y13.162
X36.171 Y12.903
X36.198 Y12.645
X36.279 Y12.398
X36.408 Y12.173
X36.582 Y11.979
X36.793 Y11.827
X37.030 Y11.721
X37.284 Y11.667
X37.544 Y11.667
X37.798 Y11.721
X38.036 Y11.827
X38.246 Y11.979
X38.420 Y12.173
X38.550 Y12.398
X38.630 Y12.645
X38.657 Y12.903
X38.630 Y13.162
X38.550 Y13.409
X38.420 Y13.634
X38.246 Y13.827
X38.036 Y13.980
X37.798 Y14.086
X37.544 Y14.140
X37.284 Y14.140
G0 Z3.000
G0  X29.664 Y14.140
G0  Z3.000
G01 F400 Z0
G01 F400 Z-0.100
G01F400X29.410 Y14.086
X29.173 Y13.980
X28.962 Y13.827
X28.788 Y13.634
X28.659 Y13.409
X28.578 Y13.162
X28.551 Y12.903
X28.578 Y12.645
X28.659 Y12.398
X28.788 Y12.173
X28.962 Y11.979
X29.173 Y11.827
X29.410 Y11.721
X29.664 Y11.667
X29.924 Y11.667
X30.178 Y11.721
X30.416 Y11.827
X30.626 Y11.979
X30.800 Y12.173
X30.930 Y12.398
X31.010 Y12.645
X31.037 Y12.903
X31.010 Y13.162
X30.930 Y13.409
X30.800 Y13.634
X30.626 Y13.827
X30.416 Y13.980
X30.178 Y14.086
X29.924 Y14.140
X29.664 Y14.140
G0 Z3.000
G0  X32.204 Y14.140
G0  Z3.000
G01 F400 Z0
G01 F400 Z-0.100
G01F400X31.950 Y14.086
X31.713 Y13.980
X31.502 Y13.827
X31.328 Y13.634
X31.199 Y13.409
X31.118 Y13.162
X31.091 Y12.903
X31.118 Y12.645
X31.199 Y12.398
X31.328 Y12.173
X31.502 Y11.979
X31.713 Y11.827
X31.950 Y11.721
X32.204 Y11.667
X32.464 Y11.667
X32.718 Y11.721
X32.956 Y11.827
X33.166 Y11.979
X33.340 Y12.173
X33.470 Y12.398
X33.550 Y12.645
X33.577 Y12.903
X33.550 Y13.162
X33.470 Y13.409
X33.340 Y13.634
X33.166 Y13.827
X32.956 Y13.980
X32.718 Y14.086
X32.464 Y14.140
X32.204 Y14.140
G0 Z3.000
G0  X24.584 Y14.140
G0  Z3.000
G01 F400 Z0
G01 F400 Z-0.100
G01F400X24.330 Y14.086
X24.093 Y13.980
X23.882 Y13.827
X23.708 Y13.634
X23.579 Y13.409
X23.498 Y13.162
X23.471 Y12.903
X23.498 Y12.645
X23.579 Y12.398
X23.708 Y12.173
X23.882 Y11.979
X24.093 Y11.827
X24.330 Y11.721
X24.584 Y11.667
X24.844 Y11.667
X25.098 Y11.721
X25.336 Y11.827
X25.546 Y11.979
X25.720 Y12.173
X25.850 Y12.398
X25.930 Y12.645
X25.957 Y12.903
X25.930 Y13.162
X25.850 Y13.409
X25.720 Y13.634
X25.546 Y13.827
X25.336 Y13.980
X25.098 Y14.086
X24.844 Y14.140
X24.584 Y14.140
G0 Z3.000
G0  X42.364 Y14.140
G0  Z3.000
G01 F400 Z0
G01 F400 Z-0.100
G01F400X42.110 Y14.086
X41.873 Y13.980
X41.662 Y13.827
X41.488 Y13.634
X41.358 Y13.409
X41.278 Y13.162
X41.251 Y12.903
X41.278 Y12.645
X41.358 Y12.398
X41.488 Y12.173
X41.662 Y11.979
X41.873 Y11.827
X42.110 Y11.721
X42.364 Y11.667
X42.624 Y11.667
X42.878 Y11.721
X43.116 Y11.827
X43.326 Y11.979
X43.500 Y12.173
X43.630 Y12.398
X43.710 Y12.645
X43.737 Y12.903
X43.710 Y13.162
X43.630 Y13.409
X43.500 Y13.634
X43.326 Y13.827
X43.116 Y13.980
X42.878 Y14.086
X42.624 Y14.140
X42.364 Y14.140
G0 Z3.000
G0  X34.744 Y14.140
G0  Z3.000
G01 F400 Z0
G01 F400 Z-0.100
G01F400X34.490 Y14.086
X34.253 Y13.980
X34.042 Y13.827
X33.868 Y13.634
X33.739 Y13.409
X33.658 Y13.162
X33.631 Y12.903
X33.658 Y12.645
X33.739 Y12.398
X33.868 Y12.173
X34.042 Y11.979
X34.253 Y11.827
X34.490 Y11.721
X34.744 Y11.667
X35.004 Y11.667
X35.258 Y11.721
X35.496 Y11.827
X35.706 Y11.979
X35.880 Y12.173
X36.010 Y12.398
X36.090 Y12.645
X36.117 Y12.903
X36.090 Y13.162
X36.010 Y13.409
X35.880 Y13.634
X35.706 Y13.827
X35.496 Y13.980
X35.258 Y14.086
X35.004 Y14.140
X34.744 Y14.140
G0 Z3.000
G0  X27.124 Y14.140
G0  Z3.000
G01 F400 Z0
G01 F400 Z-0.100
G01F400X26.870 Y14.086
X26.633 Y13.980
X26.422 Y13.827
X26.248 Y13.634
X26.119 Y13.409
X26.038 Y13.162
X26.011 Y12.903
X26.038 Y12.645
X26.119 Y12.398
X26.248 Y12.173
X26.422 Y11.979
X26.633 Y11.827
X26.870 Y11.721
X27.124 Y11.667
X27.384 Y11.667
X27.638 Y11.721
X27.876 Y11.827
X28.086 Y11.979
X28.260 Y12.173
X28.390 Y12.398
X28.470 Y12.645
X28.497 Y12.903
X28.470 Y13.162
X28.390 Y13.409
X28.260 Y13.634
X28.086 Y13.827
X27.876 Y13.980
X27.638 Y14.086
X27.384 Y14.140
X27.124 Y14.140
G0 Z3.000
G0  X19.504 Y14.140
G0  Z3.000
G01 F400 Z0
G01 F400 Z-0.100
G01F400X19.250 Y14.086
X19.013 Y13.980
X18.802 Y13.827
X18.628 Y13.634
X18.498 Y13.409
X18.418 Y13.162
X18.391 Y12.903
X18.418 Y12.645
X18.498 Y12.398
X18.628 Y12.173
X18.802 Y11.979
X19.013 Y11.827
X19.250 Y11.721
X19.504 Y11.667
X19.764 Y11.667
X20.018 Y11.721
X20.256 Y11.827
X20.466 Y11.979
X20.640 Y12.173
X20.770 Y12.398
X20.850 Y12.645
X20.877 Y12.903
X20.850 Y13.162
X20.770 Y13.409
X20.640 Y13.634
X20.466 Y13.827
X20.256 Y13.980
X20.018 Y14.086
X19.764 Y14.140
X19.504 Y14.140
G0 Z3.000
G0  X16.964 Y14.140
G0  Z3.000
G01 F400 Z0
G01 F400 Z-0.100
G01F400X16.710 Y14.086
X16.473 Y13.980
X16.262 Y13.827
X16.088 Y13.634
X15.959 Y13.409
X15.878 Y13.162
X15.851 Y12.903
X15.878 Y12.645
X15.959 Y12.398
X16.088 Y12.173
X16.262 Y11.979
X16.473 Y11.827
X16.710 Y11.721
X16.964 Y11.667
X17.224 Y11.667
X17.478 Y11.721
X17.716 Y11.827
X17.926 Y11.979
X18.100 Y12.173
X18.230 Y12.398
X18.310 Y12.645
X18.337 Y12.903
X18.310 Y13.162
X18.230 Y13.409
X18.100 Y13.634
X17.926 Y13.827
X17.716 Y13.980
X17.478 Y14.086
X17.224 Y14.140
X16.964 Y14.140
G0 Z3.000
G0  X22.044 Y14.140
G0  Z3.000
G01 F400 Z0
G01 F400 Z-0.100
G01F400X21.790 Y14.086
X21.553 Y13.980
X21.342 Y13.827
X21.168 Y13.634
X21.039 Y13.409
X20.958 Y13.162
X20.931 Y12.903
X20.958 Y12.645
X21.039 Y12.398
X21.168 Y12.173
X21.342 Y11.979
X21.553 Y11.827
X21.790 Y11.721
X22.044 Y11.667
X22.304 Y11.667
X22.558 Y11.721
X22.796 Y11.827
X23.006 Y11.979
X23.180 Y12.173
X23.310 Y12.398
X23.390 Y12.645
X23.417 Y12.903
X23.390 Y13.162
X23.310 Y13.409
X23.180 Y13.634
X23.006 Y13.827
X22.796 Y13.980
X22.558 Y14.086
X22.304 Y14.140
X22.044 Y14.140
G0 Z3.000
G0  X49.984 Y14.140
G0  Z3.000
G01 F400 Z0
G01 F400 Z-0.100
G01F400X49.730 Y14.086
X49.493 Y13.980
X49.282 Y13.827
X49.108 Y13.634
X48.979 Y13.409
X48.898 Y13.162
X48.871 Y12.903
X48.898 Y12.645
X48.979 Y12.398
X49.108 Y12.173
X49.282 Y11.979
X49.493 Y11.827
X49.730 Y11.721
X49.984 Y11.667
X50.244 Y11.667
X50.498 Y11.721
X50.736 Y11.827
X50.946 Y11.979
X51.120 Y12.173
X51.250 Y12.398
X51.330 Y12.645
X51.357 Y12.903
X51.330 Y13.162
X51.250 Y13.409
X51.120 Y13.634
X50.946 Y13.827
X50.736 Y13.980
X50.498 Y14.086
X50.244 Y14.140
X49.984 Y14.140
G0 Z3.000
G0  X55.064 Y14.140
G0  Z3.000
G01 F400 Z0
G01 F400 Z-0.100
G01F400X54.810 Y14.086
X54.573 Y13.980
X54.362 Y13.827
X54.188 Y13.634
X54.059 Y13.409
X53.978 Y13.162
X53.951 Y12.903
X53.978 Y12.645
X54.059 Y12.398
X54.188 Y12.173
X54.362 Y11.979
X54.573 Y11.827
X54.810 Y11.721
X55.064 Y11.667
X55.324 Y11.667
X55.578 Y11.721
X55.816 Y11.827
X56.026 Y11.979
X56.200 Y12.173
X56.330 Y12.398
X56.410 Y12.645
X56.437 Y12.903
X56.410 Y13.162
X56.330 Y13.409
X56.200 Y13.634
X56.026 Y13.827
X55.816 Y13.980
X55.578 Y14.086
X55.324 Y14.140
X55.064 Y14.140
G0 Z3.000
G0  X39.824 Y14.140
G0  Z3.000
G01 F400 Z0
G01 F400 Z-0.100
G01F400X39.570 Y14.086
X39.333 Y13.980
X39.122 Y13.827
X38.948 Y13.634
X38.819 Y13.409
X38.738 Y13.162
X38.711 Y12.903
X38.738 Y12.645
X38.819 Y12.398
X38.948 Y12.173
X39.122 Y11.979
X39.333 Y11.827
X39.570 Y11.721
X39.824 Y11.667
X40.084 Y11.667
X40.338 Y11.721
X40.576 Y11.827
X40.786 Y11.979
X40.960 Y12.173
X41.090 Y12.398
X41.170 Y12.645
X41.197 Y12.903
X41.170 Y13.162
X41.090 Y13.409
X40.960 Y13.634
X40.786 Y13.827
X40.576 Y13.980
X40.338 Y14.086
X40.084 Y14.140
X39.824 Y14.140
G0 Z3.000
G0  X16.955 Y34.550
G0  Z3.000
G01 F400 Z0
G01 F400 Z-0.100
G01F400X16.682 Y34.492
X16.427 Y34.378
X16.202 Y34.214
X16.015 Y34.007
X15.876 Y33.766
X15.790 Y33.501
X15.761 Y33.223
X15.790 Y32.946
X15.876 Y32.681
X16.015 Y32.439
X16.202 Y32.232
X16.427 Y32.068
X16.682 Y31.955
X16.955 Y31.897
X17.234 Y31.897
X17.506 Y31.955
X17.761 Y32.068
X17.987 Y32.232
X18.173 Y32.439
X18.313 Y32.681
X18.364 Y32.840
X18.416 Y32.681
X18.555 Y32.439
X18.742 Y32.232
X18.967 Y32.068
X19.222 Y31.955
X19.495 Y31.897
X19.774 Y31.897
X20.046 Y31.955
X20.301 Y32.068
X20.527 Y32.232
X20.713 Y32.439
X20.853 Y32.681
X20.904 Y32.840
X20.956 Y32.681
X21.095 Y32.439
X21.282 Y32.232
X21.507 Y32.068
X21.762 Y31.955
X22.035 Y31.897
X22.314 Y31.897
X22.586 Y31.955
X22.841 Y32.068
X23.067 Y32.232
X23.253 Y32.439
X23.393 Y32.681
X23.444 Y32.840
X23.496 Y32.681
X23.635 Y32.439
X23.822 Y32.232
X24.047 Y32.068
X24.302 Y31.955
X24.575 Y31.897
X24.854 Y31.897
X25.126 Y31.955
X25.381 Y32.068
X25.607 Y32.232
X25.793 Y32.439
X25.933 Y32.681
X25.984 Y32.840
X26.036 Y32.681
X26.175 Y32.439
X26.362 Y32.232
X26.587 Y32.068
X26.842 Y31.955
X27.115 Y31.897
X27.394 Y31.897
X27.666 Y31.955
X27.921 Y32.068
X28.147 Y32.232
X28.333 Y32.439
X28.473 Y32.681
X28.524 Y32.840
X28.576 Y32.681
X28.715 Y32.439
X28.902 Y32.232
X29.127 Y32.068
X29.382 Y31.955
X29.655 Y31.897
X29.934 Y31.897
X30.206 Y31.955
X30.461 Y32.068
X30.687 Y32.232
X30.873 Y32.439
X31.013 Y32.681
X31.064 Y32.840
X31.116 Y32.681
X31.255 Y32.439
X31.442 Y32.232
X31.667 Y32.068
X31.922 Y31.955
X32.195 Y31.897
X32.474 Y31.897
X32.746 Y31.955
X33.001 Y32.068
X33.227 Y32.232
X33.413 Y32.439
X33.553 Y32.681
X33.604 Y32.840
X33.656 Y32.681
X33.795 Y32.439
X33.982 Y32.232
X34.207 Y32.068
X34.462 Y31.955
X34.735 Y31.897
X35.014 Y31.897
X35.286 Y31.955
X35.541 Y32.068
X35.767 Y32.232
X35.953 Y32.439
X36.093 Y32.681
X36.144 Y32.840
X36.196 Y32.681
X36.335 Y32.439
X36.522 Y32.232
X36.747 Y32.068
X37.002 Y31.955
X37.275 Y31.897
X37.554 Y31.897
X37.826 Y31.955
X38.081 Y32.068
X38.307 Y32.232
X38.493 Y32.439
X38.633 Y32.681
X38.684 Y32.840
X38.736 Y32.681
X38.875 Y32.439
X39.062 Y32.232
X39.287 Y32.068
X39.542 Y31.955
X39.815 Y31.897
X40.094 Y31.897
X40.366 Y31.955
X40.621 Y32.068
X40.847 Y32.232
X41.033 Y32.439
X41.173 Y32.681
X41.224 Y32.840
X41.276 Y32.681
X41.415 Y32.439
X41.602 Y32.232
X41.827 Y32.068
X42.082 Y31.955
X42.355 Y31.897
X42.634 Y31.897
X42.906 Y31.955
X43.161 Y32.068
X43.387 Y32.232
X43.573 Y32.439
X43.713 Y32.681
X43.764 Y32.840
X43.816 Y32.681
X43.955 Y32.439
X44.142 Y32.232
X44.367 Y32.068
X44.622 Y31.955
X44.895 Y31.897
X45.174 Y31.897
X45.446 Y31.955
X45.701 Y32.068
X45.927 Y32.232
X46.113 Y32.439
X46.253 Y32.681
X46.339 Y32.946
X46.368 Y33.223
X46.339 Y33.501
X46.253 Y33.766
X46.113 Y34.007
X45.927 Y34.214
X45.701 Y34.378
X45.446 Y34.492
X45.174 Y34.550
X44.895 Y34.550
X44.622 Y34.492
X44.367 Y34.378
X44.142 Y34.214
X43.955 Y34.007
X43.816 Y33.766
X43.764 Y33.607
X43.713 Y33.766
X43.573 Y34.007
X43.387 Y34.214
X43.161 Y34.378
X42.906 Y34.492
X42.634 Y34.550
X42.355 Y34.550
X42.082 Y34.492
X41.827 Y34.378
X41.602 Y34.214
X41.415 Y34.007
X41.276 Y33.766
X41.224 Y33.607
X41.173 Y33.766
X41.033 Y34.007
X40.847 Y34.214
X40.621 Y34.378
X40.366 Y34.492
X40.094 Y34.550
X39.815 Y34.550
X39.542 Y34.492
X39.287 Y34.378
X39.062 Y34.214
X38.875 Y34.007
X38.736 Y33.766
X38.684 Y33.607
X38.633 Y33.766
X38.493 Y34.007
X38.307 Y34.214
X38.081 Y34.378
X37.826 Y34.492
X37.554 Y34.550
X37.275 Y34.550
X37.002 Y34.492
X36.747 Y34.378
X36.522 Y34.214
X36.335 Y34.007
X36.196 Y33.766
X36.144 Y33.607
X36.093 Y33.766
X35.953 Y34.007
X35.767 Y34.214
X35.541 Y34.378
X35.286 Y34.492
X35.014 Y34.550
X34.735 Y34.550
X34.462 Y34.492
X34.207 Y34.378
X33.982 Y34.214
X33.795 Y34.007
X33.656 Y33.766
X33.604 Y33.607
X33.553 Y33.766
X33.413 Y34.007
X33.227 Y34.214
X33.001 Y34.378
X32.746 Y34.492
X32.474 Y34.550
X32.195 Y34.550
X31.922 Y34.492
X31.667 Y34.378
X31.442 Y34.214
X31.255 Y34.007
X31.116 Y33.766
X31.064 Y33.607
X31.013 Y33.766
X30.873 Y34.007
X30.687 Y34.214
X30.461 Y34.378
X30.206 Y34.492
X29.934 Y34.550
X29.655 Y34.550
X29.382 Y34.492
X29.127 Y34.378
X28.902 Y34.214
X28.715 Y34.007
X28.576 Y33.766
X28.524 Y33.607
X28.473 Y33.766
X28.333 Y34.007
X28.147 Y34.214
X27.921 Y34.378
X27.666 Y34.492
X27.394 Y34.550
X27.115 Y34.550
X26.842 Y34.492
X26.587 Y34.378
X26.362 Y34.214
X26.175 Y34.007
X26.036 Y33.766
X25.984 Y33.607
X25.933 Y33.766
X25.793 Y34.007
X25.607 Y34.214
X25.381 Y34.378
X25.126 Y34.492
X24.854 Y34.550
X24.575 Y34.550
X24.302 Y34.492
X24.047 Y34.378
X23.822 Y34.214
X23.635 Y34.007
X23.496 Y33.766
X23.444 Y33.607
X23.393 Y33.766
X23.253 Y34.007
X23.067 Y34.214
X22.841 Y34.378
X22.586 Y34.492
X22.314 Y34.550
X22.035 Y34.550
X21.762 Y34.492
X21.507 Y34.378
X21.282 Y34.214
X21.095 Y34.007
X20.956 Y33.766
X20.904 Y33.607
X20.853 Y33.766
X20.713 Y34.007
X20.527 Y34.214
X20.301 Y34.378
X20.046 Y34.492
X19.774 Y34.550
X19.495 Y34.550
X19.222 Y34.492
X18.967 Y34.378
X18.742 Y34.214
X18.555 Y34.007
X18.416 Y33.766
X18.364 Y33.607
X18.313 Y33.766
X18.173 Y34.007
X17.987 Y34.214
X17.761 Y34.378
X17.506 Y34.492
X17.234 Y34.550
X16.955 Y34.550
G0 Z3.000
G0  X58.796 Y33.932
G0  Z3.000
G01 F400 Z0
G01 F400 Z-0.100
G01F400X58.389 Y33.845
X58.010 Y33.676
X57.673 Y33.432
X57.395 Y33.123
X57.187 Y32.762
X57.058 Y32.367
X57.015 Y31.953
X57.058 Y31.540
X57.187 Y31.144
X57.395 Y30.784
X57.673 Y30.475
X58.010 Y30.230
X58.389 Y30.061
X58.796 Y29.975
X59.212 Y29.975
X59.619 Y30.061
X59.999 Y30.230
X60.335 Y30.475
X60.614 Y30.784
X60.822 Y31.144
X60.950 Y31.540
X60.994 Y31.953
X60.950 Y32.367
X60.822 Y32.762
X60.614 Y33.123
X60.335 Y33.432
X59.999 Y33.676
X59.619 Y33.845
X59.212 Y33.932
X58.796 Y33.932
G0 Z3.000
G0  X30.491 Y25.513
G0  Z3.000
G01 F400 Z0
G01 F400 Z-0.100
G01F400X30.491 Y24.866
X28.976 Y24.866
X28.867 Y24.843
X28.764 Y24.797
X28.674 Y24.732
X28.599 Y24.648
X28.542 Y24.551
X28.508 Y24.445
X28.497 Y24.345
X28.497 Y16.727
X28.508 Y16.627
X28.542 Y16.521
X28.599 Y16.424
X28.674 Y16.340
X28.764 Y16.274
X28.867 Y16.229
X28.976 Y16.206
X46.283 Y16.206
X46.788 Y13.971
X46.682 Y13.894
X46.495 Y13.687
X46.356 Y13.446
X46.304 Y13.287
X46.253 Y13.446
X46.113 Y13.687
X45.927 Y13.894
X45.701 Y14.058
X45.446 Y14.172
X45.174 Y14.230
X44.895 Y14.230
X44.622 Y14.172
X44.367 Y14.058
X44.142 Y13.894
X43.955 Y13.687
X43.816 Y13.446
X43.764 Y13.287
X43.713 Y13.446
X43.573 Y13.687
X43.387 Y13.894
X43.161 Y14.058
X42.906 Y14.172
X42.634 Y14.230
X42.355 Y14.230
X42.082 Y14.172
X41.827 Y14.058
X41.602 Y13.894
X41.415 Y13.687
X41.276 Y13.446
X41.224 Y13.287
X41.173 Y13.446
X41.033 Y13.687
X40.847 Y13.894
X40.621 Y14.058
X40.366 Y14.172
X40.094 Y14.230
X39.815 Y14.230
X39.542 Y14.172
X39.287 Y14.058
X39.062 Y13.894
X38.875 Y13.687
X38.736 Y13.446
X38.684 Y13.287
X38.633 Y13.446
X38.493 Y13.687
X38.307 Y13.894
X38.081 Y14.058
X37.826 Y14.172
X37.554 Y14.230
X37.275 Y14.230
X37.002 Y14.172
X36.747 Y14.058
X36.522 Y13.894
X36.335 Y13.687
X36.196 Y13.446
X36.144 Y13.287
X36.093 Y13.446
X35.953 Y13.687
X35.767 Y13.894
X35.541 Y14.058
X35.286 Y14.172
X35.014 Y14.230
X34.735 Y14.230
X34.462 Y14.172
X34.207 Y14.058
X33.982 Y13.894
X33.795 Y13.687
X33.656 Y13.446
X33.604 Y13.287
X33.553 Y13.446
X33.413 Y13.687
X33.227 Y13.894
X33.001 Y14.058
X32.746 Y14.172
X32.474 Y14.230
X32.195 Y14.230
X31.922 Y14.172
X31.667 Y14.058
X31.442 Y13.894
X31.255 Y13.687
X31.116 Y13.446
X31.064 Y13.287
X31.013 Y13.446
X30.873 Y13.687
X30.687 Y13.894
X30.461 Y14.058
X30.206 Y14.172
X29.934 Y14.230
X29.655 Y14.230
X29.382 Y14.172
X29.127 Y14.058
X28.902 Y13.894
X28.715 Y13.687
X28.576 Y13.446
X28.524 Y13.287
X28.473 Y13.446
X28.333 Y13.687
X28.147 Y13.894
X27.921 Y14.058
X27.666 Y14.172
X27.394 Y14.230
X27.115 Y14.230
X26.842 Y14.172
X26.587 Y14.058
X26.362 Y13.894
X26.175 Y13.687
X26.036 Y13.446
X25.984 Y13.287
X25.933 Y13.446
X25.793 Y13.687
X25.607 Y13.894
X25.381 Y14.058
X25.126 Y14.172
X24.854 Y14.230
X24.575 Y14.230
X24.302 Y14.172
X24.047 Y14.058
X23.822 Y13.894
X23.635 Y13.687
X23.496 Y13.446
X23.444 Y13.287
X23.393 Y13.446
X23.253 Y13.687
X23.067 Y13.894
X22.841 Y14.058
X22.586 Y14.172
X22.314 Y14.230
X22.035 Y14.230
X21.762 Y14.172
X21.507 Y14.058
X21.282 Y13.894
X21.095 Y13.687
X20.956 Y13.446
X20.904 Y13.287
X20.853 Y13.446
X20.713 Y13.687
X20.527 Y13.894
X20.301 Y14.058
X20.046 Y14.172
X19.774 Y14.230
X19.495 Y14.230
X19.222 Y14.172
X18.967 Y14.058
X18.742 Y13.894
X18.555 Y13.687
X18.416 Y13.446
X18.364 Y13.287
X18.313 Y13.446
X18.173 Y13.687
X17.987 Y13.894
X17.761 Y14.058
X17.506 Y14.172
X17.234 Y14.230
X16.955 Y14.230
X16.682 Y14.172
X16.427 Y14.058
X16.202 Y13.894
X16.015 Y13.687
X15.876 Y13.446
X15.790 Y13.181
X15.761 Y12.903
X15.790 Y12.626
X15.876 Y12.361
X16.015 Y12.119
X16.202 Y11.912
X16.427 Y11.748
X16.682 Y11.635
X16.955 Y11.577
X17.234 Y11.577
X17.506 Y11.635
X17.761 Y11.748
X17.987 Y11.912
X18.173 Y12.119
X18.313 Y12.361
X18.364 Y12.520
X18.416 Y12.361
X18.555 Y12.119
X18.742 Y11.912
X18.967 Y11.748
X19.222 Y11.635
X19.495 Y11.577
X19.774 Y11.577
X20.046 Y11.635
X20.301 Y11.748
X20.527 Y11.912
X20.713 Y12.119
X20.853 Y12.361
X20.904 Y12.520
X20.956 Y12.361
X21.095 Y12.119
X21.282 Y11.912
X21.507 Y11.748
X21.762 Y11.635
X22.035 Y11.577
X22.314 Y11.577
X22.586 Y11.635
X22.841 Y11.748
X23.067 Y11.912
X23.253 Y12.119
X23.393 Y12.361
X23.444 Y12.520
X23.496 Y12.361
X23.635 Y12.119
X23.822 Y11.912
X24.047 Y11.748
X24.302 Y11.635
X24.575 Y11.577
X24.854 Y11.577
X25.126 Y11.635
X25.381 Y11.748
X25.607 Y11.912
X25.793 Y12.119
X25.933 Y12.361
X25.984 Y12.520
X26.036 Y12.361
X26.175 Y12.119
X26.362 Y11.912
X26.587 Y11.748
X26.842 Y11.635
X27.115 Y11.577
X27.394 Y11.577
X27.666 Y11.635
X27.921 Y11.748
X28.147 Y11.912
X28.333 Y12.119
X28.473 Y12.361
X28.524 Y12.520
X28.576 Y12.361
X28.715 Y12.119
X28.902 Y11.912
X29.127 Y11.748
X29.382 Y11.635
X29.655 Y11.577
X29.934 Y11.577
X30.206 Y11.635
X30.461 Y11.748
X30.687 Y11.912
X30.873 Y12.119
X31.013 Y12.361
X31.064 Y12.520
X31.116 Y12.361
X31.255 Y12.119
X31.442 Y11.912
X31.667 Y11.748
X31.922 Y11.635
X32.195 Y11.577
X32.474 Y11.577
X32.746 Y11.635
X33.001 Y11.748
X33.227 Y11.912
X33.413 Y12.119
X33.553 Y12.361
X33.604 Y12.520
X33.656 Y12.361
X33.795 Y12.119
X33.982 Y11.912
X34.207 Y11.748
X34.462 Y11.635
X34.735 Y11.577
X35.014 Y11.577
X35.286 Y11.635
X35.541 Y11.748
X35.767 Y11.912
X35.953 Y12.119
X36.093 Y12.361
X36.144 Y12.520
X36.196 Y12.361
X36.335 Y12.119
X36.522 Y11.912
X36.747 Y11.748
X37.002 Y11.635
X37.275 Y11.577
X37.554 Y11.577
X37.826 Y11.635
X38.081 Y11.748
X38.307 Y11.912
X38.493 Y12.119
X38.633 Y12.361
X38.684 Y12.520
X38.736 Y12.361
X38.875 Y12.119
X39.062 Y11.912
X39.287 Y11.748
X39.542 Y11.635
X39.815 Y11.577
X40.094 Y11.577
X40.366 Y11.635
X40.621 Y11.748
X40.847 Y11.912
X41.033 Y12.119
X41.173 Y12.361
X41.224 Y12.520
X41.276 Y12.361
X41.415 Y12.119
X41.602 Y11.912
X41.827 Y11.748
X42.082 Y11.635
X42.355 Y11.577
X42.634 Y11.577
X42.906 Y11.635
X43.161 Y11.748
X43.387 Y11.912
X43.573 Y12.119
X43.713 Y12.361
X43.764 Y12.520
X43.816 Y12.361
X43.955 Y12.119
X44.142 Y11.912
X44.367 Y11.748
X44.622 Y11.635
X44.895 Y11.577
X45.174 Y11.577
X45.446 Y11.635
X45.701 Y11.748
X45.927 Y11.912
X46.113 Y12.119
X46.253 Y12.361
X46.304 Y12.520
X46.356 Y12.361
X46.495 Y12.119
X46.682 Y11.912
X46.907 Y11.748
X47.162 Y11.635
X47.435 Y11.577
X47.714 Y11.577
X47.986 Y11.635
X48.241 Y11.748
X48.467 Y11.912
X48.653 Y12.119
X48.793 Y12.361
X48.844 Y12.520
X48.896 Y12.361
X49.035 Y12.119
X49.222 Y11.912
X49.447 Y11.748
X49.702 Y11.635
X49.975 Y11.577
X50.254 Y11.577
X50.526 Y11.635
X50.781 Y11.748
X51.007 Y11.912
X51.193 Y12.119
X51.333 Y12.361
X51.384 Y12.520
X51.436 Y12.361
X51.575 Y12.119
X51.762 Y11.912
X51.987 Y11.748
X52.242 Y11.635
X52.515 Y11.577
X52.794 Y11.577
X53.066 Y11.635
X53.321 Y11.748
X53.547 Y11.912
X53.733 Y12.119
X53.873 Y12.361
X53.924 Y12.520
X53.976 Y12.361
X54.115 Y12.119
X54.302 Y11.912
X54.527 Y11.748
X54.782 Y11.635
X55.055 Y11.577
X55.334 Y11.577
X55.606 Y11.635
X55.861 Y11.748
X56.087 Y11.912
X56.273 Y12.119
X56.413 Y12.361
X56.499 Y12.626
X56.528 Y12.903
X56.499 Y13.181
X56.413 Y13.446
X56.273 Y13.687
X56.087 Y13.894
X55.861 Y14.058
X55.606 Y14.172
X55.334 Y14.230
X55.055 Y14.230
X54.782 Y14.172
X54.527 Y14.058
X54.302 Y13.894
X54.115 Y13.687
X53.976 Y13.446
X53.924 Y13.287
X53.873 Y13.446
X53.733 Y13.687
X53.547 Y13.894
X53.321 Y14.058
X53.066 Y14.172
X52.917 Y14.203
X52.362 Y16.861
X52.331 Y16.957
X52.275 Y17.054
X52.200 Y17.137
X52.114 Y17.200
X47.245 Y19.634
X47.245 Y24.345
X47.235 Y24.445
X47.200 Y24.551
X47.144 Y24.648
X47.069 Y24.732
X46.979 Y24.797
X46.876 Y24.843
X46.767 Y24.866
X44.643 Y24.866
X44.643 Y25.313
X42.783 Y25.313
X42.783 Y23.353
X44.643 Y23.353
X44.643 Y23.800
X46.176 Y23.800
X46.176 Y22.307
X44.643 Y22.323
X44.643 Y22.773
X42.783 Y22.773
X42.783 Y20.813
X44.643 Y20.813
X44.643 Y21.256
X46.176 Y21.240
X46.176 Y19.827
X44.643 Y19.795
X44.643 Y20.233
X42.783 Y20.233
X42.783 Y18.273
X44.643 Y18.273
X44.643 Y18.727
X46.589 Y18.768
X51.371 Y16.377
X51.872 Y13.974
X51.762 Y13.894
X51.575 Y13.687
X51.436 Y13.446
X51.384 Y13.287
X51.333 Y13.446
X51.193 Y13.687
X51.007 Y13.894
X50.781 Y14.058
X50.526 Y14.172
X50.254 Y14.230
X49.975 Y14.230
X49.702 Y14.172
X49.447 Y14.058
X49.222 Y13.894
X49.035 Y13.687
X48.896 Y13.446
X48.844 Y13.287
X48.793 Y13.446
X48.653 Y13.687
X48.467 Y13.894
X48.241 Y14.058
X47.986 Y14.172
X47.832 Y14.204
X47.231 Y16.863
X47.200 Y16.957
X47.144 Y17.054
X47.069 Y17.137
X46.979 Y17.203
X46.876 Y17.248
X46.767 Y17.272
X29.567 Y17.272
X29.567 Y18.763
X30.491 Y18.750
X30.491 Y18.073
X32.551 Y18.073
X32.551 Y20.433
X30.491 Y20.433
X30.491 Y19.817
X29.567 Y19.830
X29.567 Y21.242
X30.491 Y21.254
X30.491 Y20.613
X32.551 Y20.613
X32.551 Y22.973
X30.491 Y22.973
X30.491 Y22.322
X29.567 Y22.309
X29.567 Y23.800
X30.491 Y23.800
X30.491 Y23.153
X32.551 Y23.153
X32.551 Y25.513
X30.491 Y25.513
G0 Z3.000
G0  X33.590 Y25.513
G0  Z3.000
G01 F400 Z0
G01 F400 Z-0.100
G01F400X33.590 Y23.153
X35.650 Y23.153
X35.650 Y23.800
X40.751 Y23.800
X40.751 Y23.353
X42.611 Y23.353
X42.611 Y25.313
X40.751 Y25.313
X40.751 Y24.866
X35.650 Y24.866
X35.650 Y25.513
X33.590 Y25.513
G0 Z3.000
G0  X33.590 Y22.973
G0  Z3.000
G01 F400 Z0
G01 F400 Z-0.100
G01F400X33.590 Y20.613
X35.650 Y20.613
X35.650 Y21.260
X40.751 Y21.260
X40.751 Y20.813
X42.611 Y20.813
X42.611 Y22.773
X40.751 Y22.773
X40.751 Y22.326
X35.650 Y22.326
X35.650 Y22.973
X33.590 Y22.973
G0 Z3.000
G0  X33.590 Y20.433
G0  Z3.000
G01 F400 Z0
G01 F400 Z-0.100
G01F400X33.590 Y18.073
X35.650 Y18.073
X35.650 Y18.720
X40.751 Y18.720
X40.751 Y18.273
X42.611 Y18.273
X42.611 Y20.233
X40.751 Y20.233
X40.751 Y19.786
X35.650 Y19.786
X35.650 Y20.433
X33.590 Y20.433
G0 Z3.000
G0  X58.796 Y16.152
G0  Z3.000
G01 F400 Z0
G01 F400 Z-0.100
G01F400X58.389 Y16.065
X58.010 Y15.896
X57.673 Y15.652
X57.395 Y15.343
X57.187 Y14.982
X57.058 Y14.587
X57.015 Y14.173
X57.058 Y13.760
X57.187 Y13.364
X57.395 Y13.004
X57.673 Y12.695
X58.010 Y12.450
X58.389 Y12.281
X58.796 Y12.195
X59.212 Y12.195
X59.619 Y12.281
X59.999 Y12.450
X60.335 Y12.695
X60.614 Y13.004
X60.822 Y13.364
X60.950 Y13.760
X60.994 Y14.173
X60.950 Y14.587
X60.822 Y14.982
X60.614 Y15.343
X60.335 Y15.652
X59.999 Y15.896
X59.619 Y16.065
X59.212 Y16.152
X58.796 Y16.152
G0 Z3.000
G0  X16.945 Y34.640
G0  Z3.000
G01 F400 Z0
G01 F400 Z-0.100
G01F400X16.654 Y34.578
X16.382 Y34.457
X16.141 Y34.282
X15.942 Y34.060
X15.793 Y33.802
X15.701 Y33.519
X15.670 Y33.223
X15.701 Y32.927
X15.793 Y32.644
X15.942 Y32.386
X16.141 Y32.165
X16.382 Y31.990
X16.654 Y31.869
X16.945 Y31.807
X17.243 Y31.807
X17.534 Y31.869
X17.806 Y31.990
X18.047 Y32.165
X18.246 Y32.386
X18.364 Y32.590
X18.482 Y32.386
X18.681 Y32.165
X18.922 Y31.990
X19.194 Y31.869
X19.485 Y31.807
X19.783 Y31.807
X20.074 Y31.869
X20.346 Y31.990
X20.587 Y32.165
X20.786 Y32.386
X20.904 Y32.590
X21.022 Y32.386
X21.221 Y32.165
X21.462 Y31.990
X21.734 Y31.869
X22.025 Y31.807
X22.323 Y31.807
X22.614 Y31.869
X22.886 Y31.990
X23.127 Y32.165
X23.326 Y32.386
X23.444 Y32.590
X23.562 Y32.386
X23.761 Y32.165
X24.002 Y31.990
X24.274 Y31.869
X24.565 Y31.807
X24.863 Y31.807
X25.154 Y31.869
X25.426 Y31.990
X25.667 Y32.165
X25.866 Y32.386
X25.984 Y32.590
X26.102 Y32.386
X26.301 Y32.165
X26.542 Y31.990
X26.814 Y31.869
X27.105 Y31.807
X27.403 Y31.807
X27.694 Y31.869
X27.966 Y31.990
X28.207 Y32.165
X28.406 Y32.386
X28.524 Y32.590
X28.642 Y32.386
X28.841 Y32.165
X29.082 Y31.990
X29.354 Y31.869
X29.645 Y31.807
X29.943 Y31.807
X30.234 Y31.869
X30.506 Y31.990
X30.747 Y32.165
X30.946 Y32.386
X31.064 Y32.590
X31.182 Y32.386
X31.381 Y32.165
X31.622 Y31.990
X31.894 Y31.869
X32.185 Y31.807
X32.483 Y31.807
X32.774 Y31.869
X33.046 Y31.990
X33.287 Y32.165
X33.486 Y32.386
X33.604 Y32.590
X33.722 Y32.386
X33.921 Y32.165
X34.162 Y31.990
X34.434 Y31.869
X34.725 Y31.807
X35.023 Y31.807
X35.314 Y31.869
X35.586 Y31.990
X35.827 Y32.165
X36.026 Y32.386
X36.144 Y32.590
X36.262 Y32.386
X36.461 Y32.165
X36.702 Y31.990
X36.974 Y31.869
X37.265 Y31.807
X37.563 Y31.807
X37.854 Y31.869
X38.126 Y31.990
X38.367 Y32.165
X38.566 Y32.386
X38.684 Y32.590
X38.802 Y32.386
X39.001 Y32.165
X39.242 Y31.990
X39.514 Y31.869
X39.805 Y31.807
X40.103 Y31.807
X40.394 Y31.869
X40.666 Y31.990
X40.907 Y32.165
X41.106 Y32.386
X41.224 Y32.590
X41.342 Y32.386
X41.541 Y32.165
X41.782 Y31.990
X42.054 Y31.869
X42.345 Y31.807
X42.643 Y31.807
X42.934 Y31.869
X43.206 Y31.990
X43.447 Y32.165
X43.646 Y32.386
X43.764 Y32.590
X43.882 Y32.386
X44.081 Y32.165
X44.322 Y31.990
X44.594 Y31.869
X44.885 Y31.807
X45.183 Y31.807
X45.474 Y31.869
X45.746 Y31.990
X45.987 Y32.165
X46.186 Y32.386
X46.335 Y32.644
X46.427 Y32.927
X46.458 Y33.223
X46.427 Y33.519
X46.335 Y33.802
X46.186 Y34.060
X45.987 Y34.282
X45.746 Y34.457
X45.474 Y34.578
X45.183 Y34.640
X44.885 Y34.640
X44.594 Y34.578
X44.322 Y34.457
X44.081 Y34.282
X43.882 Y34.060
X43.764 Y33.856
X43.646 Y34.060
X43.447 Y34.282
X43.206 Y34.457
X42.934 Y34.578
X42.643 Y34.640
X42.345 Y34.640
X42.054 Y34.578
X41.782 Y34.457
X41.541 Y34.282
X41.342 Y34.060
X41.224 Y33.856
X41.106 Y34.060
X40.907 Y34.282
X40.666 Y34.457
X40.394 Y34.578
X40.103 Y34.640
X39.805 Y34.640
X39.514 Y34.578
X39.242 Y34.457
X39.001 Y34.282
X38.802 Y34.060
X38.684 Y33.856
X38.566 Y34.060
X38.367 Y34.282
X38.126 Y34.457
X37.854 Y34.578
X37.563 Y34.640
X37.265 Y34.640
X36.974 Y34.578
X36.702 Y34.457
X36.461 Y34.282
X36.262 Y34.060
X36.144 Y33.856
X36.026 Y34.060
X35.827 Y34.282
X35.586 Y34.457
X35.314 Y34.578
X35.023 Y34.640
X34.725 Y34.640
X34.434 Y34.578
X34.162 Y34.457
X33.921 Y34.282
X33.722 Y34.060
X33.604 Y33.856
X33.486 Y34.060
X33.287 Y34.282
X33.046 Y34.457
X32.774 Y34.578
X32.483 Y34.640
X32.185 Y34.640
X31.894 Y34.578
X31.622 Y34.457
X31.381 Y34.282
X31.182 Y34.060
X31.064 Y33.856
X30.946 Y34.060
X30.747 Y34.282
X30.506 Y34.457
X30.234 Y34.578
X29.943 Y34.640
X29.645 Y34.640
X29.354 Y34.578
X29.082 Y34.457
X28.841 Y34.282
X28.642 Y34.060
X28.524 Y33.856
X28.406 Y34.060
X28.207 Y34.282
X27.966 Y34.457
X27.694 Y34.578
X27.403 Y34.640
X27.105 Y34.640
X26.814 Y34.578
X26.542 Y34.457
X26.301 Y34.282
X26.102 Y34.060
X25.984 Y33.856
X25.866 Y34.060
X25.667 Y34.282
X25.426 Y34.457
X25.154 Y34.578
X24.863 Y34.640
X24.565 Y34.640
X24.274 Y34.578
X24.002 Y34.457
X23.761 Y34.282
X23.562 Y34.060
X23.444 Y33.856
X23.326 Y34.060
X23.127 Y34.282
X22.886 Y34.457
X22.614 Y34.578
X22.323 Y34.640
X22.025 Y34.640
X21.734 Y34.578
X21.462 Y34.457
X21.221 Y34.282
X21.022 Y34.060
X20.904 Y33.856
X20.786 Y34.060
X20.587 Y34.282
X20.346 Y34.457
X20.074 Y34.578
X19.783 Y34.640
X19.485 Y34.640
X19.194 Y34.578
X18.922 Y34.457
X18.681 Y34.282
X18.482 Y34.060
X18.364 Y33.856
X18.246 Y34.060
X18.047 Y34.282
X17.806 Y34.457
X17.534 Y34.578
X17.243 Y34.640
X16.945 Y34.640
G0 Z3.000
G0  X58.787 Y34.022
G0  Z3.000
G01 F400 Z0
G01 F400 Z-0.100
G01F400X58.361 Y33.931
X57.965 Y33.754
X57.612 Y33.499
X57.322 Y33.176
X57.104 Y32.799
X56.970 Y32.386
X56.924 Y31.953
X56.970 Y31.521
X57.104 Y31.107
X57.322 Y30.731
X57.612 Y30.408
X57.965 Y30.152
X58.361 Y29.975
X58.787 Y29.885
X59.222 Y29.885
X59.647 Y29.975
X60.044 Y30.152
X60.396 Y30.408
X60.687 Y30.731
X60.904 Y31.107
X61.039 Y31.521
X61.084 Y31.953
X61.039 Y32.386
X60.904 Y32.799
X60.687 Y33.176
X60.396 Y33.499
X60.044 Y33.754
X59.647 Y33.931
X59.222 Y34.022
X58.787 Y34.022
G0 Z3.000
G0  X29.657 Y23.710
G0  Z3.000
G01 F400 Z0
G01 F400 Z-0.100
G01F400X30.401 Y23.710
X30.401 Y22.411
X29.657 Y22.400
X29.657 Y23.710
G0 Z3.000
G0  X58.787 Y16.242
G0  Z3.000
G01 F400 Z0
G01 F400 Z-0.100
G01F400X58.361 Y16.151
X57.965 Y15.974
X57.612 Y15.719
X57.322 Y15.396
X57.104 Y15.019
X56.970 Y14.606
X56.924 Y14.173
X56.970 Y13.741
X57.104 Y13.327
X57.322 Y12.951
X57.612 Y12.628
X57.965 Y12.372
X58.361 Y12.195
X58.787 Y12.105
X59.222 Y12.105
X59.647 Y12.195
X60.044 Y12.372
X60.396 Y12.628
X60.687 Y12.951
X60.904 Y13.327
X61.039 Y13.741
X61.084 Y14.173
X61.039 Y14.606
X60.904 Y15.019
X60.687 Y15.396
X60.396 Y15.719
X60.044 Y15.974
X59.647 Y16.151
X59.222 Y16.242
X58.787 Y16.242
G0 Z3.000
G0  X35.740 Y23.710
G0  Z3.000
G01 F400 Z0
G01 F400 Z-0.100
G01F400X40.661 Y23.710
X40.661 Y23.263
X44.733 Y23.263
X44.733 Y23.710
X46.086 Y23.710
X46.086 Y22.398
X44.733 Y22.412
X44.733 Y22.863
X40.661 Y22.863
X40.661 Y22.416
X35.740 Y22.416
X35.740 Y23.710
G0 Z3.000
G0  X30.401 Y21.163
G0  Z3.000
G01 F400 Z0
G01 F400 Z-0.100
G01F400X30.401 Y19.909
X29.657 Y19.919
X29.657 Y21.153
X30.401 Y21.163
G0 Z3.000
G0  X35.740 Y21.170
G0  Z3.000
G01 F400 Z0
G01 F400 Z-0.100
G01F400X40.661 Y21.170
X40.661 Y20.723
X44.733 Y20.723
X44.733 Y21.165
X46.086 Y21.151
X46.086 Y19.915
X44.733 Y19.887
X44.733 Y20.323
X40.661 Y20.323
X40.661 Y19.876
X35.740 Y19.876
X35.740 Y21.170
G0 Z3.000
G0  X30.401 Y25.603
G0  Z3.000
G01 F400 Z0
G01 F400 Z-0.100
G01F400X30.401 Y24.956
X28.967 Y24.956
X28.839 Y24.929
X28.719 Y24.876
X28.613 Y24.799
X28.525 Y24.702
X28.460 Y24.588
X28.419 Y24.463
X28.407 Y24.350
X28.407 Y16.722
X28.419 Y16.608
X28.460 Y16.484
X28.525 Y16.370
X28.613 Y16.273
X28.719 Y16.196
X28.839 Y16.143
X28.967 Y16.116
X46.211 Y16.116
X46.687 Y14.009
X46.621 Y13.962
X46.422 Y13.740
X46.304 Y13.536
X46.186 Y13.740
X45.987 Y13.962
X45.746 Y14.137
X45.474 Y14.258
X45.183 Y14.320
X44.885 Y14.320
X44.594 Y14.258
X44.322 Y14.137
X44.081 Y13.962
X43.882 Y13.740
X43.764 Y13.536
X43.646 Y13.740
X43.447 Y13.962
X43.206 Y14.137
X42.934 Y14.258
X42.643 Y14.320
X42.345 Y14.320
X42.054 Y14.258
X41.782 Y14.137
X41.541 Y13.962
X41.342 Y13.740
X41.224 Y13.536
X41.106 Y13.740
X40.907 Y13.962
X40.666 Y14.137
X40.394 Y14.258
X40.103 Y14.320
X39.805 Y14.320
X39.514 Y14.258
X39.242 Y14.137
X39.001 Y13.962
X38.802 Y13.740
X38.684 Y13.536
X38.566 Y13.740
X38.367 Y13.962
X38.126 Y14.137
X37.854 Y14.258
X37.563 Y14.320
X37.265 Y14.320
X36.974 Y14.258
X36.702 Y14.137
X36.461 Y13.962
X36.262 Y13.740
X36.144 Y13.536
X36.026 Y13.740
X35.827 Y13.962
X35.586 Y14.137
X35.314 Y14.258
X35.023 Y14.320
X34.725 Y14.320
X34.434 Y14.258
X34.162 Y14.137
X33.921 Y13.962
X33.722 Y13.740
X33.604 Y13.536
X33.486 Y13.740
X33.287 Y13.962
X33.046 Y14.137
X32.774 Y14.258
X32.483 Y14.320
X32.185 Y14.320
X31.894 Y14.258
X31.622 Y14.137
X31.381 Y13.962
X31.182 Y13.740
X31.064 Y13.536
X30.946 Y13.740
X30.747 Y13.962
X30.506 Y14.137
X30.234 Y14.258
X29.943 Y14.320
X29.645 Y14.320
X29.354 Y14.258
X29.082 Y14.137
X28.841 Y13.962
X28.642 Y13.740
X28.524 Y13.536
X28.406 Y13.740
X28.207 Y13.962
X27.966 Y14.137
X27.694 Y14.258
X27.403 Y14.320
X27.105 Y14.320
X26.814 Y14.258
X26.542 Y14.137
X26.301 Y13.962
X26.102 Y13.740
X25.984 Y13.536
X25.866 Y13.740
X25.667 Y13.962
X25.426 Y14.137
X25.154 Y14.258
X24.863 Y14.320
X24.565 Y14.320
X24.274 Y14.258
X24.002 Y14.137
X23.761 Y13.962
X23.562 Y13.740
X23.444 Y13.536
X23.326 Y13.740
X23.127 Y13.962
X22.886 Y14.137
X22.614 Y14.258
X22.323 Y14.320
X22.025 Y14.320
X21.734 Y14.258
X21.462 Y14.137
X21.221 Y13.962
X21.022 Y13.740
X20.904 Y13.536
X20.786 Y13.740
X20.587 Y13.962
X20.346 Y14.137
X20.074 Y14.258
X19.783 Y14.320
X19.485 Y14.320
X19.194 Y14.258
X18.922 Y14.137
X18.681 Y13.962
X18.482 Y13.740
X18.364 Y13.536
X18.246 Y13.740
X18.047 Y13.962
X17.806 Y14.137
X17.534 Y14.258
X17.243 Y14.320
X16.945 Y14.320
X16.654 Y14.258
X16.382 Y14.137
X16.141 Y13.962
X15.942 Y13.740
X15.793 Y13.482
X15.701 Y13.199
X15.670 Y12.903
X15.701 Y12.607
X15.793 Y12.324
X15.942 Y12.066
X16.141 Y11.845
X16.382 Y11.670
X16.654 Y11.549
X16.945 Y11.487
X17.243 Y11.487
X17.534 Y11.549
X17.806 Y11.670
X18.047 Y11.845
X18.246 Y12.066
X18.364 Y12.270
X18.482 Y12.066
X18.681 Y11.845
X18.922 Y11.670
X19.194 Y11.549
X19.485 Y11.487
X19.783 Y11.487
X20.074 Y11.549
X20.346 Y11.670
X20.587 Y11.845
X20.786 Y12.066
X20.904 Y12.270
X21.022 Y12.066
X21.221 Y11.845
X21.462 Y11.670
X21.734 Y11.549
X22.025 Y11.487
X22.323 Y11.487
X22.614 Y11.549
X22.886 Y11.670
X23.127 Y11.845
X23.326 Y12.066
X23.444 Y12.270
X23.562 Y12.066
X23.761 Y11.845
X24.002 Y11.670
X24.274 Y11.549
X24.565 Y11.487
X24.863 Y11.487
X25.154 Y11.549
X25.426 Y11.670
X25.667 Y11.845
X25.866 Y12.066
X25.984 Y12.270
X26.102 Y12.066
X26.301 Y11.845
X26.542 Y11.670
X26.814 Y11.549
X27.105 Y11.487
X27.403 Y11.487
X27.694 Y11.549
X27.966 Y11.670
X28.207 Y11.845
X28.406 Y12.066
X28.524 Y12.270
X28.642 Y12.066
X28.841 Y11.845
X29.082 Y11.670
X29.354 Y11.549
X29.645 Y11.487
X29.943 Y11.487
X30.234 Y11.549
X30.506 Y11.670
X30.747 Y11.845
X30.946 Y12.066
X31.064 Y12.270
X31.182 Y12.066
X31.381 Y11.845
X31.622 Y11.670
X31.894 Y11.549
X32.185 Y11.487
X32.483 Y11.487
X32.774 Y11.549
X33.046 Y11.670
X33.287 Y11.845
X33.486 Y12.066
X33.604 Y12.270
X33.722 Y12.066
X33.921 Y11.845
X34.162 Y11.670
X34.434 Y11.549
X34.725 Y11.487
X35.023 Y11.487
X35.314 Y11.549
X35.586 Y11.670
X35.827 Y11.845
X36.026 Y12.066
X36.144 Y12.270
X36.262 Y12.066
X36.461 Y11.845
X36.702 Y11.670
X36.974 Y11.549
X37.265 Y11.487
X37.563 Y11.487
X37.854 Y11.549
X38.126 Y11.670
X38.367 Y11.845
X38.566 Y12.066
X38.684 Y12.270
X38.802 Y12.066
X39.001 Y11.845
X39.242 Y11.670
X39.514 Y11.549
X39.805 Y11.487
X40.103 Y11.487
X40.394 Y11.549
X40.666 Y11.670
X40.907 Y11.845
X41.106 Y12.066
X41.224 Y12.270
X41.342 Y12.066
X41.541 Y11.845
X41.782 Y11.670
X42.054 Y11.549
X42.345 Y11.487
X42.643 Y11.487
X42.934 Y11.549
X43.206 Y11.670
X43.447 Y11.845
X43.646 Y12.066
X43.764 Y12.270
X43.882 Y12.066
X44.081 Y11.845
X44.322 Y11.670
X44.594 Y11.549
X44.885 Y11.487
X45.183 Y11.487
X45.474 Y11.549
X45.746 Y11.670
X45.987 Y11.845
X46.186 Y12.066
X46.304 Y12.270
X46.422 Y12.066
X46.621 Y11.845
X46.862 Y11.670
X47.134 Y11.549
X47.425 Y11.487
X47.723 Y11.487
X48.014 Y11.549
X48.286 Y11.670
X48.527 Y11.845
X48.726 Y12.066
X48.844 Y12.270
X48.962 Y12.066
X49.161 Y11.845
X49.402 Y11.670
X49.674 Y11.549
X49.965 Y11.487
X50.263 Y11.487
X50.554 Y11.549
X50.826 Y11.670
X51.067 Y11.845
X51.266 Y12.066
X51.384 Y12.270
X51.502 Y12.066
X51.701 Y11.845
X51.942 Y11.670
X52.214 Y11.549
X52.505 Y11.487
X52.803 Y11.487
X53.094 Y11.549
X53.366 Y11.670
X53.607 Y11.845
X53.806 Y12.066
X53.924 Y12.270
X54.042 Y12.066
X54.241 Y11.845
X54.482 Y11.670
X54.754 Y11.549
X55.045 Y11.487
X55.343 Y11.487
X55.634 Y11.549
X55.906 Y11.670
X56.147 Y11.845
X56.346 Y12.066
X56.495 Y12.324
X56.587 Y12.607
X56.618 Y12.903
X56.587 Y13.199
X56.495 Y13.482
X56.346 Y13.740
X56.147 Y13.962
X55.906 Y14.137
X55.634 Y14.258
X55.343 Y14.320
X55.045 Y14.320
X54.754 Y14.258
X54.482 Y14.137
X54.241 Y13.962
X54.042 Y13.740
X53.924 Y13.536
X53.806 Y13.740
X53.607 Y13.962
X53.366 Y14.137
X53.094 Y14.258
X52.993 Y14.279
X52.449 Y16.884
X52.414 Y16.993
X52.348 Y17.107
X52.261 Y17.204
X52.161 Y17.277
X47.335 Y19.690
X47.335 Y24.350
X47.323 Y24.463
X47.283 Y24.588
X47.218 Y24.702
X47.130 Y24.799
X47.024 Y24.876
X46.904 Y24.929
X46.776 Y24.956
X44.733 Y24.956
X44.733 Y25.403
X40.661 Y25.403
X40.661 Y24.956
X35.740 Y24.956
X35.740 Y25.603
X33.500 Y25.603
X33.500 Y17.983
X35.740 Y17.983
X35.740 Y18.630
X40.661 Y18.630
X40.661 Y18.183
X44.733 Y18.183
X44.733 Y18.639
X46.569 Y18.677
X51.291 Y16.316
X51.772 Y14.013
X51.701 Y13.962
X51.502 Y13.740
X51.384 Y13.536
X51.266 Y13.740
X51.067 Y13.962
X50.826 Y14.137
X50.554 Y14.258
X50.263 Y14.320
X49.965 Y14.320
X49.674 Y14.258
X49.402 Y14.137
X49.161 Y13.962
X48.962 Y13.740
X48.844 Y13.536
X48.726 Y13.740
X48.527 Y13.962
X48.286 Y14.137
X48.014 Y14.258
X47.907 Y14.280
X47.318 Y16.887
X47.283 Y16.993
X47.218 Y17.107
X47.130 Y17.204
X47.024 Y17.281
X46.904 Y17.335
X46.776 Y17.362
X29.657 Y17.362
X29.657 Y18.672
X30.401 Y18.661
X30.401 Y17.983
X32.641 Y17.983
X32.641 Y25.603
X30.401 Y25.603
G0 Z3.000
G0  X16.936 Y34.730
G0  Z3.000
G01 F400 Z0
G01 F400 Z-0.100
G01F400X16.626 Y34.664
X16.337 Y34.535
X16.081 Y34.349
X15.869 Y34.114
X15.710 Y33.839
X15.613 Y33.538
X15.580 Y33.223
X15.613 Y32.908
X15.710 Y32.607
X15.869 Y32.333
X16.081 Y32.098
X16.337 Y31.911
X16.626 Y31.783
X16.936 Y31.717
X17.253 Y31.717
X17.562 Y31.783
X17.852 Y31.911
X18.108 Y32.098
X18.320 Y32.333
X18.364 Y32.410
X18.409 Y32.333
X18.620 Y32.098
X18.877 Y31.911
X19.166 Y31.783
X19.476 Y31.717
X19.793 Y31.717
X20.102 Y31.783
X20.392 Y31.911
X20.648 Y32.098
X20.860 Y32.333
X20.904 Y32.410
X20.949 Y32.333
X21.161 Y32.098
X21.417 Y31.911
X21.706 Y31.783
X22.016 Y31.717
X22.332 Y31.717
X22.642 Y31.783
X22.932 Y31.911
X23.188 Y32.098
X23.400 Y32.333
X23.444 Y32.410
X23.489 Y32.333
X23.701 Y32.098
X23.957 Y31.911
X24.246 Y31.783
X24.556 Y31.717
X24.873 Y31.717
X25.182 Y31.783
X25.472 Y31.911
X25.728 Y32.098
X25.940 Y32.333
X25.984 Y32.410
X26.029 Y32.333
X26.241 Y32.098
X26.497 Y31.911
X26.786 Y31.783
X27.096 Y31.717
X27.413 Y31.717
X27.722 Y31.783
X28.012 Y31.911
X28.268 Y32.098
X28.480 Y32.333
X28.524 Y32.410
X28.569 Y32.333
X28.780 Y32.098
X29.037 Y31.911
X29.326 Y31.783
X29.636 Y31.717
X29.953 Y31.717
X30.262 Y31.783
X30.552 Y31.911
X30.808 Y32.098
X31.020 Y32.333
X31.064 Y32.410
X31.109 Y32.333
X31.321 Y32.098
X31.577 Y31.911
X31.866 Y31.783
X32.176 Y31.717
X32.492 Y31.717
X32.802 Y31.783
X33.092 Y31.911
X33.348 Y32.098
X33.560 Y32.333
X33.604 Y32.410
X33.649 Y32.333
X33.861 Y32.098
X34.117 Y31.911
X34.406 Y31.783
X34.716 Y31.717
X35.032 Y31.717
X35.342 Y31.783
X35.632 Y31.911
X35.888 Y32.098
X36.100 Y32.333
X36.144 Y32.410
X36.189 Y32.333
X36.401 Y32.098
X36.657 Y31.911
X36.946 Y31.783
X37.256 Y31.717
X37.573 Y31.717
X37.882 Y31.783
X38.172 Y31.911
X38.428 Y32.098
X38.640 Y32.333
X38.684 Y32.410
X38.729 Y32.333
X38.941 Y32.098
X39.197 Y31.911
X39.486 Y31.783
X39.796 Y31.717
X40.113 Y31.717
X40.422 Y31.783
X40.712 Y31.911
X40.968 Y32.098
X41.180 Y32.333
X41.224 Y32.410
X41.269 Y32.333
X41.480 Y32.098
X41.737 Y31.911
X42.026 Y31.783
X42.336 Y31.717
X42.653 Y31.717
X42.962 Y31.783
X43.252 Y31.911
X43.508 Y32.098
X43.720 Y32.333
X43.764 Y32.410
X43.809 Y32.333
X44.021 Y32.098
X44.277 Y31.911
X44.566 Y31.783
X44.876 Y31.717
X45.193 Y31.717
X45.502 Y31.783
X45.792 Y31.911
X46.048 Y32.098
X46.260 Y32.333
X46.418 Y32.607
X46.516 Y32.908
X46.549 Y33.223
X46.516 Y33.538
X46.418 Y33.839
X46.260 Y34.114
X46.048 Y34.349
X45.792 Y34.535
X45.502 Y34.664
X45.193 Y34.730
X44.876 Y34.730
X44.566 Y34.664
X44.277 Y34.535
X44.021 Y34.349
X43.809 Y34.114
X43.764 Y34.036
X43.720 Y34.114
X43.508 Y34.349
X43.252 Y34.535
X42.962 Y34.664
X42.653 Y34.730
X42.336 Y34.730
X42.026 Y34.664
X41.737 Y34.535
X41.480 Y34.349
X41.269 Y34.114
X41.224 Y34.036
X41.180 Y34.114
X40.968 Y34.349
X40.712 Y34.535
X40.422 Y34.664
X40.113 Y34.730
X39.796 Y34.730
X39.486 Y34.664
X39.197 Y34.535
X38.941 Y34.349
X38.729 Y34.114
X38.684 Y34.036
X38.640 Y34.114
X38.428 Y34.349
X38.172 Y34.535
X37.882 Y34.664
X37.573 Y34.730
X37.256 Y34.730
X36.946 Y34.664
X36.657 Y34.535
X36.401 Y34.349
X36.189 Y34.114
X36.144 Y34.036
X36.100 Y34.114
X35.888 Y34.349
X35.632 Y34.535
X35.342 Y34.664
X35.032 Y34.730
X34.716 Y34.730
X34.406 Y34.664
X34.117 Y34.535
X33.861 Y34.349
X33.649 Y34.114
X33.604 Y34.036
X33.560 Y34.114
X33.348 Y34.349
X33.092 Y34.535
X32.802 Y34.664
X32.492 Y34.730
X32.176 Y34.730
X31.866 Y34.664
X31.577 Y34.535
X31.321 Y34.349
X31.109 Y34.114
X31.064 Y34.036
X31.020 Y34.114
X30.808 Y34.349
X30.552 Y34.535
X30.262 Y34.664
X29.953 Y34.730
X29.636 Y34.730
X29.326 Y34.664
X29.037 Y34.535
X28.780 Y34.349
X28.569 Y34.114
X28.524 Y34.036
X28.480 Y34.114
X28.268 Y34.349
X28.012 Y34.535
X27.722 Y34.664
X27.413 Y34.730
X27.096 Y34.730
X26.786 Y34.664
X26.497 Y34.535
X26.241 Y34.349
X26.029 Y34.114
X25.984 Y34.036
X25.940 Y34.114
X25.728 Y34.349
X25.472 Y34.535
X25.182 Y34.664
X24.873 Y34.730
X24.556 Y34.730
X24.246 Y34.664
X23.957 Y34.535
X23.701 Y34.349
X23.489 Y34.114
X23.444 Y34.036
X23.400 Y34.114
X23.188 Y34.349
X22.932 Y34.535
X22.642 Y34.664
X22.332 Y34.730
X22.016 Y34.730
X21.706 Y34.664
X21.417 Y34.535
X21.161 Y34.349
X20.949 Y34.114
X20.904 Y34.036
X20.860 Y34.114
X20.648 Y34.349
X20.392 Y34.535
X20.102 Y34.664
X19.793 Y34.730
X19.476 Y34.730
X19.166 Y34.664
X18.877 Y34.535
X18.620 Y34.349
X18.409 Y34.114
X18.364 Y34.036
X18.320 Y34.114
X18.108 Y34.349
X17.852 Y34.535
X17.562 Y34.664
X17.253 Y34.730
X16.936 Y34.730
G0 Z3.000
G0  X58.777 Y34.112
G0  Z3.000
G01 F400 Z0
G01 F400 Z-0.100
G01F400X58.333 Y34.017
X57.919 Y33.833
X57.552 Y33.566
X57.248 Y33.229
X57.022 Y32.836
X56.881 Y32.404
X56.834 Y31.953
X56.881 Y31.502
X57.022 Y31.071
X57.248 Y30.678
X57.552 Y30.340
X57.919 Y30.074
X58.333 Y29.889
X58.777 Y29.795
X59.231 Y29.795
X59.675 Y29.889
X60.089 Y30.074
X60.457 Y30.340
X60.760 Y30.678
X60.987 Y31.071
X61.127 Y31.502
X61.175 Y31.953
X61.127 Y32.404
X60.987 Y32.836
X60.760 Y33.229
X60.457 Y33.566
X60.089 Y33.833
X59.675 Y34.017
X59.231 Y34.112
X58.777 Y34.112
G0 Z3.000
G0  X30.311 Y25.693
G0  Z3.000
G01 F400 Z0
G01 F400 Z-0.100
G01F400X30.311 Y25.046
X28.958 Y25.046
X28.811 Y25.015
X28.674 Y24.954
X28.553 Y24.866
X28.452 Y24.755
X28.377 Y24.625
X28.331 Y24.482
X28.317 Y24.355
X28.317 Y16.717
X28.331 Y16.590
X28.377 Y16.447
X28.452 Y16.317
X28.553 Y16.206
X28.674 Y16.117
X28.811 Y16.056
X28.958 Y16.026
X46.139 Y16.026
X46.586 Y14.047
X46.561 Y14.029
X46.349 Y13.793
X46.304 Y13.716
X46.260 Y13.793
X46.048 Y14.029
X45.792 Y14.215
X45.502 Y14.344
X45.193 Y14.410
X44.876 Y14.410
X44.566 Y14.344
X44.277 Y14.215
X44.021 Y14.029
X43.809 Y13.793
X43.764 Y13.716
X43.720 Y13.793
X43.508 Y14.029
X43.252 Y14.215
X42.962 Y14.344
X42.653 Y14.410
X42.336 Y14.410
X42.026 Y14.344
X41.737 Y14.215
X41.480 Y14.029
X41.269 Y13.793
X41.224 Y13.716
X41.180 Y13.793
X40.968 Y14.029
X40.712 Y14.215
X40.422 Y14.344
X40.113 Y14.410
X39.796 Y14.410
X39.486 Y14.344
X39.197 Y14.215
X38.941 Y14.029
X38.729 Y13.793
X38.684 Y13.716
X38.640 Y13.793
X38.428 Y14.029
X38.172 Y14.215
X37.882 Y14.344
X37.573 Y14.410
X37.256 Y14.410
X36.946 Y14.344
X36.657 Y14.215
X36.401 Y14.029
X36.189 Y13.793
X36.144 Y13.716
X36.100 Y13.793
X35.888 Y14.029
X35.632 Y14.215
X35.342 Y14.344
X35.032 Y14.410
X34.716 Y14.410
X34.406 Y14.344
X34.117 Y14.215
X33.861 Y14.029
X33.649 Y13.793
X33.604 Y13.716
X33.560 Y13.793
X33.348 Y14.029
X33.092 Y14.215
X32.802 Y14.344
X32.492 Y14.410
X32.176 Y14.410
X31.866 Y14.344
X31.577 Y14.215
X31.321 Y14.029
X31.109 Y13.793
X31.064 Y13.716
X31.020 Y13.793
X30.808 Y14.029
X30.552 Y14.215
X30.262 Y14.344
X29.953 Y14.410
X29.636 Y14.410
X29.326 Y14.344
X29.037 Y14.215
X28.780 Y14.029
X28.569 Y13.793
X28.524 Y13.716
X28.480 Y13.793
X28.268 Y14.029
X28.012 Y14.215
X27.722 Y14.344
X27.413 Y14.410
X27.096 Y14.410
X26.786 Y14.344
X26.497 Y14.215
X26.241 Y14.029
X26.029 Y13.793
X25.984 Y13.716
X25.940 Y13.793
X25.728 Y14.029
X25.472 Y14.215
X25.182 Y14.344
X24.873 Y14.410
X24.556 Y14.410
X24.246 Y14.344
X23.957 Y14.215
X23.701 Y14.029
X23.489 Y13.793
X23.444 Y13.716
X23.400 Y13.793
X23.188 Y14.029
X22.932 Y14.215
X22.642 Y14.344
X22.332 Y14.410
X22.016 Y14.410
X21.706 Y14.344
X21.417 Y14.215
X21.161 Y14.029
X20.949 Y13.793
X20.904 Y13.716
X20.860 Y13.793
X20.648 Y14.029
X20.392 Y14.215
X20.102 Y14.344
X19.793 Y14.410
X19.476 Y14.410
X19.166 Y14.344
X18.877 Y14.215
X18.620 Y14.029
X18.409 Y13.793
X18.364 Y13.716
X18.320 Y13.793
X18.108 Y14.029
X17.852 Y14.215
X17.562 Y14.344
X17.253 Y14.410
X16.936 Y14.410
X16.626 Y14.344
X16.337 Y14.215
X16.081 Y14.029
X15.869 Y13.793
X15.710 Y13.519
X15.613 Y13.218
X15.580 Y12.903
X15.613 Y12.588
X15.710 Y12.287
X15.869 Y12.013
X16.081 Y11.778
X16.337 Y11.591
X16.626 Y11.463
X16.936 Y11.397
X17.253 Y11.397
X17.562 Y11.463
X17.852 Y11.591
X18.108 Y11.778
X18.320 Y12.013
X18.364 Y12.090
X18.409 Y12.013
X18.620 Y11.778
X18.877 Y11.591
X19.166 Y11.463
X19.476 Y11.397
X19.793 Y11.397
X20.102 Y11.463
X20.392 Y11.591
X20.648 Y11.778
X20.860 Y12.013
X20.904 Y12.090
X20.949 Y12.013
X21.161 Y11.778
X21.417 Y11.591
X21.706 Y11.463
X22.016 Y11.397
X22.332 Y11.397
X22.642 Y11.463
X22.932 Y11.591
X23.188 Y11.778
X23.400 Y12.013
X23.444 Y12.090
X23.489 Y12.013
X23.701 Y11.778
X23.957 Y11.591
X24.246 Y11.463
X24.556 Y11.397
X24.873 Y11.397
X25.182 Y11.463
X25.472 Y11.591
X25.728 Y11.778
X25.940 Y12.013
X25.984 Y12.090
X26.029 Y12.013
X26.241 Y11.778
X26.497 Y11.591
X26.786 Y11.463
X27.096 Y11.397
X27.413 Y11.397
X27.722 Y11.463
X28.012 Y11.591
X28.268 Y11.778
X28.480 Y12.013
X28.524 Y12.090
X28.569 Y12.013
X28.780 Y11.778
X29.037 Y11.591
X29.326 Y11.463
X29.636 Y11.397
X29.953 Y11.397
X30.262 Y11.463
X30.552 Y11.591
X30.808 Y11.778
X31.020 Y12.013
X31.064 Y12.090
X31.109 Y12.013
X31.321 Y11.778
X31.577 Y11.591
X31.866 Y11.463
X32.176 Y11.397
X32.492 Y11.397
X32.802 Y11.463
X33.092 Y11.591
X33.348 Y11.778
X33.560 Y12.013
X33.604 Y12.090
X33.649 Y12.013
X33.861 Y11.778
X34.117 Y11.591
X34.406 Y11.463
X34.716 Y11.397
X35.032 Y11.397
X35.342 Y11.463
X35.632 Y11.591
X35.888 Y11.778
X36.100 Y12.013
X36.144 Y12.090
X36.189 Y12.013
X36.401 Y11.778
X36.657 Y11.591
X36.946 Y11.463
X37.256 Y11.397
X37.573 Y11.397
X37.882 Y11.463
X38.172 Y11.591
X38.428 Y11.778
X38.640 Y12.013
X38.684 Y12.090
X38.729 Y12.013
X38.941 Y11.778
X39.197 Y11.591
X39.486 Y11.463
X39.796 Y11.397
X40.113 Y11.397
X40.422 Y11.463
X40.712 Y11.591
X40.968 Y11.778
X41.180 Y12.013
X41.224 Y12.090
X41.269 Y12.013
X41.480 Y11.778
X41.737 Y11.591
X42.026 Y11.463
X42.336 Y11.397
X42.653 Y11.397
X42.962 Y11.463
X43.252 Y11.591
X43.508 Y11.778
X43.720 Y12.013
X43.764 Y12.090
X43.809 Y12.013
X44.021 Y11.778
X44.277 Y11.591
X44.566 Y11.463
X44.876 Y11.397
X45.193 Y11.397
X45.502 Y11.463
X45.792 Y11.591
X46.048 Y11.778
X46.260 Y12.013
X46.304 Y12.090
X46.349 Y12.013
X46.561 Y11.778
X46.817 Y11.591
X47.106 Y11.463
X47.416 Y11.397
X47.733 Y11.397
X48.042 Y11.463
X48.332 Y11.591
X48.588 Y11.778
X48.800 Y12.013
X48.844 Y12.090
X48.889 Y12.013
X49.101 Y11.778
X49.357 Y11.591
X49.646 Y11.463
X49.956 Y11.397
X50.273 Y11.397
X50.582 Y11.463
X50.872 Y11.591
X51.128 Y11.778
X51.340 Y12.013
X51.384 Y12.090
X51.429 Y12.013
X51.641 Y11.778
X51.897 Y11.591
X52.186 Y11.463
X52.496 Y11.397
X52.813 Y11.397
X53.122 Y11.463
X53.412 Y11.591
X53.668 Y11.778
X53.880 Y12.013
X53.924 Y12.090
X53.969 Y12.013
X54.181 Y11.778
X54.437 Y11.591
X54.726 Y11.463
X55.036 Y11.397
X55.352 Y11.397
X55.662 Y11.463
X55.952 Y11.591
X56.208 Y11.778
X56.420 Y12.013
X56.578 Y12.287
X56.676 Y12.588
X56.709 Y12.903
X56.676 Y13.218
X56.578 Y13.519
X56.420 Y13.793
X56.208 Y14.029
X55.952 Y14.215
X55.662 Y14.344
X55.352 Y14.410
X55.036 Y14.410
X54.726 Y14.344
X54.437 Y14.215
X54.181 Y14.029
X53.969 Y13.793
X53.924 Y13.716
X53.880 Y13.793
X53.668 Y14.029
X53.412 Y14.215
X53.122 Y14.344
X53.069 Y14.355
X52.536 Y16.907
X52.497 Y17.030
X52.422 Y17.160
X52.321 Y17.272
X52.208 Y17.354
X47.425 Y19.745
X47.425 Y24.355
X47.412 Y24.482
X47.366 Y24.625
X47.291 Y24.755
X47.190 Y24.866
X47.069 Y24.954
X46.932 Y25.015
X46.785 Y25.046
X44.823 Y25.046
X44.823 Y25.493
X40.571 Y25.493
X40.571 Y25.046
X35.830 Y25.046
X35.830 Y25.693
X33.410 Y25.693
X33.410 Y17.893
X35.830 Y17.893
X35.830 Y18.540
X40.571 Y18.540
X40.571 Y18.093
X44.823 Y18.093
X44.823 Y18.550
X46.548 Y18.587
X51.212 Y16.255
X51.672 Y14.052
X51.641 Y14.029
X51.429 Y13.793
X51.384 Y13.716
X51.340 Y13.793
X51.128 Y14.029
X50.872 Y14.215
X50.582 Y14.344
X50.273 Y14.410
X49.956 Y14.410
X49.646 Y14.344
X49.357 Y14.215
X49.101 Y14.029
X48.889 Y13.793
X48.844 Y13.716
X48.800 Y13.793
X48.588 Y14.029
X48.332 Y14.215
X48.042 Y14.344
X47.982 Y14.357
X47.405 Y16.911
X47.366 Y17.030
X47.291 Y17.160
X47.190 Y17.272
X47.069 Y17.360
X46.932 Y17.421
X46.785 Y17.452
X29.747 Y17.452
X29.747 Y18.580
X30.311 Y18.573
X30.311 Y17.893
X32.731 Y17.893
X32.731 Y25.693
X30.311 Y25.693
G0 Z3.000
G0  X35.830 Y23.620
G0  Z3.000
G01 F400 Z0
G01 F400 Z-0.100
G01F400X40.571 Y23.620
X40.571 Y23.173
X44.823 Y23.173
X44.823 Y23.620
X45.996 Y23.620
X45.996 Y22.489
X44.823 Y22.501
X44.823 Y22.953
X40.571 Y22.953
X40.571 Y22.506
X35.830 Y22.506
X35.830 Y23.620
G0 Z3.000
G0  X29.747 Y23.620
G0  Z3.000
G01 F400 Z0
G01 F400 Z-0.100
G01F400X30.311 Y23.620
X30.311 Y22.499
X29.747 Y22.492
X29.747 Y23.620
G0 Z3.000
G0  X35.830 Y21.080
G0  Z3.000
G01 F400 Z0
G01 F400 Z-0.100
G01F400X40.571 Y21.080
X40.571 Y20.633
X44.823 Y20.633
X44.823 Y21.074
X45.996 Y21.062
X45.996 Y20.003
X44.823 Y19.979
X44.823 Y20.413
X40.571 Y20.413
X40.571 Y19.966
X35.830 Y19.966
X35.830 Y21.080
G0 Z3.000
G0  X30.311 Y21.072
G0  Z3.000
G01 F400 Z0
G01 F400 Z-0.100
G01F400X30.311 Y20.000
X29.747 Y20.008
X29.747 Y21.064
X30.311 Y21.072
G0 Z3.000
G0  X58.777 Y16.332
G0  Z3.000
G01 F400 Z0
G01 F400 Z-0.100
G01F400X58.333 Y16.237
X57.919 Y16.053
X57.552 Y15.786
X57.248 Y15.449
X57.022 Y15.056
X56.881 Y14.624
X56.834 Y14.173
X56.881 Y13.722
X57.022 Y13.290
X57.248 Y12.898
X57.552 Y12.560
X57.919 Y12.294
X58.333 Y12.109
X58.777 Y12.015
X59.231 Y12.015
X59.675 Y12.109
X60.089 Y12.294
X60.457 Y12.560
X60.760 Y12.898
X60.987 Y13.290
X61.127 Y13.722
X61.175 Y14.173
X61.127 Y14.624
X60.987 Y15.056
X60.760 Y15.449
X60.457 Y15.786
X60.089 Y16.053
X59.675 Y16.237
X59.231 Y16.332
X58.777 Y16.332
G0 Z3.000
M05
(  )
T609 M06
( Drilling )
M03 S10000
G00 X58.997 Y31.953
G0  Z3.000
G01 F360.0 Z-1.760
G00 Z3.000
G00 X58.997 Y14.173
G0  Z3.000
G01 F360.0 Z-1.760
G00 Z3.000
G00 X52.647 Y12.903
G0  Z3.000
G01 F360.0 Z-1.760
G00 Z3.000
G00 X50.107 Y12.903
G0  Z3.000
G01 F360.0 Z-1.760
G00 Z3.000
G00 X17.087 Y12.903
G0  Z3.000
G01 F360.0 Z-1.760
G00 Z3.000
G00 X42.487 Y12.903
G0  Z3.000
G01 F360.0 Z-1.760
G00 Z3.000
G00 X39.947 Y12.903
G0  Z3.000
G01 F360.0 Z-1.760
G00 Z3.000
G00 X45.027 Y33.223
G0  Z3.000
G01 F360.0 Z-1.760
G00 Z3.000
G00 X55.187 Y12.903
G0  Z3.000
G01 F360.0 Z-1.760
G00 Z3.000
G00 X47.567 Y12.903
G0  Z3.000
G01 F360.0 Z-1.760
G00 Z3.000
G00 X24.707 Y33.223
G0  Z3.000
G01 F360.0 Z-1.760
G00 Z3.000
G00 X34.867 Y33.223
G0  Z3.000
G01 F360.0 Z-1.760
G00 Z3.000
G00 X34.867 Y12.903
G0  Z3.000
G01 F360.0 Z-1.760
G00 Z3.000
G00 X45.027 Y12.903
G0  Z3.000
G01 F360.0 Z-1.760
G00 Z3.000
G00 X27.247 Y12.903
G0  Z3.000
G01 F360.0 Z-1.760
G00 Z3.000
G00 X22.167 Y12.903
G0  Z3.000
G01 F360.0 Z-1.760
G00 Z3.000
G00 X24.707 Y12.903
G0  Z3.000
G01 F360.0 Z-1.760
G00 Z3.000
G00 X37.407 Y12.903
G0  Z3.000
G01 F360.0 Z-1.760
G00 Z3.000
G00 X37.407 Y33.223
G0  Z3.000
G01 F360.0 Z-1.760
G00 Z3.000
G00 X27.247 Y33.223
G0  Z3.000
G01 F360.0 Z-1.760
G00 Z3.000
G00 X42.487 Y33.223
G0  Z3.000
G01 F360.0 Z-1.760
G00 Z3.000
G00 X19.627 Y12.903
G0  Z3.000
G01 F360.0 Z-1.760
G00 Z3.000
G00 X29.787 Y33.223
G0  Z3.000
G01 F360.0 Z-1.760
G00 Z3.000
G00 X29.787 Y12.903
G0  Z3.000
G01 F360.0 Z-1.760
G00 Z3.000
G00 X32.327 Y33.223
G0  Z3.000
G01 F360.0 Z-1.760
G00 Z3.000
G00 X32.327 Y12.903
G0  Z3.000
G01 F360.0 Z-1.760
G00 Z3.000
G00 X22.167 Y33.223
G0  Z3.000
G01 F360.0 Z-1.760
G00 Z3.000
G00 X19.627 Y33.223
G0  Z3.000
G01 F360.0 Z-1.760
G00 Z3.000
G00 X17.087 Y33.223
G0  Z3.000
G01 F360.0 Z-1.760
G00 Z3.000
G00 X39.947 Y33.223
G0  Z3.000
G01 F360.0 Z-1.760
G00 Z3.000
M05
(  )
T112 M06
( Rubout )
M03 S10000
G0  X13.793 Y35.979
G0  Z3.000
G01 F400 Z0
G01 F400 Z-0.100
G01F400X13.793 Y34.789
X16.034 Y34.789
X16.144 Y34.869
X16.507 Y35.031
X16.896 Y35.113
X17.293 Y35.113
X17.681 Y35.031
X18.044 Y34.869
X18.155 Y34.789
X18.574 Y34.789
X18.684 Y34.869
X19.047 Y35.031
X19.436 Y35.113
X19.833 Y35.113
X20.221 Y35.031
X20.584 Y34.869
X20.695 Y34.789
X21.114 Y34.789
X21.224 Y34.869
X21.587 Y35.031
X21.976 Y35.113
X22.373 Y35.113
X22.761 Y35.031
X23.124 Y34.869
X23.235 Y34.789
X23.654 Y34.789
X23.764 Y34.869
X24.127 Y35.031
X24.516 Y35.113
X24.913 Y35.113
X25.301 Y35.031
X25.664 Y34.869
X25.775 Y34.789
X26.194 Y34.789
X26.304 Y34.869
X26.667 Y35.031
X27.056 Y35.113
X27.453 Y35.113
X27.841 Y35.031
X28.204 Y34.869
X28.315 Y34.789
X28.734 Y34.789
X28.844 Y34.869
X29.207 Y35.031
X29.596 Y35.113
X29.993 Y35.113
X30.381 Y35.031
X30.744 Y34.869
X30.855 Y34.789
X31.274 Y34.789
X31.384 Y34.869
X31.747 Y35.031
X32.136 Y35.113
X32.533 Y35.113
X32.921 Y35.031
X33.284 Y34.869
X33.395 Y34.789
X33.814 Y34.789
X33.924 Y34.869
X34.287 Y35.031
X34.676 Y35.113
X35.073 Y35.113
X35.461 Y35.031
X35.824 Y34.869
X35.935 Y34.789
X36.354 Y34.789
X36.464 Y34.869
X36.827 Y35.031
X37.216 Y35.113
X37.613 Y35.113
X38.001 Y35.031
X38.364 Y34.869
X38.475 Y34.789
X38.894 Y34.789
X39.004 Y34.869
X39.367 Y35.031
X39.756 Y35.113
X40.153 Y35.113
X40.541 Y35.031
X40.904 Y34.869
X41.015 Y34.789
X41.434 Y34.789
X41.544 Y34.869
X41.907 Y35.031
X42.296 Y35.113
X42.693 Y35.113
X43.081 Y35.031
X43.444 Y34.869
X43.555 Y34.789
X43.974 Y34.789
X44.084 Y34.869
X44.447 Y35.031
X44.836 Y35.113
X45.233 Y35.113
X45.621 Y35.031
X45.984 Y34.869
X46.095 Y34.789
X63.207 Y34.789
X63.207 Y35.979
X13.793 Y35.979
G0 Z3.000
G0  X13.793 Y33.599
G0  Z3.000
G01 F400 Z0
G01 F400 Z-0.100
G01F400X13.793 Y32.408
X15.383 Y32.408
X15.358 Y32.450
X15.235 Y32.828
X15.194 Y33.223
X15.233 Y33.599
X13.793 Y33.599
G0 Z3.000
G0  X46.895 Y33.599
G0  Z3.000
G01 F400 Z0
G01 F400 Z-0.100
G01F400X46.934 Y33.223
X46.893 Y32.828
X46.770 Y32.450
X46.746 Y32.408
X56.496 Y32.408
X56.504 Y32.485
X56.669 Y32.993
X56.937 Y33.456
X57.065 Y33.599
X46.895 Y33.599
G0 Z3.000
G0  X60.943 Y33.599
G0  Z3.000
G01 F400 Z0
G01 F400 Z-0.100
G01F400X61.072 Y33.456
X61.339 Y32.993
X61.504 Y32.485
X61.512 Y32.408
X63.207 Y32.408
X63.207 Y33.599
X60.943 Y33.599
G0 Z3.000
G0  X13.793 Y31.218
G0  Z3.000
G01 F400 Z0
G01 F400 Z-0.100
G01F400X13.793 Y30.028
X57.330 Y30.028
X57.294 Y30.054
X56.937 Y30.451
X56.669 Y30.914
X56.570 Y31.218
X13.793 Y31.218
G0 Z3.000
G0  X61.438 Y31.218
G0  Z3.000
G01 F400 Z0
G01 F400 Z-0.100
G01F400X61.339 Y30.914
X61.072 Y30.451
X60.714 Y30.054
X60.678 Y30.028
X63.207 Y30.028
X63.207 Y31.218
X61.438 Y31.218
G0 Z3.000
G0  X13.793 Y28.838
G0  Z3.000
G01 F400 Z0
G01 F400 Z-0.100
G01F400X13.793 Y27.647
X63.207 Y27.647
X63.207 Y28.838
X13.793 Y28.838
G0 Z3.000
G0  X13.793 Y26.457
G0  Z3.000
G01 F400 Z0
G01 F400 Z-0.100
G01F400X13.793 Y25.267
X28.452 Y25.267
X28.481 Y25.288
X28.692 Y25.382
X28.917 Y25.430
X29.928 Y25.430
X29.928 Y26.077
X36.214 Y26.077
X36.214 Y25.430
X40.188 Y25.430
X40.188 Y25.877
X45.207 Y25.877
X45.207 Y25.430
X46.826 Y25.430
X47.051 Y25.382
X47.262 Y25.288
X47.291 Y25.267
X63.207 Y25.267
X63.207 Y26.457
X13.793 Y26.457
G0 Z3.000
G0  X13.793 Y24.077
G0  Z3.000
G01 F400 Z0
G01 F400 Z-0.100
G01F400X13.793 Y22.886
X27.934 Y22.886
X27.934 Y24.077
X13.793 Y24.077
G0 Z3.000
G0  X47.809 Y24.077
G0  Z3.000
G01 F400 Z0
G01 F400 Z-0.100
G01F400X47.809 Y22.886
X63.207 Y22.886
X63.207 Y24.077
X47.809 Y24.077
G0 Z3.000
G0  X36.214 Y23.237
G0  Z3.000
G01 F400 Z0
G01 F400 Z-0.100
G01F400X36.214 Y22.890
X40.188 Y22.890
X40.188 Y23.237
X36.214 Y23.237
G0 Z3.000
G0  X45.207 Y23.237
G0  Z3.000
G01 F400 Z0
G01 F400 Z-0.100
G01F400X45.207 Y22.886
X45.612 Y22.886
X45.612 Y23.237
X45.207 Y23.237
G0 Z3.000
G0  X13.793 Y21.696
G0  Z3.000
G01 F400 Z0
G01 F400 Z-0.100
G01F400X13.793 Y20.506
X27.934 Y20.506
X27.934 Y21.696
X13.793 Y21.696
G0 Z3.000
G0  X47.809 Y21.696
G0  Z3.000
G01 F400 Z0
G01 F400 Z-0.100
G01F400X47.809 Y20.506
X63.207 Y20.506
X63.207 Y21.696
X47.809 Y21.696
G0 Z3.000
G0  X36.214 Y20.697
G0  Z3.000
G01 F400 Z0
G01 F400 Z-0.100
G01F400X36.214 Y20.506
X40.188 Y20.506
X40.188 Y20.697
X36.214 Y20.697
G0 Z3.000
G0  X45.207 Y20.686
G0  Z3.000
G01 F400 Z0
G01 F400 Z-0.100
G01F400X45.207 Y20.506
X45.612 Y20.506
X45.612 Y20.682
X45.207 Y20.686
G0 Z3.000
G0  X13.793 Y19.316
G0  Z3.000
G01 F400 Z0
G01 F400 Z-0.100
G01F400X13.793 Y18.125
X27.934 Y18.125
X27.934 Y19.316
X13.793 Y19.316
G0 Z3.000
G0  X49.142 Y19.316
G0  Z3.000
G01 F400 Z0
G01 F400 Z-0.100
G01F400X51.523 Y18.125
X63.207 Y18.125
X63.207 Y19.316
X49.142 Y19.316
G0 Z3.000
G0  X46.461 Y18.201
G0  Z3.000
G01 F400 Z0
G01 F400 Z-0.100
G01F400X45.207 Y18.175
X45.207 Y18.125
X46.614 Y18.125
X46.461 Y18.201
G0 Z3.000
G0  X36.214 Y18.157
G0  Z3.000
G01 F400 Z0
G01 F400 Z-0.100
G01F400X36.214 Y18.125
X40.188 Y18.125
X40.188 Y18.157
X36.214 Y18.157
G0 Z3.000
G0  X13.793 Y16.935
G0  Z3.000
G01 F400 Z0
G01 F400 Z-0.100
G01F400X13.793 Y15.745
X28.568 Y15.745
X28.481 Y15.784
X28.294 Y15.919
X28.140 Y16.091
X28.025 Y16.290
X27.954 Y16.509
X27.934 Y16.697
X27.934 Y16.935
X13.793 Y16.935
G0 Z3.000
G0  X47.792 Y16.935
G0  Z3.000
G01 F400 Z0
G01 F400 Z-0.100
G01F400X48.061 Y15.745
X50.927 Y15.745
X50.875 Y15.995
X48.994 Y16.935
X47.792 Y16.935
G0 Z3.000
G0  X52.922 Y16.935
G0  Z3.000
G01 F400 Z0
G01 F400 Z-0.100
G01F400X53.171 Y15.745
X56.999 Y15.745
X57.294 Y16.073
X57.726 Y16.387
X58.214 Y16.604
X58.737 Y16.715
X59.271 Y16.715
X59.794 Y16.604
X60.282 Y16.387
X60.714 Y16.073
X61.010 Y15.745
X63.207 Y15.745
X63.207 Y16.935
X52.922 Y16.935
G0 Z3.000
G0  X13.793 Y14.555
G0  Z3.000
G01 F400 Z0
G01 F400 Z-0.100
G01F400X13.793 Y13.364
X15.257 Y13.364
X15.358 Y13.676
X15.557 Y14.020
X15.823 Y14.315
X16.144 Y14.549
X13.793 Y14.555
G0 Z3.000
G0  X18.032 Y14.555
G0  Z3.000
G01 F400 Z0
G01 F400 Z-0.100
G01F400X18.364 Y14.317
X18.684 Y14.549
X18.032 Y14.555
G0 Z3.000
G0  X20.572 Y14.555
G0  Z3.000
G01 F400 Z0
G01 F400 Z-0.100
G01F400X20.904 Y14.317
X21.224 Y14.549
X20.572 Y14.555
G0 Z3.000
G0  X23.112 Y14.555
G0  Z3.000
G01 F400 Z0
G01 F400 Z-0.100
G01F400X23.444 Y14.317
X23.764 Y14.549
X23.112 Y14.555
G0 Z3.000
G0  X25.652 Y14.555
G0  Z3.000
G01 F400 Z0
G01 F400 Z-0.100
G01F400X25.984 Y14.317
X26.304 Y14.549
X25.652 Y14.555
G0 Z3.000
G0  X28.192 Y14.555
G0  Z3.000
G01 F400 Z0
G01 F400 Z-0.100
G01F400X28.524 Y14.317
X28.844 Y14.549
X28.192 Y14.555
G0 Z3.000
G0  X30.732 Y14.555
G0  Z3.000
G01 F400 Z0
G01 F400 Z-0.100
G01F400X31.064 Y14.317
X31.384 Y14.549
X30.732 Y14.555
G0 Z3.000
G0  X33.272 Y14.555
G0  Z3.000
G01 F400 Z0
G01 F400 Z-0.100
G01F400X33.604 Y14.317
X33.924 Y14.549
X33.272 Y14.555
G0 Z3.000
G0  X35.812 Y14.555
G0  Z3.000
G01 F400 Z0
G01 F400 Z-0.100
G01F400X36.144 Y14.317
X36.464 Y14.549
X35.812 Y14.555
G0 Z3.000
G0  X38.352 Y14.555
G0  Z3.000
G01 F400 Z0
G01 F400 Z-0.100
G01F400X38.684 Y14.317
X39.004 Y14.549
X38.352 Y14.555
G0 Z3.000
G0  X40.892 Y14.555
G0  Z3.000
G01 F400 Z0
G01 F400 Z-0.100
G01F400X41.224 Y14.317
X41.544 Y14.549
X40.892 Y14.555
G0 Z3.000
G0  X43.432 Y14.555
G0  Z3.000
G01 F400 Z0
G01 F400 Z-0.100
G01F400X43.764 Y14.317
X44.084 Y14.549
X43.432 Y14.555
G0 Z3.000
G0  X45.972 Y14.555
G0  Z3.000
G01 F400 Z0
G01 F400 Z-0.100
G01F400X46.098 Y14.466
X46.078 Y14.555
X45.972 Y14.555
G0 Z3.000
G0  X48.512 Y14.555
G0  Z3.000
G01 F400 Z0
G01 F400 Z-0.100
G01F400X48.844 Y14.317
X49.164 Y14.549
X48.512 Y14.555
G0 Z3.000
G0  X51.052 Y14.555
G0  Z3.000
G01 F400 Z0
G01 F400 Z-0.100
G01F400X51.196 Y14.453
X51.175 Y14.555
X51.052 Y14.555
G0 Z3.000
G0  X53.592 Y14.555
G0  Z3.000
G01 F400 Z0
G01 F400 Z-0.100
G01F400X53.924 Y14.317
X54.244 Y14.549
X53.592 Y14.555
G0 Z3.000
G0  X56.132 Y14.555
G0  Z3.000
G01 F400 Z0
G01 F400 Z-0.100
G01F400X56.463 Y14.317
X56.488 Y14.555
X56.132 Y14.555
G0 Z3.000
G0  X61.520 Y14.555
G0  Z3.000
G01 F400 Z0
G01 F400 Z-0.100
G01F400X61.560 Y14.173
X61.504 Y13.642
X61.414 Y13.364
X63.207 Y13.364
X63.207 Y14.555
X61.520 Y14.555
G0 Z3.000
G0  X13.793 Y12.174
G0  Z3.000
G01 F400 Z0
G01 F400 Z-0.100
G01F400X13.793 Y10.984
X63.207 Y10.984
X63.207 Y12.174
X60.577 Y12.174
X60.282 Y11.960
X59.794 Y11.742
X59.271 Y11.631
X58.737 Y11.631
X58.214 Y11.742
X57.726 Y11.960
X57.431 Y12.174
X56.944 Y12.174
X56.930 Y12.130
X56.732 Y11.786
X56.466 Y11.491
X56.144 Y11.258
X55.781 Y11.096
X55.393 Y11.013
X54.996 Y11.013
X54.607 Y11.096
X54.244 Y11.258
X53.924 Y11.490
X53.604 Y11.258
X53.241 Y11.096
X52.853 Y11.013
X52.456 Y11.013
X52.067 Y11.096
X51.704 Y11.258
X51.384 Y11.490
X51.064 Y11.258
X50.701 Y11.096
X50.313 Y11.013
X49.916 Y11.013
X49.527 Y11.096
X49.164 Y11.258
X48.844 Y11.490
X48.524 Y11.258
X48.161 Y11.096
X47.773 Y11.013
X47.376 Y11.013
X46.987 Y11.096
X46.624 Y11.258
X46.304 Y11.490
X45.984 Y11.258
X45.621 Y11.096
X45.233 Y11.013
X44.836 Y11.013
X44.447 Y11.096
X44.084 Y11.258
X43.764 Y11.490
X43.444 Y11.258
X43.081 Y11.096
X42.693 Y11.013
X42.296 Y11.013
X41.907 Y11.096
X41.544 Y11.258
X41.224 Y11.490
X40.904 Y11.258
X40.541 Y11.096
X40.153 Y11.013
X39.756 Y11.013
X39.367 Y11.096
X39.004 Y11.258
X38.684 Y11.490
X38.364 Y11.258
X38.001 Y11.096
X37.613 Y11.013
X37.216 Y11.013
X36.827 Y11.096
X36.464 Y11.258
X36.144 Y11.490
X35.824 Y11.258
X35.461 Y11.096
X35.073 Y11.013
X34.676 Y11.013
X34.287 Y11.096
X33.924 Y11.258
X33.604 Y11.490
X33.284 Y11.258
X32.921 Y11.096
X32.533 Y11.013
X32.136 Y11.013
X31.747 Y11.096
X31.384 Y11.258
X31.064 Y11.490
X30.744 Y11.258
X30.381 Y11.096
X29.993 Y11.013
X29.596 Y11.013
X29.207 Y11.096
X28.844 Y11.258
X28.524 Y11.490
X28.204 Y11.258
X27.841 Y11.096
X27.453 Y11.013
X27.056 Y11.013
X26.667 Y11.096
X26.304 Y11.258
X25.984 Y11.490
X25.664 Y11.258
X25.301 Y11.096
X24.913 Y11.013
X24.516 Y11.013
X24.127 Y11.096
X23.764 Y11.258
X23.444 Y11.490
X23.124 Y11.258
X22.761 Y11.096
X22.373 Y11.013
X21.976 Y11.013
X21.587 Y11.096
X21.224 Y11.258
X20.904 Y11.490
X20.584 Y11.258
X20.221 Y11.096
X19.833 Y11.013
X19.436 Y11.013
X19.047 Y11.096
X18.684 Y11.258
X18.364 Y11.490
X18.044 Y11.258
X17.681 Y11.096
X17.293 Y11.013
X16.896 Y11.013
X16.507 Y11.096
X16.144 Y11.258
X15.823 Y11.491
X15.557 Y11.786
X15.358 Y12.130
X15.344 Y12.174
X13.793 Y12.174
G0 Z3.000
G0  X13.793 Y36.206
G0  Z3.000
G01 F400 Z0
G01 F400 Z-0.100
G01F400X13.793 Y9.793
X63.207 Y9.793
X63.207 Y36.206
X13.793 Y36.206
G0 Z3.000
G0  X16.896 Y35.113
G0  Z3.000
G01 F400 Z0
G01 F400 Z-0.100
G01F400X17.293 Y35.113
X17.681 Y35.031
X18.044 Y34.869
X18.364 Y34.637
X18.684 Y34.869
X19.047 Y35.031
X19.436 Y35.113
X19.833 Y35.113
X20.221 Y35.031
X20.584 Y34.869
X20.904 Y34.637
X21.224 Y34.869
X21.587 Y35.031
X21.976 Y35.113
X22.373 Y35.113
X22.761 Y35.031
X23.124 Y34.869
X23.444 Y34.637
X23.764 Y34.869
X24.127 Y35.031
X24.516 Y35.113
X24.913 Y35.113
X25.301 Y35.031
X25.664 Y34.869
X25.984 Y34.637
X26.304 Y34.869
X26.667 Y35.031
X27.056 Y35.113
X27.453 Y35.113
X27.841 Y35.031
X28.204 Y34.869
X28.524 Y34.637
X28.844 Y34.869
X29.207 Y35.031
X29.596 Y35.113
X29.993 Y35.113
X30.381 Y35.031
X30.744 Y34.869
X31.064 Y34.637
X31.384 Y34.869
X31.747 Y35.031
X32.136 Y35.113
X32.533 Y35.113
X32.921 Y35.031
X33.284 Y34.869
X33.604 Y34.637
X33.924 Y34.869
X34.287 Y35.031
X34.676 Y35.113
X35.073 Y35.113
X35.461 Y35.031
X35.824 Y34.869
X36.144 Y34.637
X36.464 Y34.869
X36.827 Y35.031
X37.216 Y35.113
X37.613 Y35.113
X38.001 Y35.031
X38.364 Y34.869
X38.684 Y34.637
X39.004 Y34.869
X39.367 Y35.031
X39.756 Y35.113
X40.153 Y35.113
X40.541 Y35.031
X40.904 Y34.869
X41.224 Y34.637
X41.544 Y34.869
X41.907 Y35.031
X42.296 Y35.113
X42.693 Y35.113
X43.081 Y35.031
X43.444 Y34.869
X43.764 Y34.637
X44.084 Y34.869
X44.447 Y35.031
X44.836 Y35.113
X45.233 Y35.113
X45.621 Y35.031
X45.984 Y34.869
X46.306 Y34.635
X46.572 Y34.340
X46.770 Y33.996
X46.893 Y33.618
X46.934 Y33.223
X46.893 Y32.828
X46.770 Y32.450
X46.572 Y32.106
X46.306 Y31.811
X45.984 Y31.578
X45.621 Y31.416
X45.233 Y31.333
X44.836 Y31.333
X44.447 Y31.416
X44.084 Y31.578
X43.764 Y31.810
X43.444 Y31.578
X43.081 Y31.416
X42.693 Y31.333
X42.296 Y31.333
X41.907 Y31.416
X41.544 Y31.578
X41.224 Y31.810
X40.904 Y31.578
X40.541 Y31.416
X40.153 Y31.333
X39.756 Y31.333
X39.367 Y31.416
X39.004 Y31.578
X38.684 Y31.810
X38.364 Y31.578
X38.001 Y31.416
X37.613 Y31.333
X37.216 Y31.333
X36.827 Y31.416
X36.464 Y31.578
X36.144 Y31.810
X35.824 Y31.578
X35.461 Y31.416
X35.073 Y31.333
X34.676 Y31.333
X34.287 Y31.416
X33.924 Y31.578
X33.604 Y31.810
X33.284 Y31.578
X32.921 Y31.416
X32.533 Y31.333
X32.136 Y31.333
X31.747 Y31.416
X31.384 Y31.578
X31.064 Y31.810
X30.744 Y31.578
X30.381 Y31.416
X29.993 Y31.333
X29.596 Y31.333
X29.207 Y31.416
X28.844 Y31.578
X28.524 Y31.810
X28.204 Y31.578
X27.841 Y31.416
X27.453 Y31.333
X27.056 Y31.333
X26.667 Y31.416
X26.304 Y31.578
X25.984 Y31.810
X25.664 Y31.578
X25.301 Y31.416
X24.913 Y31.333
X24.516 Y31.333
X24.127 Y31.416
X23.764 Y31.578
X23.444 Y31.810
X23.124 Y31.578
X22.761 Y31.416
X22.373 Y31.333
X21.976 Y31.333
X21.587 Y31.416
X21.224 Y31.578
X20.904 Y31.810
X20.584 Y31.578
X20.221 Y31.416
X19.833 Y31.333
X19.436 Y31.333
X19.047 Y31.416
X18.684 Y31.578
X18.364 Y31.810
X18.044 Y31.578
X17.681 Y31.416
X17.293 Y31.333
X16.896 Y31.333
X16.507 Y31.416
X16.144 Y31.578
X15.823 Y31.811
X15.557 Y32.106
X15.358 Y32.450
X15.235 Y32.828
X15.194 Y33.223
X15.235 Y33.618
X15.358 Y33.996
X15.557 Y34.340
X15.823 Y34.635
X16.144 Y34.869
X16.507 Y35.031
X16.896 Y35.113
G0 Z3.000
G0  X58.737 Y34.495
G0  Z3.000
G01 F400 Z0
G01 F400 Z-0.100
G01F400X59.271 Y34.495
X59.794 Y34.384
X60.282 Y34.167
X60.714 Y33.853
X61.072 Y33.456
X61.339 Y32.993
X61.504 Y32.485
X61.560 Y31.953
X61.504 Y31.422
X61.339 Y30.914
X61.072 Y30.451
X60.714 Y30.054
X60.282 Y29.740
X59.794 Y29.522
X59.271 Y29.411
X58.737 Y29.411
X58.214 Y29.522
X57.726 Y29.740
X57.294 Y30.054
X56.937 Y30.451
X56.669 Y30.914
X56.504 Y31.422
X56.448 Y31.953
X56.504 Y32.485
X56.669 Y32.993
X56.937 Y33.456
X57.294 Y33.853
X57.726 Y34.167
X58.214 Y34.384
X58.737 Y34.495
G0 Z3.000
G0  X29.928 Y26.077
G0  Z3.000
G01 F400 Z0
G01 F400 Z-0.100
G01F400X36.214 Y26.077
X36.214 Y25.430
X40.188 Y25.430
X40.188 Y25.877
X45.207 Y25.877
X45.207 Y25.430
X46.826 Y25.430
X47.051 Y25.382
X47.262 Y25.288
X47.448 Y25.153
X47.603 Y24.981
X47.718 Y24.782
X47.789 Y24.563
X47.809 Y24.375
X47.809 Y19.982
X52.407 Y17.683
X52.579 Y17.558
X52.733 Y17.387
X52.849 Y17.187
X52.908 Y17.006
X53.401 Y14.639
X53.604 Y14.549
X53.924 Y14.317
X54.244 Y14.549
X54.607 Y14.711
X54.996 Y14.793
X55.393 Y14.793
X55.781 Y14.711
X56.144 Y14.549
X56.463 Y14.317
X56.504 Y14.705
X56.669 Y15.213
X56.937 Y15.676
X57.294 Y16.073
X57.726 Y16.387
X58.214 Y16.604
X58.737 Y16.715
X59.271 Y16.715
X59.794 Y16.604
X60.282 Y16.387
X60.714 Y16.073
X61.072 Y15.676
X61.339 Y15.213
X61.504 Y14.705
X61.560 Y14.173
X61.504 Y13.642
X61.339 Y13.134
X61.072 Y12.671
X60.714 Y12.274
X60.282 Y11.960
X59.794 Y11.742
X59.271 Y11.631
X58.737 Y11.631
X58.214 Y11.742
X57.726 Y11.960
X57.294 Y12.274
X57.056 Y12.538
X57.053 Y12.508
X56.930 Y12.130
X56.732 Y11.786
X56.466 Y11.491
X56.144 Y11.258
X55.781 Y11.096
X55.393 Y11.013
X54.996 Y11.013
X54.607 Y11.096
X54.244 Y11.258
X53.924 Y11.490
X53.604 Y11.258
X53.241 Y11.096
X52.853 Y11.013
X52.456 Y11.013
X52.067 Y11.096
X51.704 Y11.258
X51.384 Y11.490
X51.064 Y11.258
X50.701 Y11.096
X50.313 Y11.013
X49.916 Y11.013
X49.527 Y11.096
X49.164 Y11.258
X48.844 Y11.490
X48.524 Y11.258
X48.161 Y11.096
X47.773 Y11.013
X47.376 Y11.013
X46.987 Y11.096
X46.624 Y11.258
X46.304 Y11.490
X45.984 Y11.258
X45.621 Y11.096
X45.233 Y11.013
X44.836 Y11.013
X44.447 Y11.096
X44.084 Y11.258
X43.764 Y11.490
X43.444 Y11.258
X43.081 Y11.096
X42.693 Y11.013
X42.296 Y11.013
X41.907 Y11.096
X41.544 Y11.258
X41.224 Y11.490
X40.904 Y11.258
X40.541 Y11.096
X40.153 Y11.013
X39.756 Y11.013
X39.367 Y11.096
X39.004 Y11.258
X38.684 Y11.490
X38.364 Y11.258
X38.001 Y11.096
X37.613 Y11.013
X37.216 Y11.013
X36.827 Y11.096
X36.464 Y11.258
X36.144 Y11.490
X35.824 Y11.258
X35.461 Y11.096
X35.073 Y11.013
X34.676 Y11.013
X34.287 Y11.096
X33.924 Y11.258
X33.604 Y11.490
X33.284 Y11.258
X32.921 Y11.096
X32.533 Y11.013
X32.136 Y11.013
X31.747 Y11.096
X31.384 Y11.258
X31.064 Y11.490
X30.744 Y11.258
X30.381 Y11.096
X29.993 Y11.013
X29.596 Y11.013
X29.207 Y11.096
X28.844 Y11.258
X28.524 Y11.490
X28.204 Y11.258
X27.841 Y11.096
X27.453 Y11.013
X27.056 Y11.013
X26.667 Y11.096
X26.304 Y11.258
X25.984 Y11.490
X25.664 Y11.258
X25.301 Y11.096
X24.913 Y11.013
X24.516 Y11.013
X24.127 Y11.096
X23.764 Y11.258
X23.444 Y11.490
X23.124 Y11.258
X22.761 Y11.096
X22.373 Y11.013
X21.976 Y11.013
X21.587 Y11.096
X21.224 Y11.258
X20.904 Y11.490
X20.584 Y11.258
X20.221 Y11.096
X19.833 Y11.013
X19.436 Y11.013
X19.047 Y11.096
X18.684 Y11.258
X18.364 Y11.490
X18.044 Y11.258
X17.681 Y11.096
X17.293 Y11.013
X16.896 Y11.013
X16.507 Y11.096
X16.144 Y11.258
X15.823 Y11.491
X15.557 Y11.786
X15.358 Y12.130
X15.235 Y12.508
X15.194 Y12.903
X15.235 Y13.298
X15.358 Y13.676
X15.557 Y14.020
X15.823 Y14.315
X16.144 Y14.549
X16.507 Y14.711
X16.896 Y14.793
X17.293 Y14.793
X17.681 Y14.711
X18.044 Y14.549
X18.364 Y14.317
X18.684 Y14.549
X19.047 Y14.711
X19.436 Y14.793
X19.833 Y14.793
X20.221 Y14.711
X20.584 Y14.549
X20.904 Y14.317
X21.224 Y14.549
X21.587 Y14.711
X21.976 Y14.793
X22.373 Y14.793
X22.761 Y14.711
X23.124 Y14.549
X23.444 Y14.317
X23.764 Y14.549
X24.127 Y14.711
X24.516 Y14.793
X24.913 Y14.793
X25.301 Y14.711
X25.664 Y14.549
X25.984 Y14.317
X26.304 Y14.549
X26.667 Y14.711
X27.056 Y14.793
X27.453 Y14.793
X27.841 Y14.711
X28.204 Y14.549
X28.524 Y14.317
X28.844 Y14.549
X29.207 Y14.711
X29.596 Y14.793
X29.993 Y14.793
X30.381 Y14.711
X30.744 Y14.549
X31.064 Y14.317
X31.384 Y14.549
X31.747 Y14.711
X32.136 Y14.793
X32.533 Y14.793
X32.921 Y14.711
X33.284 Y14.549
X33.604 Y14.317
X33.924 Y14.549
X34.287 Y14.711
X34.676 Y14.793
X35.073 Y14.793
X35.461 Y14.711
X35.824 Y14.549
X36.144 Y14.317
X36.464 Y14.549
X36.827 Y14.711
X37.216 Y14.793
X37.613 Y14.793
X38.001 Y14.711
X38.364 Y14.549
X38.684 Y14.317
X39.004 Y14.549
X39.367 Y14.711
X39.756 Y14.793
X40.153 Y14.793
X40.541 Y14.711
X40.904 Y14.549
X41.224 Y14.317
X41.544 Y14.549
X41.907 Y14.711
X42.296 Y14.793
X42.693 Y14.793
X43.081 Y14.711
X43.444 Y14.549
X43.764 Y14.317
X44.084 Y14.549
X44.447 Y14.711
X44.836 Y14.793
X45.233 Y14.793
X45.621 Y14.711
X45.984 Y14.549
X46.098 Y14.466
X45.833 Y15.642
X28.917 Y15.642
X28.692 Y15.690
X28.481 Y15.784
X28.294 Y15.919
X28.140 Y16.091
X28.025 Y16.290
X27.954 Y16.509
X27.934 Y16.697
X27.934 Y24.375
X27.954 Y24.563
X28.025 Y24.782
X28.140 Y24.981
X28.294 Y25.153
X28.481 Y25.288
X28.692 Y25.382
X28.917 Y25.430
X29.928 Y25.430
X29.928 Y26.077
G0 Z3.000
G0  X36.214 Y23.237
G0  Z3.000
G01 F400 Z0
G01 F400 Z-0.100
G01F400X36.214 Y22.890
X40.188 Y22.890
X40.188 Y23.237
X36.214 Y23.237
G0 Z3.000
G0  X45.207 Y23.237
G0  Z3.000
G01 F400 Z0
G01 F400 Z-0.100
G01F400X45.207 Y22.881
X45.612 Y22.876
X45.612 Y23.237
X45.207 Y23.237
G0 Z3.000
G0  X36.214 Y20.697
G0  Z3.000
G01 F400 Z0
G01 F400 Z-0.100
G01F400X36.214 Y20.350
